;Generated from iPhone_6SP_Case.stl (hash: n/a)
;Generated with Cura_SteamEngine DEV
M109 T0 S215.0
T0
; Sliced at: Sun 07-06-2020 10:57:46
; Basic settings: Layer height: 0.25 Walls: 1.4 Fill: 8.75

;Layer count: 47
;LAYER:-2
;RAFT
G0 F1200 X13.131 Y-19.509 Z0.400
;TYPE:SUPPORT
G1 F480 X13.131 Y-20.109 E0.24945
G1 X13.331 Y-20.109 E0.33260
G1 X13.331 Y-20.909 E0.66520
G1 X13.531 Y-20.909 E0.74835
G1 X13.531 Y-21.509 E0.99780
G1 X13.731 Y-21.509 E1.08095
G1 X13.731 Y-22.309 E1.41356
G1 X14.131 Y-22.309 E1.57986
G1 X14.131 Y-22.909 E1.82931
G1 X15.331 Y-22.909 E2.32821
G1 X15.331 Y-23.127 E2.41884
G1 X17.113 Y-24.909 E3.46659
G1 X18.101 Y-24.909 E3.87735
G1 X18.046 Y-25.042 E3.93719
G1 X20.313 Y-27.309 E5.27010
G1 X21.993 Y-27.309 E5.96856
G1 X23.594 Y-28.109 E6.71265
G1 X26.535 Y-28.109 E7.93538
G1 X26.829 Y-27.399 E8.25487
G1 X29.549 Y-27.415 E9.38573
G1 X78.448 Y-27.415 E29.71557
G1 X82.283 Y-27.405 E31.30999
G1 X83.540 Y-27.328 E31.83357
G1 X84.388 Y-27.201 E32.19006
G1 X85.279 Y-27.006 E32.56926
G1 X86.086 Y-26.758 E32.92026
G1 X86.941 Y-26.439 E33.29966
G1 X87.704 Y-26.072 E33.65167
G1 X88.503 Y-25.635 E34.03029
G1 X89.202 Y-25.159 E34.38188
G1 X89.933 Y-24.612 E34.76146
G1 X90.553 Y-24.037 E35.11302
G1 X91.197 Y-23.392 E35.49196
G1 X91.725 Y-22.731 E35.84369
G1 X91.741 Y-22.709 E35.85500
G1 X93.831 Y-22.709 E36.72392
G1 X93.831 Y-22.309 E36.89022
G1 X94.031 Y-22.309 E36.97337
G1 X94.031 Y-21.909 E37.13967
G1 X94.231 Y-21.909 E37.22282
G1 X94.231 Y-21.509 E37.38912
G1 X94.431 Y-21.509 E37.47227
G1 X94.431 Y-20.909 E37.72172
G1 X94.631 Y-20.909 E37.80487
G1 X94.631 Y-20.309 E38.05432
G1 X94.831 Y-20.309 E38.13747
G1 X94.831 Y-14.509 E40.54883
G1 X94.267 Y-14.509 E40.78332
G1 X94.275 Y-11.528 E42.02268
G1 X94.275 Y117.528 E95.67793
G1 X94.267 Y120.491 E96.90980
G1 X94.831 Y120.491 E97.14429
G1 X94.831 Y126.091 E99.47250
G1 X94.631 Y126.091 E99.55565
G1 X94.631 Y126.691 E99.80510
G1 X93.010 Y126.691 E100.47903
G1 X92.695 Y127.267 E100.75197
G1 X92.273 Y127.998 E101.10290
G1 X91.726 Y128.730 E101.48281
G1 X91.198 Y129.391 E101.83453
G1 X90.554 Y130.036 E102.21347
G1 X89.934 Y130.611 E102.56503
G1 X89.203 Y131.158 E102.94461
G1 X88.504 Y131.634 E103.29621
G1 X87.705 Y132.071 E103.67483
G1 X86.942 Y132.438 E104.02684
G1 X86.090 Y132.756 E104.40493
G1 X85.280 Y133.007 E104.75748
G1 X84.389 Y133.200 E105.13651
G1 X83.553 Y133.327 E105.48806
G1 X82.646 Y133.391 E105.86609
G1 X78.451 Y133.415 E107.61020
G1 X29.552 Y133.415 E127.94004
G1 X25.717 Y133.405 E129.53445
G1 X24.460 Y133.328 E130.05803
G1 X23.612 Y133.201 E130.41452
G1 X22.721 Y133.006 E130.79372
G1 X21.914 Y132.758 E131.14472
G1 X21.059 Y132.439 E131.52412
G1 X20.296 Y132.072 E131.87613
G1 X19.497 Y131.635 E132.25475
G1 X18.798 Y131.159 E132.60635
G1 X18.067 Y130.612 E132.98593
G1 X17.447 Y130.037 E133.33748
G1 X16.803 Y129.392 E133.71642
G1 X16.275 Y128.731 E134.06815
G1 X15.797 Y128.091 E134.40025
G1 X13.731 Y128.091 E135.25919
G1 X13.731 Y126.691 E135.84125
G1 X13.331 Y126.691 E136.00755
G1 X13.331 Y125.891 E136.34015
G1 X13.131 Y125.891 E136.42330
G1 X13.131 Y125.291 E136.67275
G1 X12.931 Y125.291 E136.75590
G1 X12.931 Y-19.509 E196.95674
G1 X13.131 Y-19.509 E197.03989
G0 F1200 X65.233 Y120.820
G1 F480 X64.525 Y121.175 E197.36918
G1 X63.884 Y121.662 E197.70386
G1 X63.362 Y122.238 E198.02704
G1 X63.351 Y122.252 E198.03445
G1 X62.936 Y122.927 E198.36388
G1 X62.933 Y122.934 E198.36704
G1 X62.650 Y123.673 E198.69604
G1 X62.505 Y124.465 E199.03079
G1 X62.509 Y125.257 E199.36007
G1 X62.510 Y125.262 E199.36219
G1 X62.660 Y126.040 E199.69160
G1 X62.663 Y126.047 E199.69477
G1 X62.936 Y126.742 E200.00521
G1 X63.366 Y127.438 E200.34534
G1 X63.913 Y128.038 E200.68290
G1 X64.552 Y128.517 E201.01491
G1 X65.318 Y128.894 E201.36986
G1 X65.665 Y129.006 E201.52146
G1 X66.094 Y129.099 E201.70396
G1 X66.367 Y129.139 E201.81867
G1 X66.780 Y129.160 E201.99060
G1 X66.871 Y129.165 E202.02849
G1 X77.602 Y129.164 E206.48992
G1 X78.782 Y129.165 E206.98050
G1 X79.659 Y129.090 E207.34645
G1 X79.656 Y129.090 E207.34770
G1 X80.031 Y129.002 E207.50784
G1 X80.356 Y128.896 E207.64996
G1 X81.124 Y128.520 E208.00547
G1 X81.128 Y128.518 E208.00733
G1 X81.765 Y128.042 E208.33794
G1 X82.306 Y127.455 E208.66983
G1 X82.725 Y126.787 E208.99766
G1 X82.730 Y126.777 E209.00231
G1 X83.020 Y126.038 E209.33236
G1 X83.169 Y125.256 E209.66333
G1 X83.170 Y125.247 E209.66709
G1 X83.173 Y124.460 E209.99429
G1 X83.172 Y124.453 E209.99723
G1 X83.028 Y123.672 E210.32740
G1 X83.026 Y123.664 E210.33083
G1 X82.764 Y122.983 E210.63419
G1 X82.346 Y122.286 E210.97208
G1 X81.807 Y121.680 E211.30927
G1 X81.164 Y121.185 E211.64664
G1 X80.453 Y120.825 E211.97797
G1 X79.669 Y120.599 E212.31719
G1 X78.776 Y120.514 E212.69013
G1 X66.901 Y120.514 E217.62718
G1 X66.007 Y120.598 E218.00050
G1 X65.233 Y120.820 E218.33527
G0 F1200 X66.000 Y120.990
G1 F480 X66.000 Y-27.783 E280.18790
G0 F1200 X62.000 Y-27.783
G1 F480 X62.000 Y133.786 E347.36048
G0 F1200 X66.000 Y133.787
G1 F480 X66.000 Y128.696 E349.47707
G0 F1200 X70.000 Y128.790
G1 F480 X72.000 Y133.788 E351.55494
G1 X76.000 Y128.790 E353.63301
G1 X78.000 Y133.789 E355.87152
G0 F1200 X78.000 Y120.889
G1 F480 X78.000 Y-27.780 E417.68090
G0 F1200 X74.000 Y-27.781
G1 F480 X74.000 Y120.889 E479.49071
G0 F1200 X70.000 Y120.889
G1 F480 X70.000 Y-27.782 E541.30093
G0 F1200 X58.000 Y-27.784
G1 F480 X58.000 Y133.786 E608.47393
G0 F1200 X54.000 Y133.785
G1 F480 X54.000 Y-27.785 E675.64693
G0 F1200 X50.000 Y-27.786
G1 F480 X50.000 Y133.784 E742.81993
G0 F1200 X46.000 Y133.783
G1 F480 X46.000 Y-27.786 E809.99251
G0 F1200 X42.000 Y-27.787
G1 F480 X42.000 Y133.783 E877.16551
G0 F1200 X38.000 Y133.782
G1 F480 X38.000 Y-27.788 E944.33851
G0 F1200 X34.000 Y-27.789
G1 F480 X34.000 Y133.781 E1011.51151
G0 F1200 X30.000 Y133.780
G1 F480 X30.000 Y-27.789 E1078.68410
G0 F1200 X26.000 Y-28.484
G1 F480 X26.000 Y133.780 E1146.14563
G0 F1200 X22.000 Y133.176
G1 F480 X22.000 Y-27.732 E1213.04340
G0 F1200 X18.000 Y-25.526
G1 F480 X18.000 Y131.030 E1278.13182
G0 F1200 X14.000 Y128.466
G1 F480 X14.000 Y-23.284 E1341.22214
G0 F1200 X82.000 Y-27.780
G1 F480 X82.000 Y122.461 E1403.68509
G0 F1200 X82.000 Y127.233
G1 F480 X82.000 Y133.770 E1406.40286
G0 F1200 X86.000 Y133.177
G1 F480 X86.000 Y-27.176 E1473.06989
G0 F1200 X90.000 Y-25.030
G1 F480 X90.000 Y131.030 E1537.95210
G0 F1200 X94.000 Y127.066
G1 F480 X94.000 Y-23.084 E1600.37721
;LAYER:-1
;RAFT
G0 F1200 X92.956 Y-23.008 Z0.800
;TYPE:SUPPORT
G1 F480 X94.730 Y-21.235 E1601.21141
G0 F1200 X95.130 Y-15.178
G1 F480 X82.624 Y-27.684 E1607.09385
G0 F1200 X76.945 Y-27.705
G1 F480 X94.567 Y-10.084 E1615.38247
G0 F1200 X94.567 Y-4.427
G1 F480 X71.288 Y-27.706 E1626.33219
G0 F1200 X65.630 Y-27.707
G1 F480 X94.567 Y1.229 E1639.94304
G0 F1200 X94.567 Y6.886
G1 F480 X59.972 Y-27.708 E1656.21523
G0 F1200 X54.314 Y-27.710
G1 F480 X94.568 Y12.544 E1675.14948
G0 F1200 X94.568 Y18.200
G1 F480 X48.656 Y-27.710 E1696.74460
G0 F1200 X42.998 Y-27.712
G1 F480 X94.569 Y23.858 E1721.00179
G0 F1200 X94.569 Y29.515
G1 F480 X37.340 Y-27.712 E1747.92008
G0 F1200 X31.682 Y-27.714
G1 F480 X94.569 Y35.172 E1777.49996
G0 F1200 X94.570 Y40.830
G1 F480 X25.332 Y-28.408 E1810.06740
G0 F1200 X20.474 Y-27.608
G1 F480 X94.570 Y46.487 E1844.91965
G0 F1200 X94.571 Y52.144
G1 F480 X17.218 Y-25.208 E1881.30389
G0 F1200 X13.831 Y-22.938
G1 F480 X94.571 Y57.801 E1919.28128
G0 F1200 X94.571 Y63.459
G1 F480 X12.631 Y-18.481 E1957.82334
G0 F1200 X12.631 Y-12.824
G1 F480 X94.571 Y69.116 E1996.36541
G0 F1200 X94.572 Y74.773
G1 F480 X12.631 Y-7.167 E2034.90770
G0 F1200 X12.631 Y-1.511
G1 F480 X94.572 Y80.430 E2073.45024
G0 F1200 X94.573 Y86.088
G1 F480 X12.631 Y4.145 E2111.99348
G0 F1200 X12.631 Y9.802
G1 F480 X94.573 Y91.744 E2150.53648
G0 F1200 X94.574 Y97.402
G1 F480 X12.631 Y15.459 E2189.07996
G0 F1200 X12.631 Y21.116
G1 F480 X94.574 Y103.059 E2227.62343
G0 F1200 X94.574 Y108.716
G1 F480 X12.631 Y26.773 E2266.16691
G0 F1200 X12.631 Y32.430
G1 F480 X94.574 Y114.373 E2304.71038
G0 F1200 X94.568 Y120.024
G1 F480 X12.631 Y38.086 E2343.25127
G0 F1200 X12.631 Y43.743
G1 F480 X95.130 Y126.243 E2382.05651
G0 F1200 X92.039 Y128.809
G1 F480 X12.631 Y49.400 E2419.40783
G0 F1200 X12.631 Y55.057
G1 F480 X78.387 Y120.813 E2450.33744
G0 F1200 X72.730 Y120.813
G1 F480 X12.631 Y60.714 E2478.60616
G0 F1200 X12.631 Y66.371
G1 F480 X67.073 Y120.813 E2504.21401
G0 F1200 X63.380 Y122.777
G1 F480 X12.631 Y72.028 E2528.08478
G0 F1200 X12.631 Y77.684
G1 F480 X68.657 Y133.711 E2554.43793
G0 F1200 X69.467 Y128.864
G1 F480 X74.315 Y133.712 E2556.71828
G0 F1200 X75.124 Y128.864
G1 F480 X79.965 Y133.705 E2558.99534
G0 F1200 X63.000 Y133.711
G1 F480 X12.631 Y83.341 E2582.68761
G0 F1200 X12.631 Y88.998
G1 F480 X57.342 Y133.709 E2603.71829
G0 F1200 X51.684 Y133.708
G1 F480 X12.631 Y94.655 E2622.08763
G0 F1200 X12.631 Y100.312
G1 F480 X46.026 Y133.708 E2637.79585
G0 F1200 X40.368 Y133.706
G1 F480 X12.631 Y105.969 E2650.84248
G0 F1200 X12.631 Y111.625
G1 F480 X34.711 Y133.706 E2661.22847
G0 F1200 X29.052 Y133.704
G1 F480 X12.631 Y117.282 E2668.95264
G0 F1200 X12.631 Y122.939
G1 F480 X23.082 Y133.390 E2673.86847
G0 F1200 X80.438 Y128.521
G1 F480 X85.238 Y133.321 E2676.12624
G0 F1200 X89.137 Y131.564
G1 F480 X82.857 Y125.283 E2679.08040
G0 F1200 X94.734 Y120.190
G1 F480 X95.130 Y120.586 E2679.26666
;LAYER:-1
;RAFT
G0 F1200 X94.867 Y120.625 Z1.000
;TYPE:SUPPORT
G1 F480 X79.544 Y120.625 E2679.58519
G0 F1200 X78.813 Y129.125
G1 F480 X91.457 Y129.125 E2679.84803
G0 F1200 X91.656 Y128.875
G1 F480 X80.302 Y128.875 E2680.08405
G0 F1200 X80.826 Y128.625
G1 F480 X91.849 Y128.625 E2680.31319
G0 F1200 X92.036 Y128.375
G1 F480 X81.257 Y128.375 E2680.53726
G0 F1200 X81.591 Y128.125
G1 F480 X92.223 Y128.125 E2680.75828
G0 F1200 X92.383 Y127.875
G1 F480 X81.869 Y127.875 E2680.97684
G0 F1200 X82.099 Y127.625
G1 F480 X92.524 Y127.625 E2681.19355
G0 F1200 X92.665 Y127.375
G1 F480 X82.312 Y127.375 E2681.40876
G0 F1200 X82.469 Y127.125
G1 F480 X92.806 Y127.125 E2681.62364
G0 F1200 X92.947 Y126.875
G1 F480 X82.626 Y126.875 E2681.83819
G0 F1200 X82.750 Y126.625
G1 F480 X94.667 Y126.625 E2682.08592
G0 F1200 X94.667 Y126.375
G1 F480 X82.848 Y126.375 E2682.33161
G0 F1200 X82.946 Y126.125
G1 F480 X94.867 Y126.125 E2682.57942
G0 F1200 X94.867 Y125.875
G1 F480 X83.013 Y125.875 E2682.82583
G0 F1200 X83.061 Y125.625
G1 F480 X94.867 Y125.625 E2683.07125
G0 F1200 X94.867 Y125.375
G1 F480 X83.108 Y125.375 E2683.31569
G0 F1200 X83.133 Y125.125
G1 F480 X94.867 Y125.125 E2683.55961
G0 F1200 X94.867 Y124.875
G1 F480 X83.134 Y124.875 E2683.80351
G0 F1200 X83.135 Y124.625
G1 F480 X94.867 Y124.625 E2684.04739
G0 F1200 X94.867 Y124.375
G1 F480 X83.119 Y124.375 E2684.29161
G0 F1200 X83.073 Y124.125
G1 F480 X94.867 Y124.125 E2684.53677
G0 F1200 X94.867 Y123.875
G1 F480 X83.026 Y123.875 E2684.78292
G0 F1200 X82.969 Y123.625
G1 F480 X94.867 Y123.625 E2685.03025
G0 F1200 X94.867 Y123.375
G1 F480 X82.873 Y123.375 E2685.27958
G0 F1200 X82.777 Y123.125
G1 F480 X94.867 Y123.125 E2685.53090
G0 F1200 X94.867 Y122.875
G1 F480 X82.654 Y122.875 E2685.78478
G0 F1200 X82.505 Y122.625
G1 F480 X94.867 Y122.625 E2686.04175
G0 F1200 X94.867 Y122.375
G1 F480 X82.355 Y122.375 E2686.30185
G0 F1200 X82.151 Y122.125
G1 F480 X94.867 Y122.125 E2686.56618
G0 F1200 X94.867 Y121.875
G1 F480 X81.929 Y121.875 E2686.83513
G0 F1200 X81.674 Y121.625
G1 F480 X94.867 Y121.625 E2687.10938
G0 F1200 X94.867 Y121.375
G1 F480 X81.349 Y121.375 E2687.39039
G0 F1200 X80.962 Y121.125
G1 F480 X94.867 Y121.125 E2687.67944
G0 F1200 X94.867 Y120.875
G1 F480 X80.469 Y120.875 E2687.97874
G0 F1200 X83.399 Y133.375
G1 F480 X24.618 Y133.375 E2689.20066
G0 F1200 X23.091 Y133.125
G1 F480 X84.908 Y133.125 E2690.48568
G0 F1200 X85.830 Y132.875
G1 F480 X22.167 Y132.875 E2691.80908
G0 F1200 X21.450 Y132.625
G1 F480 X86.545 Y132.625 E2693.16225
G0 F1200 X87.157 Y132.375
G1 F480 X20.839 Y132.375 E2694.54084
G0 F1200 X20.319 Y132.125
G1 F480 X87.677 Y132.125 E2695.94105
G0 F1200 X88.139 Y131.875
G1 F480 X19.857 Y131.875 E2697.36047
G0 F1200 X19.415 Y131.625
G1 F480 X88.582 Y131.625 E2698.79828
G0 F1200 X88.949 Y131.375
G1 F480 X19.048 Y131.375 E2700.25136
G0 F1200 X18.689 Y131.125
G1 F480 X89.308 Y131.125 E2701.71935
G0 F1200 X89.641 Y130.875
G1 F480 X18.355 Y130.875 E2703.20122
G0 F1200 X18.025 Y130.625
G1 F480 X89.972 Y130.625 E2704.69682
G0 F1200 X90.242 Y130.375
G1 F480 X17.755 Y130.375 E2706.20365
G0 F1200 X17.485 Y130.125
G1 F480 X90.512 Y130.125 E2707.72171
G0 F1200 X90.766 Y129.875
G1 F480 X17.231 Y129.875 E2709.25032
G0 F1200 X16.981 Y129.625
G1 F480 X91.016 Y129.625 E2710.78933
G0 F1200 X91.257 Y129.375
G1 F480 X16.740 Y129.375 E2712.33836
G0 F1200 X16.541 Y129.125
G1 F480 X66.815 Y129.125 E2713.38343
G0 F1200 X65.378 Y128.875
G1 F480 X16.341 Y128.875 E2714.40280
G0 F1200 X16.148 Y128.625
G1 F480 X64.854 Y128.625 E2715.41528
G0 F1200 X64.424 Y128.375
G1 F480 X15.961 Y128.375 E2716.42270
G0 F1200 X13.693 Y128.125
G1 F480 X64.091 Y128.125 E2717.47036
G0 F1200 X63.813 Y127.875
G1 F480 X13.693 Y127.875 E2718.51223
G0 F1200 X13.693 Y127.625
G1 F480 X63.586 Y127.625 E2719.54939
G0 F1200 X63.369 Y127.375
G1 F480 X13.693 Y127.375 E2720.58203
G0 F1200 X13.693 Y127.125
G1 F480 X63.215 Y127.125 E2721.61147
G0 F1200 X63.060 Y126.875
G1 F480 X13.693 Y126.875 E2722.63769
G0 F1200 X13.293 Y126.625
G1 F480 X62.929 Y126.625 E2723.66951
G0 F1200 X62.831 Y126.375
G1 F480 X13.293 Y126.375 E2724.69928
G0 F1200 X13.293 Y126.125
G1 F480 X62.733 Y126.125 E2725.72702
G0 F1200 X62.665 Y125.875
G1 F480 X13.093 Y125.875 E2726.75750
G0 F1200 X13.093 Y125.625
G1 F480 X62.616 Y125.625 E2727.78696
G0 F1200 X62.568 Y125.375
G1 F480 X13.093 Y125.375 E2728.81543
G0 F1200 X12.892 Y125.125
G1 F480 X62.545 Y125.125 E2729.84760
G0 F1200 X62.544 Y124.875
G1 F480 X12.892 Y124.875 E2730.87974
G0 F1200 X12.892 Y124.625
G1 F480 X62.542 Y124.625 E2731.91185
G0 F1200 X62.557 Y124.375
G1 F480 X12.892 Y124.375 E2732.94426
G0 F1200 X12.892 Y124.125
G1 F480 X62.603 Y124.125 E2733.97763
G0 F1200 X62.649 Y123.875
G1 F480 X12.892 Y123.875 E2735.01196
G0 F1200 X12.892 Y123.625
G1 F480 X62.707 Y123.625 E2736.04749
G0 F1200 X62.802 Y123.375
G1 F480 X12.892 Y123.375 E2737.08500
G0 F1200 X12.892 Y123.125
G1 F480 X62.898 Y123.125 E2738.12451
G0 F1200 X63.010 Y122.875
G1 F480 X12.892 Y122.875 E2739.16634
G0 F1200 X12.892 Y122.625
G1 F480 X63.164 Y122.625 E2740.21137
G0 F1200 X63.318 Y122.375
G1 F480 X12.892 Y122.375 E2741.25961
G0 F1200 X12.892 Y122.125
G1 F480 X63.513 Y122.125 E2742.31189
G0 F1200 X63.739 Y121.875
G1 F480 X12.892 Y121.875 E2743.36888
G0 F1200 X12.892 Y121.625
G1 F480 X63.991 Y121.625 E2744.43111
G0 F1200 X64.321 Y121.375
G1 F480 X12.892 Y121.375 E2745.50019
G0 F1200 X12.892 Y121.125
G1 F480 X64.706 Y121.125 E2746.57728
G0 F1200 X65.204 Y120.875
G1 F480 X12.892 Y120.875 E2747.66472
G0 F1200 X12.892 Y120.625
G1 F480 X66.119 Y120.625 E2748.77118
G0 F1200 X94.303 Y120.375
G1 F480 X12.892 Y120.375 E2750.46352
G0 F1200 X12.892 Y120.125
G1 F480 X94.303 Y120.125 E2752.15585
G0 F1200 X94.303 Y119.875
G1 F480 X12.892 Y119.875 E2753.84819
G0 F1200 X12.892 Y119.625
G1 F480 X94.303 Y119.625 E2755.54053
G0 F1200 X94.303 Y119.375
G1 F480 X12.892 Y119.375 E2757.23287
G0 F1200 X12.892 Y119.125
G1 F480 X94.303 Y119.125 E2758.92521
G0 F1200 X94.303 Y118.875
G1 F480 X12.892 Y118.875 E2760.61755
G0 F1200 X12.892 Y118.625
G1 F480 X94.304 Y118.625 E2762.30990
G0 F1200 X94.304 Y118.375
G1 F480 X12.892 Y118.375 E2764.00226
G0 F1200 X12.892 Y118.125
G1 F480 X94.304 Y118.125 E2765.69462
G0 F1200 X94.304 Y117.875
G1 F480 X12.892 Y117.875 E2767.38698
G0 F1200 X12.892 Y117.625
G1 F480 X94.304 Y117.625 E2769.07934
G0 F1200 X94.304 Y117.375
G1 F480 X12.892 Y117.375 E2770.77170
G0 F1200 X12.892 Y117.125
G1 F480 X94.304 Y117.125 E2772.46406
G0 F1200 X94.304 Y116.875
G1 F480 X12.892 Y116.875 E2774.15642
G0 F1200 X12.892 Y116.625
G1 F480 X94.304 Y116.625 E2775.84877
G0 F1200 X94.304 Y116.375
G1 F480 X12.892 Y116.375 E2777.54113
G0 F1200 X12.892 Y116.125
G1 F480 X94.304 Y116.125 E2779.23349
G0 F1200 X94.304 Y115.875
G1 F480 X12.892 Y115.875 E2780.92585
G0 F1200 X12.892 Y115.625
