;FLAVOR:Marlin
;TIME:1124
;Filament used: 0.9853m
;Layer height: 0.15
;MINX:129.7
;MINY:129.7
;MINZ:0.3
;MAXX:170.3
;MAXY:170.3
;MAXZ:24.9
;Generated with Cura_SteamEngine 4.6.1
M140 S60
M105
M190 S60
M104 S200
M105
M109 S200
M82 ;absolute extrusion mode
G28 ;Home
G1 Z15.0 F6000 ;Move the platform down 15mm
;Prime the extruder
G92 E0
G1 F200 E3
G92 E0
G92 E0
G92 E0
G1 F1500 E-6.5
;LAYER_COUNT:165
;LAYER:0
M107
G0 F3600 X132.123 Y131.849 Z0.3
;TYPE:SKIRT
G1 F1500 E0
G1 F1800 X132.722 Y131.334 E0.03941
G1 X133.37 Y130.883 E0.0788
G1 X134.061 Y130.499 E0.11824
G1 X134.786 Y130.187 E0.15762
G1 X135.539 Y129.95 E0.197
G1 X136.313 Y129.791 E0.23642
G1 X137.098 Y129.71 E0.27579
G1 X142.5 Y129.7 E0.5453
G1 X143.289 Y129.74 E0.58471
G1 X144.069 Y129.859 E0.62408
G1 X144.834 Y130.057 E0.6635
G1 X145.574 Y130.331 E0.70287
G1 X146.283 Y130.679 E0.74227
G1 X146.954 Y131.097 E0.78172
G1 X147.578 Y131.58 E0.82108
G1 X148.151 Y132.123 E0.86047
G1 X148.666 Y132.722 E0.89988
G1 X149.117 Y133.37 E0.93927
G1 X149.501 Y134.061 E0.97871
G1 X149.813 Y134.786 E1.01808
G1 X149.907 Y135.084 E1.03367
G1 X150.574 Y135.331 E1.06916
G1 X151.283 Y135.679 E1.10856
G1 X151.954 Y136.097 E1.148
G1 X152.578 Y136.58 E1.18737
G1 X153.151 Y137.123 E1.22675
G1 X153.666 Y137.722 E1.26616
G1 X154.117 Y138.37 E1.30555
G1 X154.501 Y139.061 E1.34499
G1 X154.813 Y139.786 E1.38437
G1 X154.907 Y140.084 E1.39996
G1 X155.574 Y140.331 E1.43544
G1 X156.283 Y140.679 E1.47485
G1 X156.954 Y141.097 E1.51429
G1 X157.578 Y141.58 E1.55366
G1 X158.151 Y142.123 E1.59304
G1 X158.666 Y142.722 E1.63245
G1 X159.117 Y143.37 E1.67184
G1 X159.501 Y144.061 E1.71128
G1 X159.813 Y144.786 E1.75066
G1 X159.907 Y145.084 E1.76625
G1 X160.574 Y145.331 E1.80173
G1 X161.283 Y145.679 E1.84113
G1 X161.954 Y146.097 E1.88058
G1 X162.578 Y146.58 E1.91994
G1 X163.151 Y147.123 E1.95933
G1 X163.666 Y147.722 E1.99874
G1 X164.117 Y148.37 E2.03813
G1 X164.501 Y149.061 E2.07757
G1 X164.813 Y149.786 E2.11694
G1 X164.907 Y150.084 E2.13253
G1 X165.574 Y150.331 E2.16802
G1 X166.283 Y150.679 E2.20742
G1 X166.954 Y151.097 E2.24686
G1 X167.578 Y151.58 E2.28623
G1 X168.151 Y152.123 E2.32561
G1 X168.666 Y152.722 E2.36503
G1 X169.117 Y153.37 E2.40441
G1 X169.501 Y154.061 E2.44385
G1 X169.813 Y154.786 E2.48323
G1 X170.05 Y155.539 E2.52261
G1 X170.209 Y156.313 E2.56204
G1 X170.29 Y157.098 E2.60141
G1 X170.3 Y162.5 E2.87092
G1 X170.26 Y163.289 E2.91033
G1 X170.141 Y164.069 E2.94969
G1 X169.943 Y164.834 E2.98912
G1 X169.669 Y165.574 E3.02849
G1 X169.321 Y166.283 E3.06789
G1 X168.903 Y166.954 E3.10733
G1 X168.42 Y167.578 E3.1467
G1 X167.877 Y168.151 E3.18608
G1 X167.278 Y168.666 E3.22549
G1 X166.63 Y169.117 E3.26488
G1 X165.939 Y169.501 E3.30432
G1 X165.214 Y169.813 E3.3437
G1 X164.461 Y170.05 E3.38308
G1 X163.687 Y170.209 E3.4225
G1 X162.902 Y170.29 E3.46188
G1 X152.5 Y170.3 E3.98083
G1 X151.711 Y170.26 E4.02025
G1 X150.931 Y170.141 E4.05961
G1 X150.166 Y169.943 E4.09904
G1 X149.426 Y169.669 E4.1384
G1 X148.717 Y169.321 E4.17781
G1 X148.046 Y168.903 E4.21725
G1 X147.497 Y168.478 E4.25189
G1 X147.278 Y168.666 E4.26629
G1 X146.63 Y169.117 E4.30567
G1 X145.939 Y169.501 E4.34511
G1 X145.214 Y169.813 E4.38449
G1 X144.461 Y170.05 E4.42387
G1 X143.687 Y170.209 E4.4633
G1 X142.902 Y170.29 E4.50267
G1 X137.5 Y170.3 E4.77218
G1 X136.711 Y170.26 E4.81159
G1 X135.931 Y170.141 E4.85095
G1 X135.166 Y169.943 E4.89038
G1 X134.426 Y169.669 E4.92975
G1 X133.717 Y169.321 E4.96915
G1 X133.046 Y168.903 E5.00859
G1 X132.422 Y168.42 E5.04796
G1 X131.849 Y167.877 E5.08734
G1 X131.334 Y167.278 E5.12675
G1 X130.883 Y166.63 E5.16614
G1 X130.499 Y165.939 E5.20558
G1 X130.187 Y165.214 E5.24496
G1 X129.95 Y164.461 E5.28434
G1 X129.791 Y163.687 E5.32376
G1 X129.71 Y162.902 E5.36313
G1 X129.7 Y137.5 E6.63045
G1 X129.74 Y136.711 E6.66986
G1 X129.859 Y135.931 E6.70922
G1 X130.057 Y135.166 E6.74865
G1 X130.331 Y134.426 E6.78802
G1 X130.679 Y133.717 E6.82742
G1 X131.097 Y133.046 E6.86686
G1 X131.58 Y132.422 E6.90623
G1 X132.123 Y131.849 E6.94561
G0 F3600 X132.516 Y132.03
G1 F1800 X133.111 Y131.542 E6.984
G1 X133.753 Y131.119 E7.02236
G1 X134.436 Y130.764 E7.06076
G1 X135.151 Y130.483 E7.09909
G1 X135.893 Y130.277 E7.13751
G1 X136.651 Y130.149 E7.17586
G1 X137.5 Y130.1 E7.21829
G1 X142.5 Y130.1 E7.46774
G1 X143.268 Y130.14 E7.50611
G1 X144.028 Y130.259 E7.54449
G1 X144.771 Y130.457 E7.58285
G1 X145.49 Y130.731 E7.62124
G1 X146.176 Y131.078 E7.65959
G1 X146.823 Y131.494 E7.69797
G1 X147.423 Y131.975 E7.73633
G1 X147.97 Y132.516 E7.77471
G1 X148.458 Y133.111 E7.81311
G1 X148.881 Y133.753 E7.85146
G1 X149.236 Y134.436 E7.88987
G1 X149.517 Y135.151 E7.92819
G1 X149.588 Y135.408 E7.9415
G1 X149.771 Y135.457 E7.95095
G1 X150.49 Y135.731 E7.98933
G1 X151.176 Y136.078 E8.02769
G1 X151.823 Y136.494 E8.06606
G1 X152.423 Y136.975 E8.10443
G1 X152.97 Y137.516 E8.14281
G1 X153.458 Y138.111 E8.1812
G1 X153.881 Y138.753 E8.21956
G1 X154.236 Y139.436 E8.25796
G1 X154.517 Y140.151 E8.29629
G1 X154.588 Y140.408 E8.30959
G1 X154.771 Y140.457 E8.31904
G1 X155.49 Y140.731 E8.35743
G1 X156.176 Y141.078 E8.39579
G1 X156.823 Y141.494 E8.43416
G1 X157.423 Y141.975 E8.47253
G1 X157.97 Y142.516 E8.51091
G1 X158.458 Y143.111 E8.5493
G1 X158.881 Y143.753 E8.58766
G1 X159.236 Y144.436 E8.62606
G1 X159.517 Y145.151 E8.66439
G1 X159.588 Y145.408 E8.67769
G1 X159.771 Y145.457 E8.68714
G1 X160.49 Y145.731 E8.72553
G1 X161.176 Y146.078 E8.76388
G1 X161.823 Y146.494 E8.80226
G1 X162.423 Y146.975 E8.84062
G1 X162.97 Y147.516 E8.87901
G1 X163.458 Y148.111 E8.9174
G1 X163.881 Y148.753 E8.95576
G1 X164.236 Y149.436 E8.99416
G1 X164.517 Y150.151 E9.03249
G1 X164.588 Y150.408 E9.04579
G1 X164.771 Y150.457 E9.05524
G1 X165.49 Y150.731 E9.09363
G1 X166.176 Y151.078 E9.13198
G1 X166.823 Y151.494 E9.17036
G1 X167.423 Y151.975 E9.20872
G1 X167.97 Y152.516 E9.24711
G1 X168.458 Y153.111 E9.2855
G1 X168.881 Y153.753 E9.32385
G1 X169.236 Y154.436 E9.36226
G1 X169.517 Y155.151 E9.40058
G1 X169.723 Y155.893 E9.439
G1 X169.851 Y156.651 E9.47736
G1 X169.9 Y157.5 E9.51978
G1 X169.9 Y162.5 E9.76923
G1 X169.86 Y163.268 E9.8076
G1 X169.741 Y164.028 E9.84598
G1 X169.543 Y164.771 E9.88434
G1 X169.269 Y165.49 E9.92273
G1 X168.922 Y166.176 E9.96108
G1 X168.506 Y166.823 E9.99946
G1 X168.025 Y167.423 E10.03782
G1 X167.484 Y167.97 E10.07621
G1 X166.889 Y168.458 E10.1146
G1 X166.247 Y168.881 E10.15296
G1 X165.564 Y169.236 E10.19136
G1 X164.849 Y169.517 E10.22969
G1 X164.107 Y169.723 E10.2681
G1 X163.349 Y169.851 E10.30646
G1 X162.5 Y169.9 E10.34888
G1 X152.5 Y169.9 E10.84779
G1 X151.732 Y169.86 E10.88615
G1 X150.972 Y169.741 E10.92453
G1 X150.229 Y169.543 E10.96289
G1 X149.51 Y169.269 E11.00128
G1 X148.824 Y168.922 E11.03964
G1 X148.177 Y168.506 E11.07801
G1 X147.577 Y168.025 E11.11638
G1 X147.502 Y167.951 E11.12163
G1 X146.889 Y168.458 E11.16132
G1 X146.247 Y168.881 E11.19968
G1 X145.564 Y169.236 E11.23808
G1 X144.849 Y169.517 E11.27641
G1 X144.107 Y169.723 E11.31483
G1 X143.349 Y169.851 E11.35318
G1 X142.5 Y169.9 E11.39561
G1 X137.5 Y169.9 E11.64506
G1 X136.732 Y169.86 E11.68342
G1 X135.972 Y169.741 E11.7218
G1 X135.229 Y169.543 E11.76017
G1 X134.51 Y169.269 E11.79855
G1 X133.824 Y168.922 E11.83691
G1 X133.177 Y168.506 E11.87528
G1 X132.577 Y168.025 E11.91365
G1 X132.03 Y167.484 E11.95203
G1 X131.542 Y166.889 E11.99042
G1 X131.119 Y166.247 E12.02878
G1 X130.764 Y165.564 E12.06718
G1 X130.483 Y164.849 E12.10551
G1 X130.277 Y164.107 E12.14393
G1 X130.149 Y163.349 E12.18228
G1 X130.1 Y162.5 E12.22471
G1 X130.1 Y137.5 E13.47196
G1 X130.14 Y136.732 E13.51033
G1 X130.259 Y135.972 E13.54871
G1 X130.457 Y135.229 E13.58707
G1 X130.731 Y134.51 E13.62546
G1 X131.078 Y133.824 E13.66381
G1 X131.494 Y133.177 E13.70219
G1 X131.975 Y132.577 E13.74055
G1 X132.516 Y132.03 E13.77894
G0 F3600 X132.908 Y132.216
G1 F1800 X133.498 Y131.757 E13.81623
G1 X134.134 Y131.362 E13.85358
G1 X134.808 Y131.038 E13.89089
G1 X135.513 Y130.788 E13.92821
G1 X136.241 Y130.614 E13.96555
G1 X136.983 Y130.519 E14.00287
G1 X137.5 Y130.5 E14.02868
G1 X142.5 Y130.5 E14.27814
G1 X143.247 Y130.54 E14.31546
G1 X143.985 Y130.659 E14.35275
G1 X144.707 Y130.857 E14.3901
G1 X145.403 Y131.13 E14.4274
G1 X146.066 Y131.477 E14.46473
G1 X146.689 Y131.892 E14.50208
G1 X147.263 Y132.371 E14.53938
G1 X147.784 Y132.908 E14.57671
G1 X148.243 Y133.498 E14.614
G1 X148.638 Y134.134 E14.65135
G1 X148.962 Y134.808 E14.68866
G1 X149.212 Y135.513 E14.72598
G1 X149.265 Y135.736 E14.73742
G1 X149.707 Y135.857 E14.76028
G1 X150.403 Y136.13 E14.79758
G1 X151.066 Y136.477 E14.83491
G1 X151.689 Y136.892 E14.87226
G1 X152.263 Y137.371 E14.90956
G1 X152.784 Y137.908 E14.94688
G1 X153.243 Y138.498 E14.98418
G1 X153.638 Y139.134 E15.02153
G1 X153.962 Y139.808 E15.05884
G1 X154.212 Y140.513 E15.09616
G1 X154.265 Y140.736 E15.10759
G1 X154.707 Y140.857 E15.13046
G1 X155.403 Y141.13 E15.16776
G1 X156.066 Y141.477 E15.20509
G1 X156.689 Y141.892 E15.24244
G1 X157.263 Y142.371 E15.27973
G1 X157.784 Y142.908 E15.31706
G1 X158.243 Y143.498 E15.35436
G1 X158.638 Y144.134 E15.39171
G1 X158.962 Y144.808 E15.42902
G1 X159.212 Y145.513 E15.46634
G1 X159.265 Y145.736 E15.47777
G1 X159.707 Y145.857 E15.50063
G1 X160.403 Y146.13 E15.53793
G1 X161.066 Y146.477 E15.57527
G1 X161.689 Y146.892 E15.61261
G1 X162.263 Y147.371 E15.64991
G1 X162.784 Y147.908 E15.68724
G1 X163.243 Y148.498 E15.72453
G1 X163.638 Y149.134 E15.76188
G1 X163.962 Y149.808 E15.79919
G1 X164.212 Y150.513 E15.83651
G1 X164.265 Y150.736 E15.84795
G1 X164.707 Y150.857 E15.87081
G1 X165.403 Y151.13 E15.90811
G1 X166.066 Y151.477 E15.94544
G1 X166.689 Y151.892 E15.98279
G1 X167.263 Y152.371 E16.02009
G1 X167.784 Y152.908 E16.05742
G1 X168.243 Y153.498 E16.09471
G1 X168.638 Y154.134 E16.13206
G1 X168.962 Y154.808 E16.16937
G1 X169.212 Y155.513 E16.20669
G1 X169.386 Y156.241 E16.24403
G1 X169.481 Y156.983 E16.28135
G1 X169.5 Y157.5 E16.30716
G1 X169.5 Y162.5 E16.55662
G1 X169.46 Y163.247 E16.59394
G1 X169.341 Y163.985 E16.63123
G1 X169.143 Y164.707 E16.66858
G1 X168.87 Y165.403 E16.70588
G1 X168.523 Y166.066 E16.74322
G1 X168.108 Y166.689 E16.78056
G1 X167.629 Y167.263 E16.81786
G1 X167.092 Y167.784 E16.85519
G1 X166.502 Y168.243 E16.89248
G1 X165.866 Y168.638 E16.92983
G1 X165.192 Y168.962 E16.96714
G1 X164.487 Y169.212 E17.00446
G1 X163.759 Y169.386 E17.0418
G1 X163.017 Y169.481 E17.07913
G1 X162.5 Y169.5 E17.10494
G1 X152.5 Y169.5 E17.60384
G1 X151.753 Y169.46 E17.64116
G1 X151.015 Y169.341 E17.67845
G1 X150.293 Y169.143 E17.7158
G1 X149.597 Y168.87 E17.7531
G1 X148.934 Y168.523 E17.79044
G1 X148.311 Y168.108 E17.82778
G1 X147.737 Y167.629 E17.86508
G1 X147.502 Y167.386 E17.88195
G1 X147.092 Y167.784 E17.91045
G1 X146.502 Y168.243 E17.94775
G1 X145.866 Y168.638 E17.9851
G1 X145.192 Y168.962 E18.02241
G1 X144.487 Y169.212 E18.05973
G1 X143.759 Y169.386 E18.09707
G1 X143.017 Y169.481 E18.13439
G1 X142.5 Y169.5 E18.1602
G1 X137.5 Y169.5 E18.40965
G1 X136.753 Y169.46 E18.44697
G1 X136.015 Y169.341 E18.48427
G1 X135.293 Y169.143 E18.52162
G1 X134.597 Y168.87 E18.55892
G1 X133.934 Y168.523 E18.59625
G1 X133.311 Y168.108 E18.6336
G1 X132.737 Y167.629 E18.6709
G1 X132.216 Y167.092 E18.70823
G1 X131.757 Y166.502 E18.74552
G1 X131.362 Y165.866 E18.78287
G1 X131.038 Y165.192 E18.82018
G1 X130.788 Y164.487 E18.8575
G1 X130.614 Y163.759 E18.89484
G1 X130.519 Y163.017 E18.93216
G1 X130.5 Y162.5 E18.95797
G1 X130.5 Y137.5 E20.20523
G1 X130.54 Y136.753 E20.24255
G1 X130.659 Y136.015 E20.27984
G1 X130.857 Y135.293 E20.3172
G1 X131.13 Y134.597 E20.35449
G1 X131.477 Y133.934 E20.39183
G1 X131.892 Y133.311 E20.42917
G1 X132.371 Y132.737 E20.46647
G1 X132.908 Y132.216 E20.5038
G0 F3600 X132.765 Y132.902
G1 F1800 X133.299 Y132.409 E20.54006
G1 X133.884 Y131.979 E20.57628
G1 X134.513 Y131.615 E20.61254
G1 X135.178 Y131.322 E20.64879
G1 X135.871 Y131.104 E20.68504
G1 X136.583 Y130.964 E20.72124
G1 X137.5 Y130.9 E20.7671
G1 X142.5 Y130.9 E21.01655
G1 X143.225 Y130.94 E21.05278
G1 X143.942 Y131.059 E21.08904
G1 X144.641 Y131.257 E21.12528
G1 X145.314 Y131.53 E21.16152
G1 X145.953 Y131.875 E21.19775
G1 X146.55 Y132.289 E21.23399
G1 X147.098 Y132.765 E21.2702
G1 X147.591 Y133.299 E21.30646
G1 X148.021 Y133.884 E21.34268
G1 X148.385 Y134.513 E21.37894
G1 X148.678 Y135.178 E21.4152
G1 X148.896 Y135.871 E21.45144
G1 X148.942 Y136.059 E21.4611
G1 X149.641 Y136.257 E21.49734
G1 X150.314 Y136.53 E21.53358
G1 X150.953 Y136.875 E21.5698
G1 X151.55 Y137.289 E21.60605
G1 X152.098 Y137.765 E21.64226
G1 X152.591 Y138.299 E21.67852
G1 X153.021 Y138.884 E21.71474
G1 X153.385 Y139.513 E21.751
G1 X153.678 Y140.178 E21.78726
G1 X153.896 Y140.871 E21.8235
G1 X153.942 Y141.059 E21.83316
G1 X154.641 Y141.257 E21.8694
G1 X155.314 Y141.53 E21.90564
G1 X155.953 Y141.875 E21.94186
G1 X156.55 Y142.289 E21.97811
G1 X157.098 Y142.765 E22.01432
G1 X157.591 Y143.299 E22.05058
G1 X158.021 Y143.884 E22.0868
G1 X158.385 Y144.513 E22.12306
G1 X158.678 Y145.178 E22.15932
G1 X158.896 Y145.871 E22.19556
G1 X158.942 Y146.059 E22.20522
G1 X159.641 Y146.257 E22.24146
G1 X160.314 Y146.53 E22.27769
G1 X160.953 Y146.875 E22.31392
G1 X161.55 Y147.289 E22.35017
G1 X162.098 Y147.765 E22.38638
G1 X162.591 Y148.299 E22.42264
G1 X163.021 Y148.884 E22.45886
G1 X163.385 Y149.513 E22.49512
G1 X163.678 Y150.178 E22.53138
G1 X163.896 Y150.871 E22.56762
G1 X163.942 Y151.059 E22.57728
G1 X164.641 Y151.257 E22.61352
G1 X165.314 Y151.53 E22.64975
G1 X165.953 Y151.875 E22.68598
G1 X166.55 Y152.289 E22.72223
G1 X167.098 Y152.765 E22.75844
G1 X167.591 Y153.299 E22.7947
G1 X168.021 Y153.884 E22.83092
G1 X168.385 Y154.513 E22.86718
G1 X168.678 Y155.178 E22.90344
G1 X168.896 Y155.871 E22.93968
G1 X169.036 Y156.583 E22.97588
G1 X169.1 Y157.5 E23.02174
G1 X169.1 Y162.5 E23.27119
G1 X169.06 Y163.225 E23.30742
G1 X168.941 Y163.942 E23.34368
G1 X168.743 Y164.641 E23.37992
G1 X168.47 Y165.314 E23.41616
G1 X168.125 Y165.953 E23.45239
G1 X167.711 Y166.55 E23.48863
G1 X167.235 Y167.098 E23.52485
G1 X166.701 Y167.591 E23.56111
G1 X166.116 Y168.021 E23.59733
G1 X165.487 Y168.385 E23.63358
G1 X164.822 Y168.678 E23.66984
G1 X164.129 Y168.896 E23.70608
G1 X163.417 Y169.036 E23.74228
G1 X162.5 Y169.1 E23.78815
G1 X152.5 Y169.1 E24.28705
G1 X151.775 Y169.06 E24.32327
G1 X151.058 Y168.941 E24.35953
G1 X150.359 Y168.743 E24.39578
G1 X149.686 Y168.47 E24.43201
G1 X149.047 Y168.125 E24.46824
G1 X148.45 Y167.711 E24.50449
G1 X147.902 Y167.235 E24.5407
G1 X147.497 Y166.796 E24.5705
G1 X147.235 Y167.098 E24.59045
G1 X146.701 Y167.591 E24.6267
G1 X146.116 Y168.021 E24.66293
G1 X145.487 Y168.385 E24.69918
G1 X144.822 Y168.678 E24.73544
G1 X144.129 Y168.896 E24.77168
G1 X143.417 Y169.036 E24.80788
G1 X142.5 Y169.1 E24.85374
G1 X137.5 Y169.1 E25.1032
G1 X136.775 Y169.06 E25.13942
G1 X136.058 Y168.941 E25.17568
G1 X135.359 Y168.743 E25.21193
G1 X134.686 Y168.47 E25.24816
G1 X134.047 Y168.125 E25.28439
G1 X133.45 Y167.711 E25.32064
G1 X132.902 Y167.235 E25.35685
G1 X132.409 Y166.701 E25.39311
G1 X131.979 Y166.116 E25.42933
G1 X131.615 Y165.487 E25.46559
G1 X131.322 Y164.822 E25.50184
G1 X131.104 Y164.129 E25.53809
G1 X130.964 Y163.417 E25.57429
G1 X130.9 Y162.5 E25.62015
G1 X130.9 Y137.5 E26.8674
G1 X130.94 Y136.775 E26.90363
G1 X131.059 Y136.058 E26.93989
G1 X131.257 Y135.359 E26.97613
G1 X131.53 Y134.686 E27.01237
G1 X131.875 Y134.047 E27.0486
G1 X132.289 Y133.45 E27.08484
G1 X132.765 Y132.902 E27.12106
G0 F3600 X133.159 Y133.073
G1 F1800 X133.689 Y132.609 E27.1562
G1 X134.268 Y132.209 E27.19131
G1 X134.889 Y131.877 E27.22644
G1 X135.543 Y131.617 E27.26155
G1 X136.223 Y131.433 E27.2967
G1 X136.919 Y131.327 E27.33182
G1 X137.5 Y131.3 E27.36084
G1 X142.5 Y131.3 E27.61029
G1 X143.203 Y131.34 E27.64542
G1 X143.897 Y131.459 E27.68055
G1 X144.572 Y131.657 E27.71564
G1 X145.221 Y131.929 E27.75075
G1 X145.835 Y132.274 E27.78589
G1 X146.406 Y132.685 E27.82099
G1 X146.927 Y133.159 E27.85613
G1 X147.391 Y133.689 E27.89127
G1 X147.791 Y134.268 E27.92638
G1 X148.123 Y134.889 E27.96151
G1 X148.383 Y135.543 E27.99662
G1 X148.567 Y136.223 E28.03177
G1 X148.595 Y136.407 E28.04106
G1 X148.897 Y136.459 E28.05634
G1 X149.572 Y136.657 E28.09144
