;FLAVOR:Marlin
;TIME:1920
;Filament used: 1.56444m
;Layer height: 0.15
;MINX:120.856
;MINY:120.856
;MINZ:0.3
;MAXX:179.144
;MAXY:179.144
;MAXZ:8.55
;Generated with Cura_SteamEngine 4.6.1
M140 S60
M105
M190 S60
M104 S200
M105
M109 S200
M82 ;absolute extrusion mode
G28 ;Home
G1 Z15.0 F6000 ;Move the platform down 15mm
;Prime the extruder
G92 E0
G1 F200 E3
G92 E0
G92 E0
G92 E0
G1 F1500 E-6.5
;LAYER_COUNT:56
;LAYER:0
M107
G0 F3600 X124.198 Y124.648 Z0.3
;TYPE:SKIRT
G1 F1500 E0
G1 F1800 X124.944 Y123.927 E0.05176
G1 X125.386 Y123.553 E0.08065
G1 X126.231 Y122.93 E0.13302
G1 X126.722 Y122.617 E0.16207
G1 X127.628 Y122.12 E0.21363
G1 X128.151 Y121.877 E0.2424
G1 X129.138 Y121.498 E0.29515
G1 X129.692 Y121.327 E0.32407
G1 X130.679 Y121.091 E0.3747
G1 X131.253 Y120.993 E0.40375
G1 X132.153 Y120.893 E0.44893
G1 X132.983 Y120.859 E0.49037
G1 X134.358 Y120.856 E0.55897
G1 X136.418 Y120.861 E0.66175
G1 X166.999 Y120.859 E2.18744
G1 X167.573 Y120.88 E2.2161
G1 X168.13 Y120.921 E2.24396
G1 X168.922 Y121.02 E2.28378
G1 X169.372 Y121.1 E2.30658
G1 X170.304 Y121.326 E2.35443
G1 X170.859 Y121.497 E2.3834
G1 X171.849 Y121.877 E2.43631
G1 X172.372 Y122.12 E2.46508
G1 X173.278 Y122.617 E2.51663
G1 X173.769 Y122.93 E2.54568
G1 X174.612 Y123.551 E2.59792
G1 X175.052 Y123.923 E2.62667
G1 X175.799 Y124.645 E2.6785
G1 X176.19 Y125.077 E2.70757
G1 X176.842 Y125.904 E2.76011
G1 X177.168 Y126.38 E2.78889
G1 X177.696 Y127.272 E2.8406
G1 X177.957 Y127.789 E2.8695
G1 X178.364 Y128.749 E2.92152
G1 X178.554 Y129.297 E2.95045
G1 X178.825 Y130.284 E3.00152
G1 X178.942 Y130.854 E3.03055
G1 X179.082 Y131.883 E3.08236
G1 X179.122 Y132.46 E3.11121
G1 X179.141 Y132.982 E3.13727
G1 X179.144 Y134.358 E3.20592
G1 X179.139 Y136.419 E3.30875
G1 X179.141 Y166.999 E4.83439
G1 X179.122 Y167.539 E4.86135
G1 X179.082 Y168.117 E4.89025
G1 X178.943 Y169.141 E4.94181
G1 X178.827 Y169.708 E4.97068
G1 X178.556 Y170.696 E5.02179
G1 X178.366 Y171.245 E5.05078
G1 X177.958 Y172.209 E5.103
G1 X177.696 Y172.728 E5.13201
G1 X177.168 Y173.62 E5.18372
G1 X176.842 Y174.096 E5.21251
G1 X176.191 Y174.922 E5.26497
G1 X175.802 Y175.352 E5.2939
G1 X175.056 Y176.073 E5.34566
G1 X174.614 Y176.447 E5.37455
G1 X173.769 Y177.07 E5.42693
G1 X173.278 Y177.383 E5.45598
G1 X172.372 Y177.88 E5.50753
G1 X171.849 Y178.123 E5.5363
G1 X170.862 Y178.502 E5.58905
G1 X170.308 Y178.673 E5.61798
G1 X169.321 Y178.909 E5.66861
G1 X168.747 Y179.007 E5.69766
G1 X167.847 Y179.107 E5.74283
G1 X167.017 Y179.141 E5.78428
G1 X165.642 Y179.144 E5.85288
G1 X163.582 Y179.139 E5.95565
G1 X133.001 Y179.141 E7.48134
G1 X132.427 Y179.12 E7.51
G1 X131.87 Y179.079 E7.53786
G1 X131.078 Y178.98 E7.57768
G1 X130.628 Y178.9 E7.60049
G1 X129.696 Y178.674 E7.64833
G1 X129.141 Y178.503 E7.67731
G1 X128.151 Y178.123 E7.73021
G1 X127.628 Y177.88 E7.75898
G1 X126.722 Y177.383 E7.81054
G1 X126.231 Y177.07 E7.83959
G1 X125.386 Y176.447 E7.89196
G1 X124.944 Y176.073 E7.92085
G1 X124.198 Y175.352 E7.97261
G1 X123.809 Y174.922 E8.00154
G1 X123.158 Y174.096 E8.05401
G1 X122.832 Y173.62 E8.08279
G1 X122.304 Y172.728 E8.1345
G1 X122.042 Y172.209 E8.16351
G1 X121.634 Y171.245 E8.21573
G1 X121.444 Y170.696 E8.24472
G1 X121.173 Y169.708 E8.29583
G1 X121.057 Y169.141 E8.3247
G1 X120.918 Y168.117 E8.37626
G1 X120.878 Y167.54 E8.40512
G1 X120.859 Y167.018 E8.43118
G1 X120.856 Y165.642 E8.49982
G1 X120.861 Y163.581 E8.60265
G1 X120.859 Y133.001 E10.12829
G1 X120.878 Y132.461 E10.15525
G1 X120.918 Y131.883 E10.18415
G1 X121.057 Y130.859 E10.23571
G1 X121.173 Y130.292 E10.26458
G1 X121.444 Y129.304 E10.3157
G1 X121.634 Y128.755 E10.34468
G1 X122.042 Y127.791 E10.3969
G1 X122.304 Y127.272 E10.42591
G1 X122.832 Y126.38 E10.47762
G1 X123.158 Y125.904 E10.50641
G1 X123.809 Y125.078 E10.55888
G1 X124.198 Y124.648 E10.5878
G0 F3600 X124.494 Y124.917
G1 F1800 X125.202 Y124.232 E10.63695
G1 X125.644 Y123.858 E10.66584
G1 X126.446 Y123.267 E10.71554
G1 X126.937 Y122.954 E10.74459
G1 X127.797 Y122.483 E10.79351
G1 X128.32 Y122.24 E10.82228
G1 X129.255 Y121.88 E10.87227
G1 X129.809 Y121.709 E10.90119
G1 X130.747 Y121.486 E10.9493
G1 X131.321 Y121.388 E10.97835
G1 X132.174 Y121.292 E11.02117
G1 X132.984 Y121.259 E11.06162
G1 X134.359 Y121.256 E11.13022
G1 X136.418 Y121.261 E11.23294
G1 X167 Y121.259 E12.75868
G1 X167.543 Y121.279 E12.78579
G1 X168.1 Y121.32 E12.81365
G1 X168.852 Y121.414 E12.85146
G1 X169.302 Y121.494 E12.87427
G1 X170.186 Y121.708 E12.91964
G1 X170.741 Y121.879 E12.94862
G1 X171.68 Y122.24 E12.99881
G1 X172.203 Y122.483 E13.02758
G1 X173.063 Y122.954 E13.0765
G1 X173.554 Y123.267 E13.10555
G1 X174.354 Y123.856 E13.15511
G1 X174.794 Y124.228 E13.18386
G1 X175.502 Y124.913 E13.233
G1 X175.893 Y125.345 E13.26207
G1 X176.512 Y126.13 E13.31195
G1 X176.838 Y126.606 E13.34073
G1 X177.339 Y127.452 E13.38978
G1 X177.6 Y127.969 E13.41868
G1 X177.986 Y128.88 E13.46804
G1 X178.176 Y129.428 E13.49698
G1 X178.433 Y130.364 E13.5454
G1 X178.55 Y130.934 E13.57443
G1 X178.683 Y131.91 E13.62358
G1 X178.723 Y132.487 E13.65243
G1 X178.744 Y134.359 E13.74583
G1 X178.739 Y136.418 E13.84856
G1 X178.741 Y167 E15.3743
G1 X178.723 Y167.511 E15.39981
G1 X178.683 Y168.089 E15.42871
G1 X178.551 Y169.061 E15.47765
G1 X178.435 Y169.628 E15.50652
G1 X178.178 Y170.565 E15.555
G1 X177.988 Y171.114 E15.58398
G1 X177.601 Y172.029 E15.63355
G1 X177.339 Y172.548 E15.66255
G1 X176.838 Y173.394 E15.7116
G1 X176.512 Y173.87 E15.74039
G1 X175.895 Y174.653 E15.79012
G1 X175.506 Y175.083 E15.81905
G1 X174.798 Y175.768 E15.8682
G1 X174.356 Y176.142 E15.89709
G1 X173.554 Y176.733 E15.94679
G1 X173.063 Y177.046 E15.97584
G1 X172.203 Y177.517 E16.02476
G1 X171.68 Y177.76 E16.05353
G1 X170.745 Y178.12 E16.10351
G1 X170.191 Y178.291 E16.13244
G1 X169.253 Y178.514 E16.18054
G1 X168.679 Y178.612 E16.20959
G1 X167.826 Y178.708 E16.25242
G1 X167.016 Y178.741 E16.29286
G1 X165.641 Y178.744 E16.36146
G1 X163.582 Y178.739 E16.46419
G1 X133 Y178.741 E17.98993
G1 X132.457 Y178.721 E18.01704
G1 X131.9 Y178.68 E18.0449
G1 X131.148 Y178.586 E18.08271
G1 X130.698 Y178.506 E18.10551
G1 X129.814 Y178.292 E18.15089
G1 X129.259 Y178.121 E18.17986
G1 X128.32 Y177.76 E18.23005
G1 X127.797 Y177.517 E18.25882
G1 X126.937 Y177.046 E18.30774
G1 X126.446 Y176.733 E18.33679
G1 X125.644 Y176.142 E18.3865
G1 X125.202 Y175.768 E18.41538
G1 X124.494 Y175.083 E18.46453
G1 X124.105 Y174.653 E18.49346
G1 X123.488 Y173.87 E18.54319
G1 X123.162 Y173.394 E18.57198
G1 X122.661 Y172.548 E18.62103
G1 X122.399 Y172.029 E18.65004
G1 X122.012 Y171.114 E18.6996
G1 X121.822 Y170.565 E18.72858
G1 X121.565 Y169.628 E18.77706
G1 X121.449 Y169.061 E18.80593
G1 X121.317 Y168.09 E18.85482
G1 X121.277 Y167.513 E18.88368
G1 X121.256 Y165.641 E18.97708
G1 X121.261 Y163.582 E19.0798
G1 X121.259 Y133 E20.60554
G1 X121.277 Y132.489 E20.63105
G1 X121.317 Y131.911 E20.65996
G1 X121.449 Y130.939 E20.7089
G1 X121.565 Y130.372 E20.73777
G1 X121.822 Y129.435 E20.78624
G1 X122.012 Y128.886 E20.81523
G1 X122.399 Y127.971 E20.86479
G1 X122.661 Y127.452 E20.8938
G1 X123.162 Y126.606 E20.94285
G1 X123.488 Y126.13 E20.97163
G1 X124.105 Y125.347 E21.02137
G1 X124.494 Y124.917 E21.0503
G0 F3600 X124.791 Y125.185
G1 F1800 X125.46 Y124.537 E21.09676
G1 X125.902 Y124.163 E21.12565
G1 X126.661 Y123.604 E21.17268
G1 X127.152 Y123.291 E21.20173
G1 X127.965 Y122.846 E21.24797
G1 X128.488 Y122.603 E21.27674
G1 X129.373 Y122.262 E21.32406
G1 X129.927 Y122.091 E21.35298
G1 X130.814 Y121.88 E21.39847
G1 X131.388 Y121.782 E21.42752
G1 X132.196 Y121.692 E21.46808
G1 X132.985 Y121.659 E21.50748
G1 X134.36 Y121.656 E21.57608
G1 X136.417 Y121.661 E21.6787
G1 X167 Y121.659 E23.2045
G1 X167.514 Y121.678 E23.23016
G1 X168.071 Y121.719 E23.25802
G1 X168.782 Y121.808 E23.29377
G1 X169.232 Y121.888 E23.31657
G1 X170.068 Y122.09 E23.35948
G1 X170.623 Y122.261 E23.38845
G1 X171.512 Y122.603 E23.43597
G1 X172.035 Y122.846 E23.46475
G1 X172.848 Y123.291 E23.51099
G1 X173.339 Y123.604 E23.54004
G1 X174.095 Y124.161 E23.58688
G1 X174.535 Y124.533 E23.61563
G1 X175.206 Y125.182 E23.6622
G1 X175.597 Y125.614 E23.69127
G1 X176.182 Y126.356 E23.73841
G1 X176.508 Y126.832 E23.7672
G1 X176.982 Y127.632 E23.81359
G1 X177.243 Y128.149 E23.84248
G1 X177.608 Y129.011 E23.88918
G1 X177.798 Y129.559 E23.91812
G1 X178.041 Y130.445 E23.96395
G1 X178.158 Y131.015 E23.99299
G1 X178.284 Y131.938 E24.03946
G1 X178.324 Y132.515 E24.06832
G1 X178.344 Y134.36 E24.16037
G1 X178.339 Y136.417 E24.26299
G1 X178.341 Y167 E25.78879
G1 X178.284 Y168.061 E25.8418
G1 X178.159 Y168.981 E25.88812
G1 X178.043 Y169.548 E25.91699
G1 X177.8 Y170.434 E25.96283
G1 X177.61 Y170.983 E25.99181
G1 X177.244 Y171.849 E26.03871
G1 X176.982 Y172.368 E26.06772
G1 X176.508 Y173.168 E26.11411
G1 X176.182 Y173.644 E26.14289
G1 X175.598 Y174.385 E26.18996
G1 X175.209 Y174.815 E26.21889
G1 X174.54 Y175.463 E26.26536
G1 X174.098 Y175.837 E26.29425
G1 X173.339 Y176.396 E26.34127
G1 X172.848 Y176.709 E26.37032
G1 X172.035 Y177.154 E26.41656
G1 X171.512 Y177.397 E26.44533
G1 X170.627 Y177.738 E26.49265
G1 X170.073 Y177.909 E26.52158
G1 X169.186 Y178.12 E26.56707
G1 X168.612 Y178.218 E26.59612
G1 X167.804 Y178.308 E26.63668
G1 X167.015 Y178.341 E26.67607
G1 X165.64 Y178.344 E26.74467
G1 X163.583 Y178.339 E26.8473
G1 X133 Y178.341 E28.37309
G1 X132.486 Y178.322 E28.39875
G1 X131.929 Y178.281 E28.42662
G1 X131.218 Y178.192 E28.46236
G1 X130.768 Y178.112 E28.48517
G1 X129.932 Y177.91 E28.52808
G1 X129.377 Y177.739 E28.55705
G1 X128.488 Y177.397 E28.60457
G1 X127.965 Y177.154 E28.63334
G1 X127.152 Y176.709 E28.67958
G1 X126.661 Y176.396 E28.70863
G1 X125.902 Y175.837 E28.75566
G1 X125.46 Y175.463 E28.78455
G1 X124.791 Y174.815 E28.83101
G1 X124.402 Y174.385 E28.85994
G1 X123.818 Y173.644 E28.90701
G1 X123.492 Y173.168 E28.93579
G1 X123.018 Y172.368 E28.98219
G1 X122.756 Y171.849 E29.01119
G1 X122.39 Y170.983 E29.0581
G1 X122.2 Y170.434 E29.08708
G1 X121.957 Y169.548 E29.13292
G1 X121.841 Y168.981 E29.16179
G1 X121.716 Y168.062 E29.20806
G1 X121.676 Y167.485 E29.23692
G1 X121.656 Y165.64 E29.32897
G1 X121.661 Y163.583 E29.43159
G1 X121.659 Y133 E30.95739
G1 X121.716 Y131.939 E31.0104
G1 X121.841 Y131.019 E31.05672
G1 X121.957 Y130.452 E31.08559
G1 X122.2 Y129.566 E31.13142
G1 X122.39 Y129.017 E31.16041
G1 X122.756 Y128.151 E31.20731
G1 X123.018 Y127.632 E31.23632
G1 X123.492 Y126.832 E31.28271
G1 X123.818 Y126.356 E31.31149
G1 X124.402 Y125.615 E31.35856
G1 X124.791 Y125.185 E31.38749
G0 F3600 X125.088 Y125.453
G1 F1800 X125.719 Y124.843 E31.43128
G1 X126.161 Y124.469 E31.46016
G1 X126.876 Y123.942 E31.50448
G1 X127.367 Y123.629 E31.53353
G1 X128.134 Y123.209 E31.57716
G1 X128.657 Y122.966 E31.60593
G1 X129.491 Y122.645 E31.65051
G1 X130.045 Y122.474 E31.67944
G1 X130.881 Y122.274 E31.72232
G1 X131.455 Y122.176 E31.75137
G1 X132.217 Y122.091 E31.78963
G1 X132.986 Y122.059 E31.82802
G1 X134.361 Y122.056 E31.89662
G1 X136.416 Y122.061 E31.99915
G1 X167 Y122.059 E33.52499
G1 X168.042 Y122.118 E33.57706
G1 X168.712 Y122.202 E33.61075
G1 X169.162 Y122.282 E33.63355
G1 X169.95 Y122.473 E33.674
G1 X170.505 Y122.644 E33.70298
G1 X171.343 Y122.966 E33.74776
G1 X171.866 Y123.209 E33.77654
G1 X172.633 Y123.629 E33.82016
G1 X173.124 Y123.942 E33.84921
G1 X173.837 Y124.467 E33.89339
G1 X174.277 Y124.839 E33.92213
G1 X174.909 Y125.45 E33.96599
G1 X175.3 Y125.882 E33.99506
G1 X175.852 Y126.582 E34.03953
G1 X176.178 Y127.058 E34.06832
G1 X176.625 Y127.813 E34.11209
G1 X176.886 Y128.33 E34.14098
G1 X177.23 Y129.142 E34.18498
G1 X177.42 Y129.69 E34.21392
G1 X177.649 Y130.525 E34.25711
G1 X177.766 Y131.095 E34.28614
G1 X177.885 Y131.966 E34.33
G1 X177.925 Y132.543 E34.35886
G1 X177.944 Y134.361 E34.44956
G1 X177.939 Y136.416 E34.55209
G1 X177.941 Y167 E36.07793
G1 X177.885 Y168.034 E36.12959
G1 X177.767 Y168.901 E36.17325
G1 X177.651 Y169.468 E36.20212
G1 X177.422 Y170.304 E36.24536
G1 X177.232 Y170.853 E36.27435
G1 X176.887 Y171.668 E36.3185
G1 X176.625 Y172.187 E36.34751
G1 X176.178 Y172.942 E36.39128
G1 X175.852 Y173.418 E36.42006
G1 X175.301 Y174.117 E36.46447
G1 X174.912 Y174.547 E36.4934
G1 X174.281 Y175.157 E36.53718
G1 X173.839 Y175.531 E36.56607
G1 X173.124 Y176.058 E36.61038
G1 X172.633 Y176.371 E36.63943
G1 X171.866 Y176.791 E36.68306
G1 X171.343 Y177.034 E36.71183
G1 X170.509 Y177.355 E36.75642
G1 X169.955 Y177.526 E36.78534
G1 X169.119 Y177.726 E36.82823
G1 X168.545 Y177.824 E36.85728
G1 X167.783 Y177.909 E36.89553
G1 X167.014 Y177.941 E36.93393
G1 X165.639 Y177.944 E37.00253
G1 X163.584 Y177.939 E37.10505
G1 X133 Y177.941 E38.6309
G1 X131.958 Y177.882 E38.68296
G1 X131.288 Y177.798 E38.71665
G1 X130.838 Y177.718 E38.73945
G1 X130.05 Y177.527 E38.77991
G1 X129.495 Y177.356 E38.80888
G1 X128.657 Y177.034 E38.85367
G1 X128.134 Y176.791 E38.88244
G1 X127.367 Y176.371 E38.92607
G1 X126.876 Y176.058 E38.95512
G1 X126.161 Y175.531 E38.99943
G1 X125.719 Y175.157 E39.02832
G1 X125.088 Y174.547 E39.0721
G1 X124.699 Y174.117 E39.10103
G1 X124.148 Y173.418 E39.14544
G1 X123.822 Y172.942 E39.17422
G1 X123.375 Y172.187 E39.21799
G1 X123.113 Y171.668 E39.247
G1 X122.768 Y170.853 E39.29115
G1 X122.578 Y170.304 E39.32014
G1 X122.349 Y169.468 E39.36338
G1 X122.233 Y168.901 E39.39226
G1 X122.115 Y168.034 E39.43591
G1 X122.075 Y167.457 E39.46476
G1 X122.056 Y165.639 E39.55547
G1 X122.061 Y163.584 E39.65799
G1 X122.059 Y133 E41.18384
G1 X122.115 Y131.966 E41.2355
G1 X122.233 Y131.099 E41.27915
G1 X122.349 Y130.532 E41.30803
G1 X122.578 Y129.696 E41.35127
G1 X122.768 Y129.147 E41.38025
G1 X123.113 Y128.332 E41.42441
G1 X123.375 Y127.813 E41.45341
G1 X123.822 Y127.058 E41.49719
G1 X124.148 Y126.582 E41.52597
G1 X124.699 Y125.883 E41.57038
G1 X125.088 Y125.453 E41.5993
G0 F3600 X125.384 Y125.722
G1 F1800 X125.977 Y125.148 E41.64048
G1 X126.419 Y124.774 E41.66936
G1 X127.091 Y124.279 E41.711
G1 X127.582 Y123.966 E41.74005
G1 X128.303 Y123.571 E41.78107
G1 X128.826 Y123.328 E41.80984
G1 X129.609 Y123.027 E41.85169
G1 X130.163 Y122.856 E41.88062
G1 X130.949 Y122.668 E41.92094
G1 X131.523 Y122.57 E41.94999
G1 X132.238 Y122.491 E41.98588
G1 X132.986 Y122.459 E42.02323
G1 X134.361 Y122.456 E42.09183
G1 X136.415 Y122.461 E42.1943
G1 X167 Y122.459 E43.7202
G1 X168.012 Y122.517 E43.77077
G1 X168.642 Y122.596 E43.80244
G1 X169.092 Y122.676 E43.82525
G1 X169.833 Y122.855 E43.86328
G1 X170.388 Y123.026 E43.89225
G1 X171.174 Y123.328 E43.93426
G1 X171.697 Y123.571 E43.96303
G1 X172.418 Y123.966 E44.00405
G1 X172.909 Y124.279 E44.0331
G1 X173.579 Y124.772 E44.0746
G1 X174.019 Y125.144 E44.10334
G1 X174.613 Y125.719 E44.14459
G1 X175.004 Y126.151 E44.17366
G1 X175.522 Y126.808 E44.2154
G1 X175.848 Y127.284 E44.24418
G1 X176.268 Y127.993 E44.2853
G1 X176.529 Y128.51 E44.31419
G1 X176.852 Y129.273 E44.35553
G1 X177.042 Y129.821 E44.38446
G1 X177.257 Y130.605 E44.42502
G1 X177.374 Y131.175 E44.45405
G1 X177.486 Y131.993 E44.49524
G1 X177.526 Y132.57 E44.5241
G1 X177.544 Y134.361 E44.61345
G1 X177.539 Y136.415 E44.71593
G1 X177.541 Y167 E46.24182
G1 X177.486 Y168.006 E46.29209
G1 X177.375 Y168.821 E46.33312
G1 X177.259 Y169.388 E46.362
G1 X177.044 Y170.173 E46.4026
G1 X176.854 Y170.722 E46.43159
G1 X176.53 Y171.488 E46.47308
G1 X176.268 Y172.007 E46.50208
G1 X175.848 Y172.716 E46.5432
G1 X175.522 Y173.192 E46.57198
G1 X175.005 Y173.848 E46.61365
G1 X174.616 Y174.278 E46.64258
G1 X174.023 Y174.852 E46.68375
G1 X173.581 Y175.226 E46.71264
G1 X172.909 Y175.721 E46.75428
G1 X172.418 Y176.034 E46.78333
G1 X171.697 Y176.429 E46.82435
G1 X171.174 Y176.672 E46.85312
G1 X170.391 Y176.973 E46.89497
G1 X169.837 Y177.144 E46.92389
G1 X169.051 Y177.332 E46.96421
G1 X168.477 Y177.43 E46.99327
G1 X167.762 Y177.509 E47.02915
G1 X167.014 Y177.541 E47.06651
G1 X165.639 Y177.544 E47.1351
G1 X163.585 Y177.539 E47.23758
G1 X133 Y177.541 E48.76347
G1 X131.988 Y177.483 E48.81404
G1 X131.358 Y177.404 E48.84572
G1 X130.908 Y177.324 E48.86852
G1 X130.167 Y177.145 E48.90655
G1 X129.612 Y176.974 E48.93553
G1 X128.826 Y176.672 E48.97754
G1 X128.303 Y176.429 E49.00631
G1 X127.582 Y176.034 E49.04732
G1 X127.091 Y175.721 E49.07637
G1 X126.419 Y175.226 E49.11801
G1 X125.977 Y174.852 E49.1469
