;FLAVOR:Marlin
;TIME:2153
;Filament used: 1.13853m
;Layer height: 0.1
;MINX:133.5
;MINY:133.5
;MINZ:0.3
;MAXX:166.5
;MAXY:166.5
;MAXZ:25
;Generated with Cura_SteamEngine 4.6.1
M140 S60
M105
M190 S60
M104 S200
M105
M109 S200
M82 ;absolute extrusion mode
G28 ;Home
G1 Z15.0 F6000 ;Move the platform down 15mm
;Prime the extruder
G92 E0
G1 F200 E3
G92 E0
G92 E0
G92 E0
G1 F1500 E-6.5
;LAYER_COUNT:248
;LAYER:0
M107
G0 F3600 X143.043 Y134.357 Z0.3
;TYPE:SKIRT
G1 F1500 E0
G1 F1800 X143.533 Y134.483 E0.02524
G1 X143.996 Y134.685 E0.05044
G1 X144.423 Y134.957 E0.0757
G1 X144.809 Y135.301 E0.1015
G1 X145.76 Y136.297 E0.1702
G1 X147.676 Y138.245 E0.30652
G1 X149.57 Y140.061 E0.43743
G1 X150.54 Y141.061 E0.50693
G1 X152.676 Y143.245 E0.65934
G1 X154.57 Y145.061 E0.79025
G1 X155.54 Y146.061 E0.85976
G1 X157.676 Y148.245 E1.01217
G1 X159.57 Y150.061 E1.14307
G1 X160.54 Y151.061 E1.21258
G1 X162.676 Y153.245 E1.36499
G1 X164.57 Y155.061 E1.4959
G1 X164.744 Y155.234 E1.50814
G1 X165.074 Y155.617 E1.53336
G1 X165.339 Y156.048 E1.5586
G1 X165.533 Y156.515 E1.58383
G1 X165.651 Y157.006 E1.60903
G1 X165.698 Y157.732 E1.64532
G1 X165.7 Y161.804 E1.84848
G1 X165.691 Y162.531 E1.88475
G1 X165.645 Y163.034 E1.90995
G1 X165.52 Y163.524 E1.93518
G1 X165.319 Y163.988 E1.9604
G1 X165.048 Y164.415 E1.98564
G1 X164.713 Y164.794 E2.01087
G1 X164.323 Y165.115 E2.03607
G1 X163.887 Y165.371 E2.0613
G1 X163.416 Y165.554 E2.08651
G1 X162.922 Y165.662 E2.11173
G1 X162.26 Y165.699 E2.14481
G1 X153.162 Y165.7 E2.59871
G1 X152.445 Y165.69 E2.63449
G1 X151.647 Y165.657 E2.67434
G1 X148.855 Y165.578 E2.81368
G1 X146.138 Y165.578 E2.94924
G1 X143.374 Y165.656 E3.08719
G1 X142.855 Y165.682 E3.11311
G1 X142.262 Y165.699 E3.14271
G1 X138.166 Y165.7 E3.34706
G1 X137.468 Y165.691 E3.38189
G1 X136.964 Y165.644 E3.40714
G1 X136.474 Y165.519 E3.43237
G1 X136.01 Y165.318 E3.4576
G1 X135.584 Y165.047 E3.48279
G1 X135.205 Y164.712 E3.50802
G1 X134.884 Y164.321 E3.53326
G1 X134.629 Y163.885 E3.55846
G1 X134.445 Y163.414 E3.58369
G1 X134.338 Y162.92 E3.60891
G1 X134.301 Y162.244 E3.64268
G1 X134.3 Y138.131 E4.84568
G1 X134.309 Y137.466 E4.87886
G1 X134.356 Y136.962 E4.90412
G1 X134.482 Y136.473 E4.92931
G1 X134.683 Y136.009 E4.95454
G1 X134.954 Y135.582 E4.97977
G1 X135.289 Y135.204 E5.00497
G1 X135.68 Y134.883 E5.03021
G1 X136.117 Y134.628 E5.05545
G1 X136.588 Y134.444 E5.08068
G1 X137.082 Y134.338 E5.10588
G1 X137.74 Y134.301 E5.13876
G1 X141.839 Y134.3 E5.34326
G1 X142.54 Y134.31 E5.37824
G1 X143.043 Y134.357 E5.40345
G0 F3600 X143.08 Y133.958
G1 F1800 X143.601 Y134.084 E5.43019
G1 X144.097 Y134.287 E5.45693
G1 X144.558 Y134.561 E5.48368
G1 X145.098 Y135.024 E5.51917
G1 X146.051 Y136.022 E5.58801
G1 X147.972 Y137.975 E5.72468
G1 X149.846 Y139.772 E5.85422
G1 X150.828 Y140.783 E5.92453
G1 X152.972 Y142.975 E6.07751
G1 X154.846 Y144.772 E6.20704
G1 X155.828 Y145.783 E6.27735
G1 X157.972 Y147.975 E6.43033
G1 X159.846 Y149.772 E6.55986
G1 X160.828 Y150.783 E6.63018
G1 X162.972 Y152.975 E6.78315
G1 X164.846 Y154.772 E6.91268
G1 X165.026 Y154.95 E6.92531
G1 X165.378 Y155.355 E6.95208
G1 X165.665 Y155.808 E6.97884
G1 X165.882 Y156.298 E7.00557
G1 X166.023 Y156.816 E7.03236
G1 X166.088 Y157.394 E7.06138
G1 X166.1 Y161.809 E7.28164
G1 X166.091 Y162.536 E7.31791
G1 X166.044 Y163.07 E7.34466
G1 X165.919 Y163.591 E7.37139
G1 X165.717 Y164.088 E7.39815
G1 X165.444 Y164.55 E7.42493
G1 X165.106 Y164.966 E7.45167
G1 X164.709 Y165.327 E7.47844
G1 X164.263 Y165.625 E7.5052
G1 X163.778 Y165.853 E7.53194
G1 X163.264 Y166.007 E7.55871
G1 X162.592 Y166.09 E7.59249
G1 X153.157 Y166.1 E8.0632
G1 X152.44 Y166.09 E8.09898
G1 X151.624 Y166.057 E8.13972
G1 X148.844 Y165.978 E8.27847
G1 X146.15 Y165.978 E8.41288
G1 X143.362 Y166.057 E8.55203
G1 X142.273 Y166.099 E8.6064
G1 X138.161 Y166.1 E8.81154
G1 X137.463 Y166.091 E8.84637
G1 X136.928 Y166.044 E8.87317
G1 X136.407 Y165.918 E8.89991
G1 X135.91 Y165.716 E8.92667
G1 X135.449 Y165.443 E8.9534
G1 X135.033 Y165.104 E8.98017
G1 X134.672 Y164.708 E9.00691
G1 X134.374 Y164.262 E9.03367
G1 X134.146 Y163.776 E9.06045
G1 X133.993 Y163.262 E9.08721
G1 X133.91 Y162.588 E9.12109
G1 X133.9 Y138.125 E10.34155
G1 X133.909 Y137.46 E10.37473
G1 X133.957 Y136.926 E10.40148
G1 X134.083 Y136.405 E10.42822
G1 X134.285 Y135.908 E10.45499
G1 X134.558 Y135.447 E10.48172
G1 X134.897 Y135.031 E10.50849
G1 X135.294 Y134.671 E10.53523
G1 X135.741 Y134.373 E10.56203
G1 X136.226 Y134.145 E10.58877
G1 X136.74 Y133.992 E10.61552
G1 X137.408 Y133.91 E10.6491
G1 X141.844 Y133.9 E10.87041
G1 X142.545 Y133.91 E10.90539
G1 X143.08 Y133.958 E10.93219
G0 F3600 X143.114 Y133.558
G1 F1800 X143.665 Y133.685 E10.9604
G1 X144.193 Y133.889 E10.98864
G1 X144.686 Y134.164 E11.0168
G1 X145.136 Y134.507 E11.04503
G1 X146.311 Y135.716 E11.12914
G1 X148.269 Y137.706 E11.26842
G1 X150.123 Y139.484 E11.39658
G1 X151.115 Y140.505 E11.4676
G1 X153.269 Y142.706 E11.62124
G1 X155.123 Y144.484 E11.7494
G1 X156.115 Y145.505 E11.82042
G1 X158.269 Y147.706 E11.97406
G1 X160.123 Y149.484 E12.10222
G1 X161.115 Y150.505 E12.17324
G1 X163.269 Y152.706 E12.32689
G1 X165.123 Y154.484 E12.45504
G1 X165.308 Y154.666 E12.46799
G1 X165.68 Y155.092 E12.49621
G1 X165.988 Y155.566 E12.52441
G1 X166.227 Y156.078 E12.5526
G1 X166.391 Y156.619 E12.5808
G1 X166.488 Y157.382 E12.61917
G1 X166.5 Y161.814 E12.84029
G1 X166.491 Y162.541 E12.87656
G1 X166.444 Y163.104 E12.90475
G1 X166.318 Y163.655 E12.93295
G1 X166.116 Y164.183 E12.96115
G1 X165.841 Y164.677 E12.98936
G1 X165.499 Y165.127 E13.01756
G1 X165.097 Y165.525 E13.04578
G1 X164.644 Y165.862 E13.07395
G1 X164.147 Y166.132 E13.10216
G1 X163.617 Y166.329 E13.13037
G1 X163.065 Y166.45 E13.15857
G1 X162.282 Y166.498 E13.1977
G1 X153.151 Y166.5 E13.65325
G1 X152.434 Y166.49 E13.68903
G1 X151.595 Y166.455 E13.73092
G1 X148.869 Y166.378 E13.86698
G1 X146.125 Y166.378 E14.00387
G1 X143.438 Y166.454 E14.13798
G1 X142.878 Y166.481 E14.16595
G1 X142.285 Y166.498 E14.19555
G1 X138.155 Y166.5 E14.4016
G1 X137.457 Y166.491 E14.43642
G1 X136.894 Y166.443 E14.46461
G1 X136.343 Y166.317 E14.49281
G1 X135.815 Y166.115 E14.52102
G1 X135.321 Y165.84 E14.54922
G1 X134.871 Y165.498 E14.57742
G1 X134.473 Y165.096 E14.60564
G1 X134.137 Y164.642 E14.63382
G1 X133.867 Y164.145 E14.66204
G1 X133.67 Y163.615 E14.69025
G1 X133.55 Y163.063 E14.71843
G1 X133.501 Y162.266 E14.75827
G1 X133.5 Y138.12 E15.96292
G1 X133.509 Y137.455 E15.9961
G1 X133.557 Y136.892 E16.02429
G1 X133.683 Y136.341 E16.05249
G1 X133.886 Y135.813 E16.08071
G1 X134.162 Y135.319 E16.10894
G1 X134.504 Y134.869 E16.13714
G1 X134.906 Y134.472 E16.16533
G1 X135.36 Y134.135 E16.19354
G1 X135.857 Y133.866 E16.22173
G1 X136.387 Y133.669 E16.24994
G1 X136.94 Y133.55 E16.27816
G1 X137.718 Y133.502 E16.31705
G1 X141.85 Y133.5 E16.5232
G1 X142.551 Y133.51 E16.55817
G1 X143.114 Y133.558 E16.58636
G1 F1500 E10.08636
;MESH:5mm_Calibration_Steps.stl
G0 F3600 X143.153 Y141.847
G0 X143.114 Y143.12
G0 X146.83 Y148.17
G0 X146.9 Y148.1
;TYPE:WALL-INNER
G1 F1500 E16.58636
G1 F1800 X151.9 Y148.1 E16.83581
G1 X151.9 Y153.1 E17.08526
G1 X156.9 Y153.1 E17.33472
G1 X156.9 Y158.1 E17.58417
G1 X161.9 Y158.1 E17.83362
G1 X161.9 Y161.9 E18.0232
G1 X153.1 Y161.9 E18.46223
G1 X153.1 Y156.9 E18.71169
G1 X141.9 Y156.9 E19.27046
G1 X141.9 Y161.9 E19.51991
G1 X138.1 Y161.9 E19.70949
G1 X138.1 Y138.1 E20.89688
G1 X141.9 Y138.1 E21.08646
G1 X141.9 Y143.1 E21.33591
G1 X146.9 Y143.1 E21.58536
G1 X146.9 Y148.1 E21.83481
G0 F3600 X147.3 Y147.7
;TYPE:WALL-OUTER
G1 F1800 X152.3 Y147.7 E22.08426
G1 X152.3 Y152.7 E22.33371
G1 X157.3 Y152.7 E22.58316
G1 X157.3 Y157.7 E22.83262
G1 X162.3 Y157.7 E23.08207
G1 X162.3 Y162.3 E23.31156
G1 X152.7 Y162.3 E23.79051
G1 X152.7 Y157.3 E24.03996
G1 X142.3 Y157.3 E24.55882
G1 X142.3 Y162.3 E24.80827
G1 X137.7 Y162.3 E25.03776
G1 X137.7 Y137.7 E26.26506
G1 X142.3 Y137.7 E26.49456
G1 X142.3 Y142.7 E26.74401
G1 X147.3 Y142.7 E26.99346
G1 X147.3 Y147.7 E27.24291
G0 F3600 X147.5 Y147.7
G0 X147.5 Y148.2
G0 X146.51 Y148.49
;TYPE:SKIN
G1 F1800 X151.51 Y148.49 E27.49236
G1 X151.51 Y153.49 E27.74181
G1 X156.51 Y153.49 E27.99126
G1 X156.51 Y158.49 E28.24071
G1 X161.51 Y158.49 E28.49016
G1 X161.51 Y161.51 E28.64083
G1 X153.49 Y161.51 E29.04095
G1 X153.49 Y156.51 E29.2904
G1 X141.51 Y156.51 E29.88809
G1 X141.51 Y161.51 E30.13754
G1 X138.49 Y161.51 E30.28821
G1 X138.49 Y138.49 E31.43668
G1 X141.51 Y138.49 E31.58735
G1 X141.51 Y143.49 E31.8368
G1 X146.51 Y143.49 E32.08625
G1 X146.51 Y148.49 E32.3357
G0 F3600 X150.933 Y148.67
G1 F1800 X151.33 Y149.067 E32.36371
G0 F3600 X151.33 Y149.632
G1 F1800 X150.367 Y148.67 E32.43162
G0 F3600 X149.801 Y148.67
G1 F1800 X151.33 Y150.198 E32.53947
G0 F3600 X151.33 Y150.764
G1 F1800 X149.236 Y148.67 E32.68721
G0 F3600 X148.669 Y148.669
G1 F1800 X151.33 Y151.33 E32.87496
G0 F3600 X151.33 Y151.895
G1 F1800 X148.104 Y148.669 E33.10257
G0 F3600 X147.538 Y148.669
G1 F1800 X151.33 Y152.461 E33.37011
G0 F3600 X151.33 Y153.027
G1 F1800 X146.972 Y148.669 E33.67759
G0 F3600 X146.407 Y148.669
G1 F1800 X151.33 Y153.592 E34.02494
G0 F3600 X151.407 Y153.669
G1 F1800 X156.329 Y158.592 E34.37225
G0 F3600 X156.407 Y158.669
G1 F1800 X159.066 Y161.329 E34.55989
G0 F3600 X159.632 Y161.329
G1 F1800 X156.972 Y158.669 E34.74757
G0 F3600 X157.538 Y158.669
G1 F1800 X160.197 Y161.329 E34.93521
G0 F3600 X160.763 Y161.329
G1 F1800 X158.104 Y158.669 E35.12285
G0 F3600 X158.669 Y158.669
G1 F1800 X161.329 Y161.329 E35.31053
G0 F3600 X161.329 Y160.764
G1 F1800 X159.236 Y158.67 E35.45824
G0 F3600 X159.801 Y158.67
G1 F1800 X161.329 Y160.198 E35.56605
G0 F3600 X161.329 Y159.632
G1 F1800 X160.367 Y158.67 E35.63392
G0 F3600 X160.933 Y158.67
G1 F1800 X161.329 Y159.067 E35.6619
G0 F3600 X158.5 Y161.329
G1 F1800 X153.669 Y156.498 E36.00275
G0 F3600 X153.5 Y156.329
G1 F1800 X138.669 Y141.497 E37.04919
G0 F3600 X138.669 Y140.932
G1 F1800 X141.33 Y143.592 E37.2369
G0 F3600 X141.407 Y143.669
G1 F1800 X146.33 Y148.592 E37.58425
G0 F3600 X146.33 Y148.027
G1 F1800 X141.972 Y143.669 E37.89173
G0 F3600 X142.538 Y143.669
G1 F1800 X146.33 Y147.461 E38.15927
G0 F3600 X146.33 Y146.895
G1 F1800 X143.104 Y143.669 E38.38689
G0 F3600 X143.669 Y143.669
G1 F1800 X146.33 Y146.33 E38.57463
G0 F3600 X146.329 Y145.763
G1 F1800 X144.235 Y143.669 E38.72238
G0 F3600 X144.801 Y143.669
G1 F1800 X146.329 Y145.198 E38.83022
G0 F3600 X146.329 Y144.632
G1 F1800 X145.367 Y143.669 E38.89813
G0 F3600 X145.932 Y143.669
G1 F1800 X146.329 Y144.066 E38.92614
G0 F3600 X141.33 Y143.027
G1 F1800 X138.669 Y140.366 E39.11389
G0 F3600 X138.669 Y139.8
G1 F1800 X141.33 Y142.461 E39.30164
G0 F3600 X141.33 Y141.895
G1 F1800 X138.669 Y139.234 E39.48938
G0 F3600 X138.669 Y138.669
G1 F1800 X141.33 Y141.33 E39.67713
G0 F3600 X141.329 Y140.763
G1 F1800 X139.235 Y138.67 E39.82484
G0 F3600 X139.801 Y138.67
G1 F1800 X141.329 Y140.198 E39.93265
G0 F3600 X141.329 Y139.632
G1 F1800 X140.367 Y138.67 E40.00052
G0 F3600 X140.932 Y138.67
G1 F1800 X141.329 Y139.066 E40.0285
G0 F3600 X138.669 Y142.063
G1 F1800 X152.935 Y156.329 E41.03504
G0 F3600 X152.369 Y156.329
G1 F1800 X138.669 Y142.629 E42.00165
G0 F3600 X138.669 Y143.194
G1 F1800 X151.803 Y156.329 E42.92836
G0 F3600 X151.238 Y156.329
G1 F1800 X138.669 Y143.76 E43.81517
G0 F3600 X138.669 Y144.326
G1 F1800 X150.672 Y156.329 E44.66205
G0 F3600 X150.106 Y156.329
G1 F1800 X138.669 Y144.891 E45.46903
G0 F3600 X138.669 Y145.457
G1 F1800 X149.541 Y156.329 E46.2361
G0 F3600 X148.975 Y156.329
G1 F1800 X138.669 Y146.023 E46.96325
G0 F3600 X138.669 Y146.588
G1 F1800 X148.409 Y156.329 E47.65049
G0 F3600 X147.844 Y156.329
G1 F1800 X138.669 Y147.154 E48.29784
G0 F3600 X138.669 Y147.72
G1 F1800 X147.278 Y156.329 E48.90525
G0 F3600 X146.712 Y156.329
G1 F1800 X138.669 Y148.285 E49.47276
G0 F3600 X138.669 Y148.851
G1 F1800 X146.146 Y156.329 E50.00034
G0 F3600 X145.581 Y156.329
G1 F1800 X138.669 Y149.417 E50.48802
G0 F3600 X138.669 Y149.983
G1 F1800 X145.015 Y156.329 E50.93576
G0 F3600 X144.449 Y156.329
G1 F1800 X138.669 Y150.548 E51.34361
G0 F3600 X138.669 Y151.114
G1 F1800 X143.884 Y156.329 E51.71156
G0 F3600 X143.318 Y156.329
G1 F1800 X138.669 Y151.68 E52.03957
G0 F3600 X138.669 Y152.245
G1 F1800 X142.752 Y156.329 E52.32768
G0 F3600 X142.187 Y156.329
G1 F1800 X138.669 Y152.811 E52.57589
G0 F3600 X138.669 Y153.377
G1 F1800 X141.621 Y156.329 E52.78417
G0 F3600 X141.33 Y156.603
G1 F1800 X138.669 Y153.942 E52.97192
G0 F3600 X138.669 Y154.508
G1 F1800 X141.33 Y157.169 E53.15967
G0 F3600 X141.33 Y157.735
G1 F1800 X138.669 Y155.074 E53.34742
G0 F3600 X138.669 Y155.639
G1 F1800 X141.33 Y158.3 E53.53517
G0 F3600 X141.33 Y158.866
G1 F1800 X138.669 Y156.205 E53.72291
G0 F3600 X138.669 Y156.771
G1 F1800 X141.33 Y159.432 E53.91066
G0 F3600 X141.33 Y159.997
G1 F1800 X138.669 Y157.336 E54.09841
G0 F3600 X138.669 Y157.902
G1 F1800 X141.33 Y160.563 E54.28616
G0 F3600 X141.33 Y161.129
G1 F1800 X138.669 Y158.468 E54.47391
G0 F3600 X138.669 Y159.033
G1 F1800 X140.964 Y161.329 E54.63587
G0 F3600 X140.398 Y161.329
G1 F1800 X138.669 Y159.599 E54.75789
G0 F3600 X138.669 Y160.165
G1 F1800 X139.833 Y161.329 E54.84002
G0 F3600 X139.267 Y161.329
G1 F1800 X138.669 Y160.731 E54.88221
G1 X138.599 Y160.661
G0 F3600 X141.872 Y156.872
G0 X153.128 Y156.872
G0 X153.669 Y160.458
G1 F1800 X154.541 Y161.329 E54.9437
G0 F3600 X155.106 Y161.329
G1 F1800 X153.669 Y159.892 E55.04509
G0 F3600 X153.669 Y159.326
G1 F1800 X155.672 Y161.329 E55.18641
G0 F3600 X156.238 Y161.329
G1 F1800 X153.669 Y158.761 E55.36763
G0 F3600 X153.669 Y158.195
G1 F1800 X156.803 Y161.329 E55.58875
G0 F3600 X157.369 Y161.329
G1 F1800 X153.669 Y157.629 E55.84981
G0 F3600 X153.669 Y157.063
G1 F1800 X157.935 Y161.329 E56.1508
G1 X158.005 Y161.399
G0 F3600 X156.329 Y158.027
G1 F1800 X151.972 Y153.669 E56.45824
G0 F3600 X152.538 Y153.669
G1 F1800 X156.329 Y157.461 E56.72575
G0 F3600 X156.329 Y156.895
G1 F1800 X153.104 Y153.669 E56.95333
G0 F3600 X153.669 Y153.669
G1 F1800 X156.329 Y156.329 E57.14101
G0 F3600 X156.329 Y155.764
G1 F1800 X154.236 Y153.67 E57.28871
G0 F3600 X154.801 Y153.67
G1 F1800 X156.329 Y155.198 E57.39652
G0 F3600 X156.329 Y154.632
G1 F1800 X155.367 Y153.67 E57.4644
G0 F3600 X155.933 Y153.67
G1 F1800 X156.329 Y154.067 E57.49237
G0 F3600 X153.669 Y161.023
G1 F1800 X153.975 Y161.329 E57.51396
;MESH:NONMESH
G0 F600 X153.975 Y161.329 Z0.4
G0 F3600 X153.128 Y156.872
G0 X146.83 Y148.17
G0 X146.9 Y148.1
;TIME_ELAPSED:47.075008
;LAYER:1
M140 S60
M106 S255
;TYPE:WALL-INNER
;MESH:5mm_Calibration_Steps.stl
G1 F2700 X151.9 Y148.1 E57.59711
G1 X151.9 Y153.1 E57.68026
G1 X156.9 Y153.1 E57.76341
G1 X156.9 Y158.1 E57.84656
G1 X161.9 Y158.1 E57.92971
G1 X161.9 Y161.9 E57.99291
G1 X153.1 Y161.9 E58.13925
G1 X153.1 Y156.9 E58.2224
G1 X141.9 Y156.9 E58.40866
G1 X141.9 Y161.9 E58.49181
G1 X138.1 Y161.9 E58.555
G1 X138.1 Y138.1 E58.9508
G1 X141.9 Y138.1 E59.01399
G1 X141.9 Y143.1 E59.09714
G1 X146.9 Y143.1 E59.18029
G1 X146.9 Y148.1 E59.26344
G0 F5400 X147.3 Y147.7
;TYPE:WALL-OUTER
G1 F1800 X152.3 Y147.7 E59.34659
G1 X152.3 Y152.7 E59.42975
G1 X157.3 Y152.7 E59.5129
G1 X157.3 Y157.7 E59.59605
G1 X162.3 Y157.7 E59.6792
G1 X162.3 Y162.3 E59.75569
G1 X152.7 Y162.3 E59.91534
G1 X152.7 Y157.3 E59.99849
G1 X142.3 Y157.3 E60.17145
G1 X142.3 Y162.3 E60.2546
G1 X137.7 Y162.3 E60.33109
G1 X137.7 Y137.7 E60.74019
G1 X142.3 Y137.7 E60.81669
G1 X142.3 Y142.7 E60.89984
G1 X147.3 Y142.7 E60.98299
G1 X147.3 Y147.7 E61.06614
G0 F5400 X147.5 Y147.7
G0 X147.5 Y148.2
G0 X146.51 Y148.49
;TYPE:SKIN
G1 F1800 X151.51 Y148.49 E61.14929
G1 X151.51 Y153.49 E61.23244
G1 X156.51 Y153.49 E61.31559
G1 X156.51 Y158.49 E61.39875
G1 X161.51 Y158.49 E61.4819
G1 X161.51 Y161.51 E61.53212
G1 X153.49 Y161.51 E61.66549
G1 X153.49 Y156.51 E61.74864
G1 X141.51 Y156.51 E61.94787
G1 X141.51 Y161.51 E62.03102
G1 X138.49 Y161.51 E62.08124
G1 X138.49 Y138.49 E62.46407
G1 X141.51 Y138.49 E62.51429
G1 X141.51 Y143.49 E62.59744
G1 X146.51 Y143.49 E62.68059
G1 X146.51 Y148.49 E62.76374
G0 F5400 X142.336 Y143.665
G0 X138.67 Y139.081
G1 F1800 X139.082 Y138.669 E62.77343
G0 F5400 X139.647 Y138.669
G1 F1800 X138.67 Y139.647 E62.79642
G0 F5400 X138.67 Y140.212
