;FLAVOR:Marlin
;TIME:5621
;Filament used: 5.2984m
;Layer height: 0.15
;MINX:79.759
;MINY:81.553
;MINZ:0.3
;MAXX:220.251
;MAXY:218.373
;MAXZ:9.3
;Generated with Cura_SteamEngine 4.6.1
M140 S65
M105
M190 S65
M104 S200
M105
M109 S200
M82 ;absolute extrusion mode
G28 ;Home
G1 Z15.0 F6000 ;Move the platform down 15mm
;Prime the extruder
G92 E0
G1 F200 E3
G92 E0
G92 E0
G92 E0
G1 F1500 E-6.5
;LAYER_COUNT:61
;LAYER:0
M107
G0 F3600 X82.781 Y104.221 Z0.3
;TYPE:SKIRT
G1 F1500 E0
G1 F1800 X83.429 Y103.77 E0.03939
G1 X84.12 Y103.386 E0.07883
G1 X84.845 Y103.074 E0.11821
G1 X85.598 Y102.837 E0.15759
G1 X86.372 Y102.678 E0.19701
G1 X87.157 Y102.597 E0.23638
G1 X97.938 Y102.587 E0.77425
G1 X98.727 Y102.627 E0.81366
G1 X99.507 Y102.746 E0.85303
G1 X100.272 Y102.944 E0.89245
G1 X101.012 Y103.218 E0.93182
G1 X101.721 Y103.566 E0.97122
G1 X102.392 Y103.984 E1.01066
G1 X103.016 Y104.467 E1.05003
G1 X103.589 Y105.01 E1.08942
G1 X104.104 Y105.609 E1.12883
G1 X104.555 Y106.257 E1.16821
G1 X104.939 Y106.948 E1.20765
G1 X105.251 Y107.673 E1.24703
G1 X105.488 Y108.426 E1.28642
G1 X105.647 Y109.2 E1.32584
G1 X105.728 Y109.985 E1.36521
G1 X105.738 Y124.926 E2.11062
G1 X106.377 Y124.251 E2.15699
G1 X107.098 Y123.551 E2.20713
G1 X107.834 Y122.894 E2.25635
G1 X108.567 Y122.297 E2.30351
G1 X109.336 Y121.722 E2.35142
G1 X110.198 Y121.128 E2.40364
G1 X111.123 Y120.556 E2.4579
G1 X111.976 Y120.08 E2.50664
G1 X112.884 Y119.623 E2.55735
G1 X113.796 Y119.215 E2.6072
G1 X114.729 Y118.844 E2.65729
G1 X115.678 Y118.514 E2.70741
G1 X116.636 Y118.227 E2.75731
G1 X117.545 Y117.999 E2.80406
G1 X118.466 Y117.805 E2.85102
G1 X119.52 Y117.627 E2.90435
G1 X120.588 Y117.501 E2.958
G1 X121.583 Y117.429 E3.00777
G1 X122.495 Y117.402 E3.05329
G1 X123.537 Y117.413 E3.10528
G1 X124.515 Y117.468 E3.15415
G1 X125.53 Y117.568 E3.20503
G1 X126.511 Y117.711 E3.25449
G1 X127.429 Y117.882 E3.30108
G1 X128.496 Y118.129 E3.35572
G1 X129.509 Y118.416 E3.40825
G1 X130.449 Y118.727 E3.45765
G1 X131.383 Y119.082 E3.5075
G1 X132.317 Y119.485 E3.55825
G1 X133.203 Y119.913 E3.60734
G1 X134.046 Y120.369 E3.65515
G1 X134.91 Y120.879 E3.70521
G1 X135.736 Y121.42 E3.75447
G1 X136.516 Y121.98 E3.80237
G1 X137.352 Y122.634 E3.85533
G1 X138.106 Y123.283 E3.90496
G1 X138.846 Y123.975 E3.95551
G1 X139.591 Y124.741 E4.00882
G1 X140.247 Y125.478 E4.05804
G1 X140.886 Y126.264 E4.10858
G1 X141.479 Y127.06 E4.1581
G1 X142.044 Y127.891 E4.20823
G1 X142.535 Y128.689 E4.25498
G1 X142.996 Y129.506 E4.30178
G1 X143.487 Y130.469 E4.35571
G1 X143.924 Y131.438 E4.40874
G1 X144.291 Y132.363 E4.45839
G1 X144.623 Y133.318 E4.50883
G1 X144.909 Y134.273 E4.55857
G1 X145.136 Y135.173 E4.60487
G1 X145.346 Y136.159 E4.65517
G1 X145.521 Y137.242 E4.7099
G1 X145.625 Y138.137 E4.75485
G1 X145.704 Y139.167 E4.80639
G1 X145.734 Y140.147 E4.85531
G1 X145.738 Y154.761 E5.5844
G1 X145.738 Y179.858 E6.8365
G1 X168.012 Y138.484 E9.18077
G1 X196.453 Y85.651 E12.17427
G1 X196.862 Y84.975 E12.21369
G1 X197.337 Y84.344 E12.2531
G1 X197.874 Y83.765 E12.29249
G1 X198.466 Y83.243 E12.33187
G1 X199.109 Y82.783 E12.37131
G1 X199.794 Y82.391 E12.41069
G1 X200.515 Y82.07 E12.45006
G1 X201.266 Y81.824 E12.48949
G1 X202.037 Y81.654 E12.52888
G1 X202.821 Y81.564 E12.56825
G1 X203.611 Y81.553 E12.60767
G1 X204.398 Y81.623 E12.64709
G1 X205.173 Y81.771 E12.68645
G1 X205.93 Y81.997 E12.72586
G1 X206.66 Y82.299 E12.76528
G1 X207.474 Y82.727 E12.81116
G1 X216.153 Y87.399 E13.30291
G1 X216.829 Y87.808 E13.34233
G1 X217.459 Y88.283 E13.38169
G1 X218.039 Y88.82 E13.42112
G1 X218.561 Y89.412 E13.4605
G1 X219.021 Y90.054 E13.4999
G1 X219.413 Y90.74 E13.53932
G1 X219.734 Y91.461 E13.5787
G1 X219.98 Y92.211 E13.61808
G1 X220.15 Y92.983 E13.65751
G1 X220.24 Y93.767 E13.69688
G1 X220.251 Y94.557 E13.7363
G1 X220.181 Y95.343 E13.77567
G1 X220.033 Y96.119 E13.81508
G1 X219.807 Y96.876 E13.8545
G1 X219.505 Y97.606 E13.89391
G1 X181.998 Y167.304 E17.84268
G1 X162.445 Y203.628 E19.90076
G1 X161.975 Y204.48 E19.94931
G1 X161.518 Y205.262 E19.9945
G1 X161.135 Y205.885 E20.03098
G1 X160.761 Y206.464 E20.06537
G1 X160.364 Y207.052 E20.10077
G1 X159.949 Y207.639 E20.13663
G1 X159.52 Y208.217 E20.17254
G1 X159.097 Y208.765 E20.20708
G1 X158.612 Y209.36 E20.24538
G1 X158.15 Y209.902 E20.28091
G1 X157.647 Y210.464 E20.31854
G1 X157.12 Y211.02 E20.35676
G1 X156.595 Y211.548 E20.3939
G1 X156.026 Y212.09 E20.43311
G1 X155.471 Y212.592 E20.47044
G1 X154.872 Y213.105 E20.50979
G1 X154.228 Y213.621 E20.55096
G1 X153.597 Y214.097 E20.59039
G1 X152.894 Y214.591 E20.63326
G1 X152.208 Y215.039 E20.67414
G1 X151.429 Y215.508 E20.7195
G1 X150.698 Y215.913 E20.76119
G1 X149.843 Y216.341 E20.8089
G1 X149.02 Y216.712 E20.85393
G1 X148.24 Y217.026 E20.89588
G1 X147.366 Y217.335 E20.94213
G1 X146.419 Y217.622 E20.9915
G1 X145.455 Y217.867 E21.04112
G1 X144.616 Y218.041 E21.08387
G1 X143.759 Y218.181 E21.12719
G1 X142.856 Y218.286 E21.17255
G1 X141.794 Y218.357 E21.22565
G1 X140.745 Y218.373 E21.27799
G1 X139.658 Y218.33 E21.33226
G1 X138.739 Y218.247 E21.3783
G1 X137.899 Y218.135 E21.42058
G1 X136.917 Y217.96 E21.47034
G1 X135.979 Y217.742 E21.51839
G1 X135.011 Y217.474 E21.5685
G1 X134.103 Y217.175 E21.61619
G1 X133.384 Y216.906 E21.65449
G1 X132.661 Y216.61 E21.69347
G1 X131.88 Y216.252 E21.73633
G1 X131.082 Y215.848 E21.78095
G1 X130.251 Y215.385 E21.82841
G1 X129.546 Y214.954 E21.86964
G1 X128.895 Y214.524 E21.90856
G1 X128.142 Y213.984 E21.95479
G1 X127.373 Y213.381 E22.00354
G1 X126.722 Y212.824 E22.04629
G1 X126.181 Y212.33 E22.08284
G1 X125.574 Y211.734 E22.12528
G1 X124.988 Y211.11 E22.16799
G1 X124.465 Y210.509 E22.20773
G1 X123.926 Y209.839 E22.25063
G1 X123.404 Y209.129 E22.2946
G1 X122.932 Y208.43 E22.33668
G1 X122.465 Y207.675 E22.38097
G1 X122.008 Y206.852 E22.42793
G1 X121.542 Y205.902 E22.48073
G1 X121.165 Y205.034 E22.52794
G1 X120.832 Y204.153 E22.57493
G1 X120.481 Y203.038 E22.63325
G1 X120.221 Y202.007 E22.68629
G1 X120.001 Y200.847 E22.7452
G1 X119.849 Y199.651 E22.80535
G1 X119.783 Y198.759 E22.84997
G1 X119.767 Y198.266 E22.87458
G1 X119.766 Y190.841 E23.24501
G1 X119.127 Y191.517 E23.29142
G1 X118.407 Y192.217 E23.34152
G1 X117.658 Y192.885 E23.39159
G1 X116.879 Y193.52 E23.44173
G1 X116.057 Y194.13 E23.4928
G1 X115.248 Y194.679 E23.54158
G1 X114.395 Y195.205 E23.59157
G1 X113.517 Y195.696 E23.64176
G1 X112.614 Y196.15 E23.69219
G1 X111.702 Y196.559 E23.74205
G1 X110.777 Y196.927 E23.79172
G1 X109.818 Y197.26 E23.84237
G1 X108.869 Y197.544 E23.89179
G1 X107.898 Y197.791 E23.94177
G1 X106.923 Y197.994 E23.99146
G1 X105.906 Y198.157 E24.04284
G1 X104.918 Y198.272 E24.09247
G1 X103.919 Y198.344 E24.14244
G1 X102.914 Y198.373 E24.1926
G1 X101.921 Y198.359 E24.24214
G1 X100.919 Y198.301 E24.29222
G1 X99.92 Y198.2 E24.34231
G1 X98.922 Y198.054 E24.39263
G1 X97.944 Y197.867 E24.44231
G1 X96.95 Y197.63 E24.49329
G1 X96.013 Y197.366 E24.54186
G1 X95.029 Y197.038 E24.5936
G1 X94.117 Y196.691 E24.64229
G1 X93.173 Y196.283 E24.69359
G1 X92.3 Y195.861 E24.74197
G1 X91.418 Y195.389 E24.79188
G1 X90.523 Y194.853 E24.84392
G1 X89.704 Y194.314 E24.89284
G1 X88.903 Y193.737 E24.94209
G1 X88.102 Y193.105 E24.99299
G1 X87.337 Y192.443 E25.04347
G1 X86.617 Y191.763 E25.09287
G1 X85.913 Y191.038 E25.14329
G1 X85.261 Y190.308 E25.19212
G1 X84.606 Y189.503 E25.2439
G1 X84.015 Y188.708 E25.29332
G1 X83.448 Y187.871 E25.34376
G1 X82.927 Y187.026 E25.39328
G1 X82.452 Y186.18 E25.44169
G1 X81.977 Y185.232 E25.49459
G1 X81.577 Y184.339 E25.54341
G1 X81.211 Y183.419 E25.59281
G1 X80.876 Y182.458 E25.64358
G1 X80.59 Y181.504 E25.69327
G1 X80.343 Y180.522 E25.74379
G1 X80.142 Y179.555 E25.79306
G1 X79.98 Y178.542 E25.84424
G1 X79.866 Y177.572 E25.89297
G1 X79.797 Y176.622 E25.94049
G1 X79.762 Y175.618 E25.99061
G1 X79.759 Y110.387 E29.245
G1 X79.799 Y109.598 E29.28441
G1 X79.918 Y108.818 E29.32378
G1 X80.116 Y108.053 E29.3632
G1 X80.39 Y107.313 E29.40257
G1 X80.738 Y106.604 E29.44197
G1 X81.156 Y105.933 E29.48141
G1 X81.639 Y105.309 E29.52078
G1 X82.182 Y104.736 E29.56016
G1 X82.781 Y104.221 E29.59957
G0 F3600 X83.17 Y104.429
G1 F1800 X83.812 Y104.006 E29.63793
G1 X84.495 Y103.651 E29.67633
G1 X85.21 Y103.37 E29.71466
G1 X85.952 Y103.164 E29.75308
G1 X86.71 Y103.036 E29.79143
G1 X87.559 Y102.987 E29.83386
G1 X97.938 Y102.987 E30.35167
G1 X98.706 Y103.027 E30.39004
G1 X99.466 Y103.146 E30.42842
G1 X100.209 Y103.344 E30.46678
G1 X100.928 Y103.618 E30.50517
G1 X101.614 Y103.965 E30.54352
G1 X102.261 Y104.381 E30.58189
G1 X102.861 Y104.862 E30.62026
G1 X103.408 Y105.403 E30.65864
G1 X103.896 Y105.998 E30.69703
G1 X104.319 Y106.64 E30.73539
G1 X104.674 Y107.323 E30.77379
G1 X104.955 Y108.038 E30.81212
G1 X105.161 Y108.78 E30.85054
G1 X105.289 Y109.538 E30.88889
G1 X105.338 Y110.387 E30.93132
G1 X105.338 Y125.997 E31.71011
G1 X105.994 Y125.238 E31.76016
G1 X106.666 Y124.527 E31.80896
G1 X107.374 Y123.84 E31.85818
G1 X108.099 Y123.195 E31.9066
G1 X108.817 Y122.61 E31.9528
G1 X109.574 Y122.043 E31.99999
G1 X110.423 Y121.459 E32.0514
G1 X111.33 Y120.898 E32.1046
G1 X112.169 Y120.43 E32.15253
G1 X113.061 Y119.982 E32.20233
G1 X113.957 Y119.581 E32.25131
G1 X114.874 Y119.217 E32.30053
G1 X115.806 Y118.893 E32.34976
G1 X116.748 Y118.611 E32.39881
G1 X117.639 Y118.387 E32.44465
G1 X118.546 Y118.197 E32.49088
G1 X119.584 Y118.022 E32.5434
G1 X120.631 Y117.899 E32.59599
G1 X121.609 Y117.829 E32.64491
G1 X122.503 Y117.802 E32.68953
G1 X123.531 Y117.813 E32.74082
G1 X124.488 Y117.868 E32.78865
G1 X125.489 Y117.966 E32.83883
G1 X126.449 Y118.106 E32.88723
G1 X127.353 Y118.275 E32.93311
G1 X128.403 Y118.518 E32.98688
G1 X129.396 Y118.799 E33.03836
G1 X130.321 Y119.106 E33.08699
G1 X131.238 Y119.454 E33.13592
G1 X132.156 Y119.851 E33.18582
G1 X133.027 Y120.272 E33.23408
G1 X133.853 Y120.719 E33.28094
G1 X134.705 Y121.223 E33.33033
G1 X135.513 Y121.753 E33.37854
G1 X136.281 Y122.304 E33.42569
G1 X137.104 Y122.947 E33.4778
G1 X137.842 Y123.583 E33.5264
G1 X138.571 Y124.266 E33.57624
G1 X139.301 Y125.017 E33.62849
G1 X139.946 Y125.742 E33.67691
G1 X140.574 Y126.514 E33.72656
G1 X141.157 Y127.297 E33.77526
G1 X141.711 Y128.114 E33.82451
G1 X142.193 Y128.896 E33.87034
G1 X142.647 Y129.701 E33.91644
G1 X143.13 Y130.649 E33.96953
G1 X143.557 Y131.599 E34.02149
G1 X143.919 Y132.508 E34.0703
G1 X144.244 Y133.447 E34.11988
G1 X144.525 Y134.385 E34.16873
G1 X144.747 Y135.268 E34.21415
G1 X144.954 Y136.24 E34.26373
G1 X145.125 Y137.301 E34.31735
G1 X145.227 Y138.18 E34.3615
G1 X145.305 Y139.195 E34.41228
G1 X145.334 Y140.155 E34.4602
G1 X145.338 Y154.761 E35.1889
G1 X145.338 Y181.444 E36.52012
G1 X168.364 Y138.673 E38.94355
G1 X196.805 Y85.84 E41.93705
G1 X197.205 Y85.183 E41.97542
G1 X197.67 Y84.57 E42.01381
G1 X198.196 Y84.01 E42.05214
G1 X198.778 Y83.507 E42.09052
G1 X199.409 Y83.067 E42.1289
G1 X200.082 Y82.694 E42.16729
G1 X200.79 Y82.394 E42.20565
G1 X201.526 Y82.169 E42.24404
G1 X202.281 Y82.021 E42.28243
G1 X203.047 Y81.953 E42.32079
G1 X203.816 Y81.965 E42.35916
G1 X204.58 Y82.056 E42.39755
G1 X205.33 Y82.226 E42.43592
G1 X206.058 Y82.473 E42.47427
G1 X206.845 Y82.841 E42.51761
G1 X207.285 Y83.079 E42.54257
G1 X215.964 Y87.751 E43.03432
G1 X216.621 Y88.15 E43.07267
G1 X217.233 Y88.616 E43.11105
G1 X217.794 Y89.142 E43.14941
G1 X218.297 Y89.724 E43.18779
G1 X218.737 Y90.355 E43.22617
G1 X219.109 Y91.028 E43.26453
G1 X219.41 Y91.736 E43.30291
G1 X219.635 Y92.472 E43.34131
G1 X219.782 Y93.226 E43.37964
G1 X219.851 Y93.992 E43.41801
G1 X219.839 Y94.762 E43.45643
G1 X219.748 Y95.525 E43.49476
G1 X219.578 Y96.275 E43.53313
G1 X219.331 Y97.004 E43.57153
G1 X218.972 Y97.775 E43.61396
G1 X181.646 Y167.115 E47.54272
G1 X162.093 Y203.439 E49.60081
G1 X161.625 Y204.286 E49.64909
G1 X161.173 Y205.059 E49.69376
G1 X160.795 Y205.674 E49.72977
G1 X160.425 Y206.246 E49.76376
G1 X160.033 Y206.827 E49.79873
G1 X159.623 Y207.407 E49.83416
G1 X159.199 Y207.978 E49.86965
G1 X158.781 Y208.52 E49.90379
G1 X158.303 Y209.106 E49.94152
G1 X157.846 Y209.642 E49.97666
G1 X157.35 Y210.196 E50.01376
G1 X156.831 Y210.744 E50.05142
G1 X156.313 Y211.266 E50.08811
G1 X155.751 Y211.799 E50.12675
G1 X155.204 Y212.295 E50.16359
G1 X154.614 Y212.8 E50.20233
G1 X153.98 Y213.307 E50.24283
G1 X153.358 Y213.777 E50.28173
G1 X152.666 Y214.262 E50.32389
G1 X151.991 Y214.704 E50.36414
G1 X151.225 Y215.163 E50.40869
G1 X150.505 Y215.562 E50.44976
G1 X149.667 Y215.982 E50.49653
G1 X148.858 Y216.346 E50.54078
G1 X148.094 Y216.654 E50.58188
G1 X147.236 Y216.957 E50.62728
G1 X146.307 Y217.238 E50.6757
G1 X145.36 Y217.478 E50.72444
G1 X144.538 Y217.649 E50.76633
G1 X143.698 Y217.786 E50.80879
G1 X142.813 Y217.889 E50.85324
G1 X141.771 Y217.958 E50.90534
G1 X140.743 Y217.973 E50.95663
G1 X139.678 Y217.931 E51.00981
G1 X138.779 Y217.849 E51.05484
G1 X137.954 Y217.739 E51.09637
G1 X136.991 Y217.567 E51.14517
G1 X136.075 Y217.354 E51.19209
G1 X135.119 Y217.089 E51.24158
G1 X134.233 Y216.796 E51.28814
G1 X133.526 Y216.532 E51.32579
G1 X132.815 Y216.24 E51.36414
G1 X132.049 Y215.889 E51.40618
G1 X131.265 Y215.492 E51.45002
G1 X130.448 Y215.037 E51.49667
G1 X129.757 Y214.614 E51.53709
G1 X129.118 Y214.192 E51.5753
G1 X128.377 Y213.661 E51.62078
G1 X127.622 Y213.068 E51.66868
G1 X126.985 Y212.523 E51.7105
G1 X126.452 Y212.036 E51.74652
G1 X125.856 Y211.45 E51.78822
G1 X125.282 Y210.838 E51.83008
G1 X124.769 Y210.248 E51.86909
G1 X124.24 Y209.59 E51.91121
G1 X123.728 Y208.895 E51.95427
G1 X123.265 Y208.209 E51.99556
G1 X122.807 Y207.467 E52.03907
G1 X122.36 Y206.661 E52.08505
G1 X121.902 Y205.729 E52.13686
G1 X121.534 Y204.879 E52.18307
G1 X121.207 Y204.014 E52.2292
G1 X120.863 Y202.922 E52.28632
G1 X120.61 Y201.915 E52.33812
G1 X120.394 Y200.777 E52.39591
G1 X120.246 Y199.605 E52.45485
G1 X120.182 Y198.734 E52.49842
G1 X120.167 Y198.266 E52.52178
G1 X120.166 Y189.771 E52.9456
G1 X119.498 Y190.541 E52.99645
G1 X118.838 Y191.241 E53.04445
G1 X118.131 Y191.928 E53.09363
G1 X117.394 Y192.584 E53.14286
G1 X116.628 Y193.208 E53.19215
G1 X115.821 Y193.806 E53.24226
G1 X115.025 Y194.346 E53.29025
G1 X114.187 Y194.864 E53.3394
G1 X113.324 Y195.346 E53.38872
G1 X112.437 Y195.791 E53.43823
G1 X111.541 Y196.193 E53.48722
G1 X110.631 Y196.554 E53.53606
G1 X109.689 Y196.881 E53.58581
G1 X108.757 Y197.16 E53.63435
G1 X107.803 Y197.402 E53.68345
G1 X106.845 Y197.601 E53.73226
G1 X105.846 Y197.762 E53.78275
G1 X104.875 Y197.874 E53.83151
G1 X103.893 Y197.945 E53.88063
G1 X102.905 Y197.973 E53.92994
G1 X101.93 Y197.959 E53.97859
G1 X100.945 Y197.902 E54.02782
G1 X99.963 Y197.802 E54.07706
G1 X98.983 Y197.658 E54.12648
G1 X98.021 Y197.474 E54.17534
G1 X97.046 Y197.242 E54.22534
G1 X96.124 Y196.981 E54.27315
G1 X95.159 Y196.66 E54.32389
G1 X94.262 Y196.319 E54.37176
G1 X93.335 Y195.917 E54.42217
G1 X92.476 Y195.502 E54.46977
G1 X91.609 Y195.037 E54.51885
G1 X90.732 Y194.512 E54.56985
G1 X89.926 Y193.981 E54.618
G1 X89.139 Y193.414 E54.66639
G1 X88.353 Y192.793 E54.71637
G1 X87.602 Y192.142 E54.76595
G1 X86.894 Y191.474 E54.81452
G1 X86.202 Y190.762 E54.86405
G1 X85.561 Y190.044 E54.91207
G1 X84.918 Y189.253 E54.96293
G1 X84.338 Y188.472 E55.01146
G1 X83.781 Y187.649 E55.06104
G1 X83.269 Y186.818 E55.10974
G1 X82.802 Y185.986 E55.15734
G1 X82.337 Y185.056 E55.20921
G1 X81.943 Y184.178 E55.25722
G1 X81.583 Y183.273 E55.30581
G1 X81.255 Y182.33 E55.35563
G1 X80.974 Y181.392 E55.40448
G1 X80.732 Y180.428 E55.45406
G1 X80.535 Y179.476 E55.50257
G1 X80.375 Y178.482 E55.55279
G1 X80.263 Y177.528 E55.60072
G1 X80.196 Y176.597 E55.64728
G1 X80.162 Y175.607 E55.69671
G1 X80.159 Y110.387 E58.95054
G1 X80.199 Y109.619 E58.98891
G1 X80.318 Y108.859 E59.02729
G1 X80.516 Y108.116 E59.06565
G1 X80.79 Y107.397 E59.10404
G1 X81.137 Y106.711 E59.14239
G1 X81.553 Y106.064 E59.18077
G1 X82.034 Y105.464 E59.21914
G1 X82.575 Y104.917 E59.25752
G1 X83.17 Y104.429 E59.29591
G0 F3600 X83.557 Y104.644
G1 F1800 X84.193 Y104.249 E59.33326
G1 X84.867 Y103.925 E59.37057
G1 X85.572 Y103.675 E59.40789
G1 X86.3 Y103.501 E59.44523
G1 X87.042 Y103.406 E59.48255
G1 X87.559 Y103.387 E59.50836
G1 X97.938 Y103.387 E60.02617
G1 X98.685 Y103.427 E60.0635
G1 X99.423 Y103.546 E60.10079
