;FLAVOR:Marlin
;TIME:7769
;Filament used: 5.58932m
;Layer height: 0.15
;MINX:42.298
;MINY:98.952
;MINZ:0.3
;MAXX:207.7
;MAXY:227.048
;MAXZ:81.6
;Generated with Cura_SteamEngine 4.6.1
M140 S65
M105
M190 S65
M104 S200
M105
M109 S200
M82 ;absolute extrusion mode
G28 ;Home
G1 Z15.0 F6000 ;Move the platform down 15mm
;Prime the extruder
G92 E0
G1 F200 E3
G92 E0
G92 E0
G92 E0
G1 F1500 E-6.5
;LAYER_COUNT:543
;LAYER:0
M107
G0 F3600 X94.616 Y101.198 Z0.3
;TYPE:SKIRT
G1 F1500 E0
G1 F1800 X95.206 Y100.673 E0.0394
G1 X95.845 Y100.21 E0.07877
G1 X96.529 Y99.814 E0.1182
G1 X97.249 Y99.49 E0.15759
G1 X97.997 Y99.239 E0.19695
G1 X98.768 Y99.066 E0.23638
G1 X99.552 Y98.972 E0.27577
G1 X100.092 Y98.953 E0.30273
G1 X198.768 Y98.953 E5.22569
G1 X199.902 Y98.952 E5.28227
G1 X200.691 Y98.991 E5.32168
G1 X201.472 Y99.11 E5.36109
G1 X202.236 Y99.307 E5.40046
G1 X202.977 Y99.581 E5.43987
G1 X203.686 Y99.928 E5.47925
G1 X204.357 Y100.345 E5.51867
G1 X204.982 Y100.827 E5.55804
G1 X205.555 Y101.371 E5.59746
G1 X206.07 Y101.969 E5.63684
G1 X206.522 Y102.616 E5.67621
G1 X206.907 Y103.306 E5.71563
G1 X207.219 Y104.032 E5.75506
G1 X207.457 Y104.785 E5.79446
G1 X207.617 Y105.558 E5.83384
G1 X207.698 Y106.343 E5.87321
G1 X207.7 Y107.133 E5.91262
G1 X207.621 Y107.919 E5.95203
G1 X207.464 Y108.693 E5.99144
G1 X207.229 Y109.447 E6.03084
G1 X206.919 Y110.173 E6.07022
G1 X206.661 Y110.657 E6.09758
G1 X206.14 Y111.558 E6.14951
G1 X161.224 Y189.355 E10.63126
G1 X156.988 Y196.693 E11.05397
G1 X156.752 Y197.1 E11.07744
G1 X156.323 Y197.763 E11.11684
G1 X155.829 Y198.379 E11.15623
G1 X155.274 Y198.941 E11.19564
G1 X154.666 Y199.445 E11.23504
G1 X154.01 Y199.885 E11.27445
G1 X153.313 Y200.256 E11.31384
G1 X152.582 Y200.554 E11.35322
G1 X151.825 Y200.778 E11.39261
G1 X151.049 Y200.923 E11.43199
G1 X150.262 Y200.99 E11.4714
G1 X149.472 Y200.976 E11.51082
G1 X148.688 Y200.883 E11.55021
G1 X148.256 Y200.787 E11.57229
G1 X156.631 Y215.293 E12.40795
G1 X156.991 Y215.996 E12.44735
G1 X157.184 Y216.466 E12.4727
G1 X157.428 Y217.217 E12.5121
G1 X157.595 Y217.989 E12.5515
G1 X157.683 Y218.773 E12.59086
G1 X157.691 Y219.563 E12.63028
G1 X157.619 Y220.349 E12.66966
G1 X157.468 Y221.125 E12.7091
G1 X157.239 Y221.88 E12.74846
G1 X156.936 Y222.609 E12.78785
G1 X156.56 Y223.304 E12.82727
G1 X156.115 Y223.957 E12.86669
G1 X155.607 Y224.561 E12.90607
G1 X155.041 Y225.111 E12.94544
G1 X154.422 Y225.602 E12.98486
G1 X153.756 Y226.026 E13.02425
G1 X153.051 Y226.382 E13.06365
G1 X152.313 Y226.664 E13.10307
G1 X151.551 Y226.871 E13.14246
G1 X150.772 Y226.999 E13.18185
G1 X149.897 Y227.048 E13.22557
G1 X50.155 Y227.047 E18.20172
G1 X49.089 Y226.974 E18.25502
G1 X48.255 Y226.818 E18.29735
G1 X47.498 Y226.593 E18.33675
G1 X46.768 Y226.293 E18.37613
G1 X46.072 Y225.92 E18.41553
G1 X45.417 Y225.479 E18.45492
G1 X44.81 Y224.974 E18.49431
G1 X44.257 Y224.41 E18.53372
G1 X43.764 Y223.793 E18.57312
G1 X43.336 Y223.129 E18.61253
G1 X42.978 Y222.426 E18.65189
G1 X42.692 Y221.69 E18.69129
G1 X42.482 Y220.928 E18.73072
G1 X42.35 Y220.15 E18.77009
G1 X42.298 Y219.362 E18.80949
G1 X42.326 Y218.573 E18.84888
G1 X42.433 Y217.79 E18.8883
G1 X42.618 Y217.023 E18.92767
G1 X42.881 Y216.278 E18.96708
G1 X43.342 Y215.339 E19.01927
G1 X87.934 Y138.103 E23.4687
G1 X93.217 Y128.951 E23.9959
G1 X93.646 Y128.288 E24.0353
G1 X94.151 Y127.659 E24.07555
G1 X94.739 Y127.06 E24.11742
G1 X95.347 Y126.557 E24.15679
G1 X96.004 Y126.118 E24.19621
G1 X96.701 Y125.748 E24.23558
G1 X97.433 Y125.45 E24.27501
G1 X98.191 Y125.228 E24.31442
G1 X98.967 Y125.083 E24.3538
G1 X99.754 Y125.018 E24.3932
G1 X100.543 Y125.033 E24.43257
G1 X101.327 Y125.127 E24.47196
G1 X101.749 Y125.222 E24.49354
G1 X93.339 Y110.657 E25.33263
G1 X92.979 Y109.954 E25.37203
G1 X92.692 Y109.219 E25.4114
G1 X92.481 Y108.458 E25.4508
G1 X92.347 Y107.679 E25.49023
G1 X92.293 Y106.892 E25.52959
G1 X92.319 Y106.102 E25.56902
G1 X92.425 Y105.32 E25.6084
G1 X92.609 Y104.552 E25.6478
G1 X92.87 Y103.807 E25.68718
G1 X93.205 Y103.091 E25.72662
G1 X93.61 Y102.414 E25.76597
G1 X94.082 Y101.781 E25.80537
G1 X94.616 Y101.198 E25.84481
G0 F3600 X95.085 Y101.304
G1 F1800 X95.678 Y100.814 E25.88319
G1 X96.318 Y100.388 E25.92155
G1 X96.999 Y100.03 E25.95993
G1 X97.714 Y99.746 E25.99831
G1 X98.454 Y99.537 E26.03668
G1 X99.212 Y99.406 E26.07505
G1 X100.092 Y99.353 E26.11904
G1 X198.768 Y99.353 E31.042
G1 X199.902 Y99.352 E31.09858
G1 X200.671 Y99.391 E31.13699
G1 X201.431 Y99.51 E31.17537
G1 X202.174 Y99.707 E31.21372
G1 X202.893 Y99.98 E31.25209
G1 X203.58 Y100.327 E31.29049
G1 X204.227 Y100.742 E31.32884
G1 X204.827 Y101.223 E31.3672
G1 X205.375 Y101.763 E31.40558
G1 X205.863 Y102.358 E31.44398
G1 X206.287 Y102.999 E31.48232
G1 X206.642 Y103.682 E31.52072
G1 X206.924 Y104.397 E31.55907
G1 X207.131 Y105.138 E31.59745
G1 X207.259 Y105.897 E31.63585
G1 X207.308 Y106.664 E31.6742
G1 X207.278 Y107.433 E31.71259
G1 X207.167 Y108.194 E31.75096
G1 X206.978 Y108.939 E31.78931
G1 X206.713 Y109.661 E31.82768
G1 X206.315 Y110.456 E31.87203
G1 X205.796 Y111.353 E31.92373
G1 X160.878 Y189.155 E36.40575
G1 X156.642 Y196.493 E36.82846
G1 X156.406 Y196.9 E36.85193
G1 X155.987 Y197.545 E36.8903
G1 X155.503 Y198.142 E36.92865
G1 X154.96 Y198.687 E36.96703
G1 X154.363 Y199.172 E37.0054
G1 X153.719 Y199.592 E37.04376
G1 X153.034 Y199.944 E37.08219
G1 X152.317 Y200.222 E37.12055
G1 X151.575 Y200.425 E37.15893
G1 X150.816 Y200.549 E37.1973
G1 X150.049 Y200.594 E37.23563
G1 X149.28 Y200.559 E37.27404
G1 X148.52 Y200.444 E37.31238
G1 X147.775 Y200.251 E37.35078
G1 X147.405 Y200.113 E37.37048
G1 X156.285 Y215.493 E38.2565
G1 X156.634 Y216.178 E38.29486
G1 X156.81 Y216.608 E38.31804
G1 X157.047 Y217.34 E38.35643
G1 X157.206 Y218.093 E38.39482
G1 X157.287 Y218.858 E38.4332
G1 X157.287 Y219.627 E38.47157
G1 X157.208 Y220.392 E38.50993
G1 X157.05 Y221.145 E38.54832
G1 X156.814 Y221.877 E38.58669
G1 X156.504 Y222.581 E38.62507
G1 X156.122 Y223.248 E38.66342
G1 X155.674 Y223.873 E38.70178
G1 X155.162 Y224.448 E38.74019
G1 X154.594 Y224.966 E38.77854
G1 X153.975 Y225.423 E38.81693
G1 X153.312 Y225.813 E38.85531
G1 X152.612 Y226.132 E38.89368
G1 X151.883 Y226.376 E38.93204
G1 X151.133 Y226.544 E38.97038
G1 X150.369 Y226.633 E39.00876
G1 X149.897 Y226.648 E39.03232
G1 X50.155 Y226.647 E44.00846
G1 X49.144 Y226.578 E44.05902
G1 X48.33 Y226.425 E44.10034
G1 X47.594 Y226.203 E44.1387
G1 X46.885 Y225.905 E44.17707
G1 X46.21 Y225.536 E44.21545
G1 X45.577 Y225.099 E44.25382
G1 X44.994 Y224.598 E44.29217
G1 X44.465 Y224.039 E44.33057
G1 X43.997 Y223.429 E44.36893
G1 X43.595 Y222.773 E44.40731
G1 X43.264 Y222.079 E44.44567
G1 X43.006 Y221.354 E44.48406
G1 X42.824 Y220.607 E44.52242
G1 X42.722 Y219.844 E44.56083
G1 X42.699 Y219.076 E44.59916
G1 X42.756 Y218.309 E44.63753
G1 X42.892 Y217.552 E44.6759
G1 X43.106 Y216.813 E44.71428
G1 X43.396 Y216.1 E44.75269
G1 X43.688 Y215.539 E44.78424
G1 X88.28 Y138.303 E49.23366
G1 X93.563 Y129.151 E49.76087
G1 X93.982 Y128.506 E49.79924
G1 X94.449 Y127.925 E49.83643
G1 X95.024 Y127.342 E49.87729
G1 X95.618 Y126.854 E49.91564
G1 X96.261 Y126.431 E49.95404
G1 X96.944 Y126.077 E49.99242
G1 X97.659 Y125.796 E50.03075
G1 X98.401 Y125.59 E50.06916
G1 X99.159 Y125.463 E50.10751
G1 X99.927 Y125.414 E50.1459
G1 X100.695 Y125.446 E50.18425
G1 X101.456 Y125.558 E50.22263
G1 X102.202 Y125.748 E50.26103
G1 X102.599 Y125.894 E50.28214
G1 X93.686 Y110.457 E51.17144
G1 X93.336 Y109.772 E51.20982
G1 X93.059 Y109.054 E51.24822
G1 X92.858 Y108.312 E51.28657
G1 X92.735 Y107.552 E51.32498
G1 X92.692 Y106.785 E51.36331
G1 X92.729 Y106.016 E51.40172
G1 X92.845 Y105.256 E51.44007
G1 X93.04 Y104.512 E51.47844
G1 X93.31 Y103.792 E51.51681
G1 X93.654 Y103.104 E51.55518
G1 X94.068 Y102.455 E51.59359
G1 X94.546 Y101.853 E51.63194
G1 X95.085 Y101.304 E51.67032
G0 F3600 X95.012 Y101.937
G1 F1800 X95.555 Y101.422 E51.70766
G1 X96.15 Y100.968 E51.745
G1 X96.79 Y100.581 E51.78231
G1 X97.468 Y100.264 E51.81965
G1 X98.175 Y100.021 E51.85695
G1 X98.904 Y99.854 E51.89426
G1 X99.647 Y99.767 E51.93158
G1 X100.092 Y99.753 E51.95379
G1 X198.769 Y99.753 E56.87681
G1 X199.903 Y99.752 E56.93339
G1 X200.65 Y99.791 E56.9707
G1 X201.388 Y99.91 E57.008
G1 X202.11 Y100.107 E57.04534
G1 X202.807 Y100.38 E57.08268
G1 X203.47 Y100.726 E57.11999
G1 X204.093 Y101.14 E57.15731
G1 X204.668 Y101.618 E57.19462
G1 X205.188 Y102.156 E57.23195
G1 X205.649 Y102.745 E57.26926
G1 X206.044 Y103.381 E57.30661
G1 X206.368 Y104.055 E57.34392
G1 X206.619 Y104.759 E57.38121
G1 X206.794 Y105.487 E57.41857
G1 X206.889 Y106.229 E57.45589
G1 X206.905 Y106.977 E57.49321
G1 X206.841 Y107.722 E57.53052
G1 X206.698 Y108.456 E57.56783
G1 X206.478 Y109.171 E57.60515
G1 X206.182 Y109.858 E57.64247
G1 X205.448 Y111.157 E57.71691
G1 X160.531 Y188.955 E62.19872
G1 X156.295 Y196.293 E62.62143
G1 X156.06 Y196.699 E62.64484
G1 X155.651 Y197.326 E62.68219
G1 X155.178 Y197.905 E62.71949
G1 X154.646 Y198.431 E62.75681
G1 X154.06 Y198.897 E62.79416
G1 X153.429 Y199.297 E62.83144
G1 X152.758 Y199.628 E62.86876
G1 X152.055 Y199.886 E62.90612
G1 X151.33 Y200.067 E62.9434
G1 X150.589 Y200.169 E62.98072
G1 X149.841 Y200.192 E63.01806
G1 X149.095 Y200.135 E63.05538
G1 X148.359 Y199.999 E63.09272
G1 X147.643 Y199.785 E63.13001
G1 X146.953 Y199.495 E63.16735
G1 X146.415 Y199.198 E63.19801
G1 X155.938 Y215.693 E64.14825
G1 X156.416 Y216.696 E64.20368
G1 X156.666 Y217.463 E64.24393
G1 X156.817 Y218.196 E64.28126
G1 X156.89 Y218.94 E64.31856
G1 X156.883 Y219.688 E64.35588
G1 X156.796 Y220.431 E64.3932
G1 X156.631 Y221.161 E64.43054
G1 X156.388 Y221.868 E64.46784
G1 X156.071 Y222.546 E64.50518
G1 X155.684 Y223.186 E64.54249
G1 X155.231 Y223.781 E64.5798
G1 X154.717 Y224.325 E64.61714
G1 X154.147 Y224.81 E64.65448
G1 X153.53 Y225.232 E64.69177
G1 X152.87 Y225.585 E64.72911
G1 X152.177 Y225.866 E64.76642
G1 X151.458 Y226.072 E64.80373
G1 X150.721 Y226.199 E64.84104
G1 X149.897 Y226.248 E64.88223
G1 X50.155 Y226.247 E69.85838
G1 X49.199 Y226.181 E69.90618
G1 X48.406 Y226.032 E69.94644
G1 X47.691 Y225.812 E69.98376
G1 X47.003 Y225.518 E70.02109
G1 X46.351 Y225.152 E70.05839
G1 X45.741 Y224.719 E70.09571
G1 X45.181 Y224.222 E70.13307
G1 X44.677 Y223.669 E70.1704
G1 X44.236 Y223.066 E70.20767
G1 X43.861 Y222.418 E70.24502
G1 X43.557 Y221.735 E70.28232
G1 X43.328 Y221.023 E70.31963
G1 X43.176 Y220.29 E70.35698
G1 X43.104 Y219.546 E70.39427
G1 X43.111 Y218.798 E70.43159
G1 X43.198 Y218.055 E70.46891
G1 X43.364 Y217.325 E70.50626
G1 X43.606 Y216.617 E70.54359
G1 X44.035 Y215.739 E70.59234
G1 X88.627 Y138.503 E75.04177
G1 X93.91 Y129.351 E75.56897
G1 X94.318 Y128.724 E75.60629
G1 X94.748 Y128.192 E75.64042
G1 X95.308 Y127.624 E75.68022
G1 X95.889 Y127.152 E75.71756
G1 X96.516 Y126.745 E75.75486
G1 X97.184 Y126.408 E75.79218
G1 X97.884 Y126.143 E75.82953
G1 X98.608 Y125.955 E75.86684
G1 X99.348 Y125.845 E75.90417
G1 X100.095 Y125.815 E75.94147
G1 X100.841 Y125.864 E75.97876
G1 X101.578 Y125.993 E76.01609
G1 X102.297 Y126.2 E76.05342
G1 X102.99 Y126.482 E76.09075
G1 X103.586 Y126.803 E76.12452
G1 X94.032 Y110.257 E77.07774
G1 X93.693 Y109.59 E77.11506
G1 X93.426 Y108.891 E77.15239
G1 X93.236 Y108.167 E77.18974
G1 X93.125 Y107.428 E77.22702
G1 X93.092 Y106.68 E77.26437
G1 X93.14 Y105.934 E77.30167
G1 X93.267 Y105.197 E77.33898
G1 X93.472 Y104.477 E77.37633
G1 X93.753 Y103.784 E77.41364
G1 X94.106 Y103.124 E77.45098
G1 X94.527 Y102.506 E77.48829
G1 X95.012 Y101.937 E77.52559
G0 F3600 X95.48 Y102.032
G1 F1800 X96.027 Y101.553 E77.56186
G1 X96.623 Y101.138 E77.59809
G1 X97.261 Y100.791 E77.63433
G1 X97.933 Y100.516 E77.67055
G1 X98.632 Y100.317 E77.70681
G1 X99.348 Y100.195 E77.74305
G1 X100.092 Y100.153 E77.78022
G1 X198.769 Y100.153 E82.70324
G1 X199.903 Y100.152 E82.75981
G1 X200.628 Y100.191 E82.79604
G1 X201.345 Y100.31 E82.8323
G1 X202.044 Y100.507 E82.86853
G1 X202.718 Y100.779 E82.90479
G1 X203.357 Y101.124 E82.94102
G1 X203.954 Y101.537 E82.97724
G1 X204.503 Y102.013 E83.01349
G1 X204.996 Y102.547 E83.04975
G1 X205.427 Y103.131 E83.08596
G1 X205.792 Y103.76 E83.12224
G1 X206.085 Y104.424 E83.15845
G1 X206.303 Y105.117 E83.19469
G1 X206.444 Y105.829 E83.23091
G1 X206.506 Y106.553 E83.26716
G1 X206.488 Y107.279 E83.30339
G1 X206.39 Y107.999 E83.33964
G1 X206.214 Y108.704 E83.37589
G1 X205.961 Y109.385 E83.41214
G1 X205.623 Y110.056 E83.44962
G1 X205.102 Y110.957 E83.50155
G1 X160.185 Y188.755 E87.98336
G1 X155.949 Y196.093 E88.40607
G1 X155.714 Y196.499 E88.42948
G1 X155.316 Y197.107 E88.46573
G1 X154.854 Y197.667 E88.50195
G1 X154.333 Y198.173 E88.53819
G1 X153.759 Y198.619 E88.57445
G1 X153.141 Y198.999 E88.61065
G1 X152.484 Y199.309 E88.64689
G1 X151.797 Y199.545 E88.68313
G1 X151.088 Y199.704 E88.71938
G1 X150.366 Y199.784 E88.75562
G1 X149.639 Y199.784 E88.79189
G1 X148.917 Y199.704 E88.82813
G1 X148.209 Y199.546 E88.86432
G1 X147.521 Y199.311 E88.9006
G1 X146.864 Y199.001 E88.93684
G1 X146.245 Y198.621 E88.97308
G1 X145.672 Y198.176 E89.00927
G1 X145.15 Y197.67 E89.04554
G1 X144.887 Y197.351 E89.06617
G1 X155.592 Y215.893 E90.13433
G1 X156.042 Y216.839 E90.1866
G1 X156.284 Y217.586 E90.22577
G1 X156.428 Y218.298 E90.26201
G1 X156.493 Y219.021 E90.29823
G1 X156.478 Y219.747 E90.33446
G1 X156.383 Y220.467 E90.37069
G1 X156.21 Y221.173 E90.40695
G1 X155.96 Y221.855 E90.44319
G1 X155.637 Y222.505 E90.47941
G1 X155.244 Y223.116 E90.51565
G1 X154.787 Y223.681 E90.5519
G1 X154.27 Y224.191 E90.58814
G1 X153.701 Y224.642 E90.62436
G1 X153.085 Y225.027 E90.6606
G1 X152.431 Y225.342 E90.69682
G1 X151.746 Y225.584 E90.73306
G1 X151.038 Y225.749 E90.76933
G1 X150.317 Y225.835 E90.80555
G1 X149.897 Y225.848 E90.82652
G1 X50.155 Y225.847 E95.80267
G1 X49.253 Y225.785 E95.84777
G1 X48.482 Y225.638 E95.88693
G1 X47.789 Y225.422 E95.92315
G1 X47.123 Y225.131 E95.95941
G1 X46.494 Y224.769 E95.99561
G1 X45.908 Y224.339 E96.03188
G1 X45.373 Y223.848 E96.0681
G1 X44.895 Y223.301 E96.10435
G1 X44.48 Y222.705 E96.14058
G1 X44.133 Y222.067 E96.17681
G1 X43.859 Y221.394 E96.21306
G1 X43.66 Y220.696 E96.24928
G1 X43.539 Y219.979 E96.28555
G1 X43.497 Y219.254 E96.32178
G1 X43.535 Y218.529 E96.358
G1 X43.653 Y217.812 E96.39426
G1 X43.849 Y217.113 E96.43047
G1 X44.12 Y216.439 E96.46672
G1 X44.381 Y215.939 E96.49486
G1 X88.973 Y138.703 E100.94428
G1 X94.256 Y129.551 E101.47149
G1 X94.653 Y128.943 E101.50772
G1 X95.046 Y128.458 E101.53886
G1 X95.592 Y127.906 E101.57759
G1 X96.158 Y127.451 E101.61383
G1 X96.771 Y127.061 E101.65007
G1 X97.422 Y126.74 E101.68628
G1 X98.106 Y126.493 E101.72257
G1 X98.812 Y126.323 E101.7588
G1 X99.532 Y126.231 E101.79501
G1 X100.258 Y126.219 E101.83123
G1 X100.982 Y126.287 E101.86751
G1 X101.693 Y126.433 E101.90373
G1 X102.384 Y126.658 E101.93998
G1 X103.046 Y126.956 E101.9762
G1 X103.671 Y127.326 E102.01244
G1 X104.252 Y127.762 E102.04868
G1 X104.782 Y128.259 E102.08493
G1 X105.111 Y128.645 E102.11023
G1 X94.378 Y110.056 E103.18112
G1 X94.05 Y109.409 E103.21731
G1 X93.795 Y108.728 E103.25359
G1 X93.616 Y108.024 E103.28983
G1 X93.515 Y107.305 E103.32606
G1 X93.494 Y106.579 E103.36229
G1 X93.553 Y105.855 E103.39853
G1 X93.692 Y105.142 E103.43477
G1 X93.907 Y104.448 E103.47102
G1 X94.198 Y103.783 E103.50724
G1 X94.56 Y103.153 E103.54349
G1 X94.989 Y102.567 E103.57972
G1 X95.48 Y102.032 E103.61595
G0 F3600 X95.95 Y102.14
G1 F1800 X96.499 Y101.7 E103.65105
G1 X97.095 Y101.325 E103.68618
G1 X97.73 Y101.021 E103.7213
G1 X98.395 Y100.79 E103.75642
G1 X99.082 Y100.636 E103.79155
G1 X100.092 Y100.553 E103.84211
G1 X198.77 Y100.553 E108.76517
G1 X199.904 Y100.552 E108.82175
G1 X200.606 Y100.591 E108.85683
G1 X201.3 Y100.71 E108.89195
G1 X201.976 Y100.907 E108.92708
G1 X202.626 Y101.179 E108.96224
G1 X203.24 Y101.523 E108.99735
G1 X203.811 Y101.934 E109.03245
G1 X204.332 Y102.407 E109.06756
G1 X204.796 Y102.937 E109.1027
G1 X205.197 Y103.516 E109.13784
G1 X205.53 Y104.136 E109.17295
G1 X205.79 Y104.79 E109.20806
G1 X205.975 Y105.469 E109.24317
G1 X206.081 Y106.165 E109.27829
G1 X206.108 Y106.869 E109.31344
G1 X206.055 Y107.571 E109.34857
G1 X205.922 Y108.262 E109.38367
G1 X205.712 Y108.934 E109.4188
G1 X205.276 Y109.856 E109.46968
G1 X204.755 Y110.757 E109.52161
