;FLAVOR:Marlin
;TIME:2243
;Filament used: 1.86044m
;Layer height: 0.15
;MINX:115.52
;MINY:120.856
;MINZ:0.3
;MAXX:184.48
;MAXY:179.144
;MAXZ:8.55
;Generated with Cura_SteamEngine 4.6.1
M140 S65
M105
M190 S65
M104 S200
M105
M109 S200
M82 ;absolute extrusion mode
G28 ;Home
G1 Z15.0 F6000 ;Move the platform down 15mm
;Prime the extruder
G92 E0
G1 F200 E3
G92 E0
G92 E0
G92 E0
G1 F1500 E-6.5
;LAYER_COUNT:56
;LAYER:0
M107
G0 F3600 X119.323 Y124.469 Z0.3
;TYPE:SKIRT
G1 F1500 E0
G1 F1800 X119.809 Y124.039 E0.03237
G1 X120.611 Y123.418 E0.08298
G1 X121.166 Y123.043 E0.1164
G1 X121.995 Y122.555 E0.16439
G1 X122.604 Y122.245 E0.19848
G1 X123.358 Y121.91 E0.23965
G1 X123.829 Y121.73 E0.2648
G1 X124.364 Y121.547 E0.29301
G1 X124.892 Y121.388 E0.32052
G1 X125.603 Y121.21 E0.35709
G1 X126.11 Y121.108 E0.38289
G1 X126.638 Y121.021 E0.40959
G1 X127.197 Y120.948 E0.43771
G1 X127.877 Y120.889 E0.47176
G1 X128.42 Y120.866 E0.49888
G1 X130.455 Y120.856 E0.60041
G1 X133.015 Y120.861 E0.72813
G1 X171.25 Y120.859 E2.63568
G1 X172.123 Y120.889 E2.67926
G1 X172.772 Y120.944 E2.71175
G1 X173.285 Y121.009 E2.73755
G1 X173.824 Y121.096 E2.76479
G1 X174.378 Y121.206 E2.79297
G1 X175.083 Y121.381 E2.82921
G1 X175.567 Y121.525 E2.8544
G1 X176.105 Y121.706 E2.88272
G1 X176.62 Y121.901 E2.91019
G1 X177.396 Y122.245 E2.95254
G1 X178.005 Y122.555 E2.98664
G1 X178.834 Y123.043 E3.03463
G1 X179.389 Y123.418 E3.06805
G1 X180.189 Y124.038 E3.11854
G1 X180.673 Y124.466 E3.15077
G1 X181.426 Y125.231 E3.20433
G1 X181.836 Y125.709 E3.23575
G1 X182.507 Y126.617 E3.29207
G1 X182.836 Y127.137 E3.32277
G1 X183.224 Y127.824 E3.36214
G1 X183.639 Y128.753 E3.4129
G1 X183.915 Y129.492 E3.45225
G1 X184.184 Y130.491 E3.50387
G1 X184.34 Y131.265 E3.54326
G1 X184.447 Y132.315 E3.59592
G1 X184.477 Y132.982 E3.62923
G1 X184.48 Y134.358 E3.69788
G1 X184.474 Y136.423 E3.8009
G1 X184.477 Y166.998 E5.32629
G1 X184.447 Y167.681 E5.3604
G1 X184.396 Y168.262 E5.3895
G1 X184.287 Y169.044 E5.42889
G1 X184.04 Y170.071 E5.48159
G1 X183.807 Y170.826 E5.52101
G1 X183.404 Y171.789 E5.57309
G1 X183.054 Y172.497 E5.61249
G1 X182.507 Y173.383 E5.66444
G1 X181.838 Y174.289 E5.72063
G1 X181.43 Y174.765 E5.75191
G1 X180.677 Y175.531 E5.8055
G1 X180.191 Y175.961 E5.83787
G1 X179.389 Y176.582 E5.88847
G1 X178.834 Y176.957 E5.92189
G1 X178.005 Y177.445 E5.96988
G1 X177.396 Y177.755 E6.00398
G1 X176.642 Y178.09 E6.04514
G1 X176.171 Y178.27 E6.0703
G1 X175.636 Y178.453 E6.09851
G1 X175.108 Y178.612 E6.12602
G1 X174.397 Y178.79 E6.16258
G1 X173.89 Y178.892 E6.18838
G1 X173.362 Y178.979 E6.21508
G1 X172.803 Y179.052 E6.24321
G1 X172.123 Y179.111 E6.27726
G1 X171.58 Y179.134 E6.30437
G1 X169.545 Y179.144 E6.4059
G1 X166.985 Y179.139 E6.53362
G1 X128.751 Y179.141 E8.44112
G1 X127.878 Y179.111 E8.4847
G1 X127.225 Y179.056 E8.5174
G1 X126.713 Y178.991 E8.54315
G1 X126.176 Y178.904 E8.57029
G1 X125.622 Y178.794 E8.59846
G1 X124.917 Y178.619 E8.6347
G1 X124.433 Y178.475 E8.6599
G1 X123.895 Y178.294 E8.68822
G1 X123.38 Y178.099 E8.71569
G1 X122.604 Y177.755 E8.75804
G1 X121.995 Y177.445 E8.79213
G1 X121.166 Y176.957 E8.84012
G1 X120.611 Y176.582 E8.87354
G1 X119.809 Y175.961 E8.92415
G1 X119.323 Y175.531 E8.95652
G1 X118.57 Y174.765 E9.01011
G1 X118.162 Y174.289 E9.04139
G1 X117.493 Y173.383 E9.09758
G1 X117.164 Y172.863 E9.12827
G1 X116.776 Y172.176 E9.16764
G1 X116.359 Y171.241 E9.21871
G1 X116.082 Y170.501 E9.25813
G1 X115.816 Y169.506 E9.30952
G1 X115.66 Y168.732 E9.34891
G1 X115.553 Y167.685 E9.40142
G1 X115.523 Y167.018 E9.43473
G1 X115.52 Y165.642 E9.50338
G1 X115.526 Y163.577 E9.6064
G1 X115.523 Y133.002 E11.13179
G1 X115.553 Y132.319 E11.1659
G1 X115.604 Y131.738 E11.195
G1 X115.713 Y130.956 E11.23439
G1 X115.96 Y129.929 E11.28709
G1 X116.193 Y129.174 E11.32651
G1 X116.596 Y128.211 E11.37859
G1 X116.946 Y127.503 E11.41799
G1 X117.493 Y126.617 E11.46994
G1 X118.162 Y125.711 E11.52613
G1 X118.57 Y125.235 E11.55741
G1 X119.323 Y124.469 E11.611
G0 F3600 X119.588 Y124.769
G1 F1800 X120.074 Y124.339 E11.64337
G1 X120.835 Y123.749 E11.69141
G1 X121.39 Y123.374 E11.72483
G1 X122.176 Y122.911 E11.77034
G1 X122.785 Y122.601 E11.80443
G1 X123.5 Y122.284 E11.84345
G1 X123.971 Y122.104 E11.86861
G1 X124.479 Y121.93 E11.8954
G1 X125.007 Y121.771 E11.92291
G1 X125.681 Y121.602 E11.95758
G1 X126.188 Y121.5 E11.98338
G1 X126.69 Y121.417 E12.00876
G1 X127.249 Y121.344 E12.03689
G1 X127.894 Y121.289 E12.06918
G1 X128.437 Y121.266 E12.0963
G1 X130.456 Y121.256 E12.19703
G1 X133.015 Y121.261 E12.3247
G1 X171.25 Y121.259 E14.23225
G1 X172.106 Y121.289 E14.27498
G1 X172.722 Y121.341 E14.30582
G1 X173.235 Y121.406 E14.33162
G1 X173.746 Y121.489 E14.35745
G1 X174.3 Y121.599 E14.38563
G1 X174.969 Y121.764 E14.42
G1 X175.453 Y121.908 E14.4452
G1 X175.963 Y122.08 E14.47205
G1 X176.478 Y122.275 E14.49952
G1 X177.215 Y122.601 E14.53973
G1 X177.824 Y122.911 E14.57382
G1 X178.61 Y123.374 E14.61933
G1 X179.165 Y123.749 E14.65275
G1 X179.924 Y124.338 E14.70068
G1 X180.408 Y124.766 E14.73291
G1 X181.123 Y125.491 E14.78372
G1 X181.533 Y125.969 E14.81513
G1 X182.169 Y126.83 E14.86854
G1 X182.498 Y127.35 E14.89924
G1 X183.036 Y128.366 E14.95659
G1 X183.272 Y128.911 E14.98622
G1 X183.54 Y129.632 E15.0246
G1 X183.796 Y130.59 E15.07407
G1 X183.947 Y131.344 E15.11243
G1 X184.048 Y132.35 E15.16288
G1 X184.077 Y132.983 E15.19449
G1 X184.08 Y134.359 E15.26314
G1 X184.074 Y136.422 E15.36606
G1 X184.077 Y166.998 E16.89151
G1 X184.049 Y167.646 E16.92387
G1 X183.998 Y168.227 E16.95296
G1 X183.891 Y168.989 E16.99135
G1 X183.653 Y169.973 E17.04186
G1 X183.424 Y170.707 E17.08022
G1 X183.037 Y171.63 E17.13015
G1 X182.498 Y172.65 E17.18771
G1 X182.169 Y173.17 E17.21841
G1 X181.534 Y174.029 E17.2717
G1 X181.126 Y174.505 E17.30298
G1 X180.412 Y175.231 E17.35378
G1 X179.926 Y175.661 E17.38616
G1 X179.165 Y176.251 E17.4342
G1 X178.61 Y176.626 E17.46761
G1 X177.824 Y177.089 E17.51312
G1 X177.215 Y177.399 E17.54722
G1 X176.5 Y177.716 E17.58624
G1 X176.029 Y177.896 E17.61139
G1 X175.521 Y178.07 E17.63818
G1 X174.993 Y178.229 E17.66569
G1 X174.319 Y178.398 E17.70036
G1 X173.812 Y178.5 E17.72616
G1 X173.31 Y178.583 E17.75155
G1 X172.751 Y178.656 E17.77967
G1 X172.106 Y178.711 E17.81197
G1 X171.563 Y178.734 E17.83908
G1 X169.544 Y178.744 E17.93981
G1 X166.985 Y178.739 E18.06748
G1 X128.751 Y178.741 E19.97498
G1 X127.894 Y178.711 E20.01777
G1 X127.275 Y178.659 E20.04876
G1 X126.763 Y178.594 E20.07451
G1 X126.254 Y178.511 E20.10023
G1 X125.7 Y178.401 E20.12841
G1 X125.031 Y178.236 E20.16279
G1 X124.547 Y178.092 E20.18798
G1 X124.037 Y177.92 E20.21484
G1 X123.522 Y177.725 E20.24231
G1 X122.785 Y177.399 E20.28251
G1 X122.176 Y177.089 E20.31661
G1 X121.39 Y176.626 E20.36212
G1 X120.835 Y176.251 E20.39554
G1 X120.074 Y175.661 E20.44358
G1 X119.588 Y175.231 E20.47595
G1 X118.874 Y174.505 E20.52675
G1 X118.466 Y174.029 E20.55803
G1 X117.831 Y173.17 E20.61132
G1 X117.502 Y172.65 E20.64202
G1 X116.963 Y171.63 E20.69958
G1 X116.726 Y171.082 E20.72937
G1 X116.458 Y170.362 E20.7677
G1 X116.203 Y169.408 E20.81696
G1 X116.052 Y168.653 E20.85537
G1 X115.952 Y167.65 E20.90566
G1 X115.923 Y167.017 E20.93728
G1 X115.92 Y165.641 E21.00593
G1 X115.926 Y163.578 E21.10885
G1 X115.923 Y133.002 E22.63429
G1 X115.951 Y132.354 E22.66665
G1 X116.002 Y131.773 E22.69575
G1 X116.109 Y131.011 E22.73414
G1 X116.347 Y130.027 E22.78465
G1 X116.576 Y129.293 E22.82301
G1 X116.963 Y128.37 E22.87294
G1 X117.502 Y127.35 E22.93049
G1 X117.831 Y126.83 E22.96119
G1 X118.466 Y125.971 E23.01449
G1 X118.874 Y125.495 E23.04577
G1 X119.588 Y124.769 E23.09657
G0 F3600 X119.854 Y125.068
G1 F1800 X120.34 Y124.638 E23.12894
G1 X121.059 Y124.081 E23.17432
G1 X121.614 Y123.706 E23.20773
G1 X122.358 Y123.268 E23.25081
G1 X122.967 Y122.958 E23.2849
G1 X123.643 Y122.657 E23.32182
G1 X124.114 Y122.477 E23.34697
G1 X124.595 Y122.313 E23.37233
G1 X125.123 Y122.154 E23.39984
G1 X125.76 Y121.995 E23.43259
G1 X126.267 Y121.893 E23.4584
G1 X127.301 Y121.741 E23.51054
G1 X127.911 Y121.688 E23.54108
G1 X128.454 Y121.665 E23.5682
G1 X130.457 Y121.656 E23.66813
G1 X133.014 Y121.661 E23.7957
G1 X171.25 Y121.659 E25.7033
G1 X172.089 Y121.688 E25.74518
G1 X172.672 Y121.738 E25.77438
G1 X173.185 Y121.803 E25.80017
G1 X174.222 Y121.991 E25.85275
G1 X174.855 Y122.148 E25.88529
G1 X175.339 Y122.292 E25.91048
G1 X175.822 Y122.455 E25.93592
G1 X176.337 Y122.65 E25.96339
G1 X177.033 Y122.958 E26.00136
G1 X177.642 Y123.268 E26.03545
G1 X178.386 Y123.706 E26.07853
G1 X178.941 Y124.081 E26.11194
G1 X179.659 Y124.637 E26.15725
G1 X180.143 Y125.065 E26.18948
G1 X180.819 Y125.752 E26.23757
G1 X181.229 Y126.23 E26.26899
G1 X181.831 Y127.044 E26.3195
G1 X182.16 Y127.564 E26.3502
G1 X182.669 Y128.525 E26.40445
G1 X182.905 Y129.07 E26.43408
G1 X183.263 Y130.121 E26.48947
G1 X183.408 Y130.689 E26.51872
G1 X183.555 Y131.422 E26.55602
G1 X183.65 Y132.385 E26.6043
G1 X183.677 Y132.984 E26.63421
G1 X183.68 Y134.36 E26.70286
G1 X183.674 Y136.421 E26.80568
G1 X183.677 Y166.998 E28.33118
G1 X183.65 Y167.611 E28.36179
G1 X183.599 Y168.192 E28.39089
G1 X183.494 Y168.933 E28.42822
G1 X183.265 Y169.874 E28.47654
G1 X182.907 Y170.924 E28.53189
G1 X182.67 Y171.472 E28.56167
G1 X182.16 Y172.436 E28.61608
G1 X181.831 Y172.956 E28.64678
G1 X181.231 Y173.769 E28.69719
G1 X180.823 Y174.245 E28.72847
G1 X180.146 Y174.932 E28.77659
G1 X179.66 Y175.362 E28.80897
G1 X178.941 Y175.919 E28.85434
G1 X178.386 Y176.294 E28.88776
G1 X177.642 Y176.732 E28.93083
G1 X177.033 Y177.042 E28.96493
G1 X176.357 Y177.343 E29.00184
G1 X175.886 Y177.523 E29.027
G1 X175.405 Y177.687 E29.05235
G1 X174.877 Y177.846 E29.07986
G1 X174.24 Y178.005 E29.11262
G1 X173.733 Y178.107 E29.13842
G1 X172.699 Y178.259 E29.19056
G1 X172.089 Y178.312 E29.22111
G1 X171.546 Y178.335 E29.24822
G1 X169.543 Y178.344 E29.34815
G1 X166.986 Y178.339 E29.47572
G1 X128.751 Y178.341 E31.38328
G1 X127.911 Y178.312 E31.42521
G1 X127.325 Y178.262 E31.45455
G1 X126.813 Y178.197 E31.4803
G1 X125.778 Y178.009 E31.53278
G1 X125.145 Y177.852 E31.56532
G1 X124.661 Y177.708 E31.59051
G1 X124.178 Y177.545 E31.61594
G1 X123.663 Y177.35 E31.64342
G1 X122.967 Y177.042 E31.68139
G1 X122.358 Y176.732 E31.71548
G1 X121.614 Y176.294 E31.75855
G1 X121.059 Y175.919 E31.79197
G1 X120.34 Y175.362 E31.83735
G1 X119.854 Y174.932 E31.86972
G1 X119.177 Y174.245 E31.91784
G1 X118.769 Y173.769 E31.94912
G1 X118.169 Y172.956 E31.99953
G1 X117.84 Y172.436 E32.03023
G1 X117.33 Y171.472 E32.08464
G1 X117.093 Y170.924 E32.11443
G1 X116.735 Y169.874 E32.16977
G1 X116.591 Y169.309 E32.19886
G1 X116.445 Y168.575 E32.2362
G1 X116.35 Y167.615 E32.28433
G1 X116.323 Y167.016 E32.31424
G1 X116.32 Y165.64 E32.38289
G1 X116.326 Y163.579 E32.48571
G1 X116.323 Y133.002 E34.01121
G1 X116.35 Y132.389 E34.04182
G1 X116.401 Y131.808 E34.07092
G1 X116.506 Y131.067 E34.10825
G1 X116.735 Y130.126 E34.15657
G1 X117.093 Y129.076 E34.21192
G1 X117.33 Y128.528 E34.2417
G1 X117.84 Y127.564 E34.29611
G1 X118.169 Y127.044 E34.32681
G1 X118.769 Y126.231 E34.37722
G1 X119.177 Y125.755 E34.4085
G1 X119.854 Y125.068 E34.45662
G0 F3600 X120.119 Y125.368
G1 F1800 X120.605 Y124.938 E34.489
G1 X121.283 Y124.412 E34.53181
G1 X121.838 Y124.037 E34.56523
G1 X122.539 Y123.624 E34.60582
G1 X123.148 Y123.314 E34.63991
G1 X123.786 Y123.031 E34.67473
G1 X124.257 Y122.851 E34.69989
G1 X125.238 Y122.537 E34.75127
G1 X125.839 Y122.387 E34.78218
G1 X126.346 Y122.285 E34.80798
G1 X127.352 Y122.138 E34.8587
G1 X127.928 Y122.088 E34.88755
G1 X128.471 Y122.065 E34.91466
G1 X130.457 Y122.056 E35.01374
G1 X133.013 Y122.061 E35.14126
G1 X171.25 Y122.059 E37.04892
G1 X172.072 Y122.088 E37.08995
G1 X172.622 Y122.134 E37.11749
G1 X173.135 Y122.199 E37.14328
G1 X174.144 Y122.383 E37.19445
G1 X174.741 Y122.531 E37.22514
G1 X175.225 Y122.675 E37.25033
G1 X176.195 Y123.024 E37.30176
G1 X176.852 Y123.314 E37.33759
G1 X177.461 Y123.624 E37.37169
G1 X178.162 Y124.037 E37.41228
G1 X178.717 Y124.412 E37.44569
G1 X179.394 Y124.937 E37.48844
G1 X179.878 Y125.365 E37.52067
G1 X180.516 Y126.012 E37.566
G1 X180.926 Y126.49 E37.59742
G1 X181.493 Y127.258 E37.64505
G1 X181.822 Y127.778 E37.67575
G1 X182.302 Y128.684 E37.7269
G1 X182.538 Y129.229 E37.75653
G1 X182.876 Y130.219 E37.80872
G1 X183.021 Y130.787 E37.83797
G1 X183.201 Y131.841 E37.89131
G1 X183.252 Y132.42 E37.92031
G1 X183.277 Y132.985 E37.94853
G1 X183.28 Y134.361 E38.01717
G1 X183.274 Y136.42 E38.1199
G1 X183.277 Y166.998 E39.64544
G1 X183.252 Y167.576 E39.6743
G1 X183.201 Y168.157 E39.7034
G1 X183.022 Y169.21 E39.75669
G1 X182.878 Y169.775 E39.78578
G1 X182.54 Y170.765 E39.83797
G1 X182.303 Y171.313 E39.86776
G1 X181.822 Y172.222 E39.91907
G1 X181.493 Y172.742 E39.94976
G1 X180.927 Y173.508 E39.99728
G1 X180.519 Y173.984 E40.02856
G1 X179.881 Y174.632 E40.07393
G1 X179.395 Y175.062 E40.1063
G1 X178.717 Y175.588 E40.14911
G1 X178.162 Y175.963 E40.18253
G1 X177.461 Y176.376 E40.22312
G1 X176.852 Y176.686 E40.25721
G1 X176.214 Y176.969 E40.29204
G1 X175.743 Y177.149 E40.31719
G1 X174.762 Y177.463 E40.36858
G1 X174.161 Y177.613 E40.39948
G1 X173.654 Y177.715 E40.42528
G1 X172.648 Y177.862 E40.47601
G1 X172.072 Y177.912 E40.50485
G1 X171.529 Y177.935 E40.53197
G1 X169.543 Y177.944 E40.63105
G1 X166.987 Y177.939 E40.75857
G1 X128.751 Y177.941 E42.66617
G1 X127.928 Y177.912 E42.70726
G1 X127.376 Y177.865 E42.7349
G1 X126.864 Y177.8 E42.76064
G1 X125.856 Y177.617 E42.81176
G1 X125.259 Y177.469 E42.84244
G1 X124.775 Y177.325 E42.86763
G1 X123.805 Y176.976 E42.91906
G1 X123.148 Y176.686 E42.95489
G1 X122.539 Y176.376 E42.98899
G1 X121.838 Y175.963 E43.02958
G1 X121.283 Y175.588 E43.063
G1 X120.605 Y175.062 E43.10581
G1 X120.119 Y174.632 E43.13818
G1 X119.481 Y173.984 E43.18355
G1 X119.073 Y173.508 E43.21483
G1 X118.507 Y172.742 E43.26234
G1 X118.178 Y172.222 E43.29304
G1 X117.697 Y171.313 E43.34435
G1 X117.46 Y170.765 E43.37414
G1 X117.122 Y169.775 E43.42633
G1 X116.978 Y169.21 E43.45542
G1 X116.799 Y168.159 E43.50861
G1 X116.748 Y167.58 E43.53761
G1 X116.723 Y167.015 E43.56582
G1 X116.72 Y165.639 E43.63447
G1 X116.726 Y163.58 E43.7372
G1 X116.723 Y133.002 E45.26274
G1 X116.748 Y132.424 E45.2916
G1 X116.799 Y131.843 E45.3207
G1 X116.978 Y130.79 E45.37399
G1 X117.122 Y130.225 E45.40308
G1 X117.46 Y129.235 E45.45527
G1 X117.697 Y128.687 E45.48505
G1 X118.178 Y127.778 E45.53636
G1 X118.507 Y127.258 E45.56706
G1 X119.073 Y126.492 E45.61458
G1 X119.481 Y126.016 E45.64586
G1 X120.119 Y125.368 E45.69122
G0 F3600 X120.384 Y125.668
G1 F1800 X120.87 Y125.238 E45.7236
G1 X121.507 Y124.744 E45.76382
G1 X122.062 Y124.369 E45.79723
G1 X122.72 Y123.981 E45.83534
G1 X123.329 Y123.671 E45.86944
G1 X123.929 Y123.405 E45.90218
G1 X124.4 Y123.225 E45.92734
G1 X125.353 Y122.92 E45.97726
G1 X125.918 Y122.779 E46.00631
G1 X126.425 Y122.677 E46.03211
G1 X127.404 Y122.534 E46.08147
G1 X127.945 Y122.488 E46.10856
G1 X128.488 Y122.465 E46.13567
G1 X130.458 Y122.456 E46.23396
G1 X133.012 Y122.461 E46.36138
G1 X171.25 Y122.459 E48.26908
G1 X172.055 Y122.488 E48.30927
G1 X172.571 Y122.531 E48.3351
G1 X173.084 Y122.596 E48.3609
G1 X174.066 Y122.776 E48.41071
G1 X174.627 Y122.914 E48.43953
G1 X175.111 Y123.058 E48.46472
G1 X176.053 Y123.398 E48.51469
G1 X176.671 Y123.671 E48.54839
G1 X177.28 Y123.981 E48.58249
G1 X177.938 Y124.369 E48.6206
G1 X178.493 Y124.744 E48.65401
G1 X179.129 Y125.236 E48.69413
G1 X179.613 Y125.664 E48.72636
G1 X180.212 Y126.272 E48.76894
G1 X180.622 Y126.75 E48.80036
G1 X181.155 Y127.472 E48.84514
G1 X181.484 Y127.992 E48.87583
G1 X181.934 Y128.843 E48.92386
G1 X182.17 Y129.388 E48.95349
G1 X182.488 Y130.318 E49.00253
G1 X182.633 Y130.886 E49.03177
G1 X182.802 Y131.876 E49.08188
G1 X182.853 Y132.455 E49.11088
G1 X182.877 Y132.985 E49.13735
G1 X182.88 Y134.361 E49.206
G1 X182.874 Y136.418 E49.30862
G1 X182.877 Y166.998 E50.83426
G1 X182.853 Y167.541 E50.86138
G1 X182.802 Y168.122 E50.89048
G1 X182.634 Y169.111 E50.94052
G1 X182.49 Y169.676 E50.96961
G1 X182.173 Y170.606 E51.01863
G1 X181.936 Y171.154 E51.04842
G1 X181.484 Y172.008 E51.09663
G1 X181.155 Y172.528 E51.12733
G1 X180.623 Y173.248 E51.17199
G1 X180.215 Y173.724 E51.20327
