;FLAVOR:Marlin
;TIME:8217
;Filament used: 2.89929m
;Layer height: 0.1
;MINX:92.3
;MINY:99.011
;MINZ:0.3
;MAXX:207.707
;MAXY:201.048
;MAXZ:81.6
;Generated with Cura_SteamEngine 4.6.1
M140 S65
M105
M190 S65
M104 S200
M105
M109 S200
M82 ;absolute extrusion mode
G28 ;Home
G1 Z15.0 F6000 ;Move the platform down 15mm
;Prime the extruder
G92 E0
G1 F200 E3
G92 E0
G92 E0
G92 E0
G1 F1500 E-6.5
;LAYER_COUNT:814
;LAYER:0
M107
G0 F3600 X143.673 Y102.243 Z0.3
;TYPE:SKIRT
G1 F1500 E0
G1 F1800 X144.167 Y101.627 E0.03939
G1 X144.72 Y101.064 E0.07877
G1 X145.328 Y100.559 E0.1182
G1 X145.984 Y100.119 E0.15761
G1 X146.68 Y99.747 E0.19698
G1 X147.411 Y99.448 E0.23638
G1 X148.168 Y99.224 E0.27577
G1 X148.944 Y99.078 E0.31516
G1 X149.731 Y99.011 E0.35457
G1 X150.521 Y99.023 E0.39398
G1 X151.305 Y99.116 E0.43337
G1 X152.076 Y99.288 E0.47278
G1 X152.825 Y99.536 E0.51215
G1 X153.546 Y99.859 E0.55156
G1 X154.23 Y100.253 E0.59094
G1 X154.871 Y100.715 E0.63036
G1 X155.462 Y101.239 E0.66977
G1 X155.997 Y101.819 E0.70913
G1 X156.47 Y102.451 E0.74852
G1 X156.753 Y102.905 E0.77521
G1 X161.215 Y110.63 E1.22028
G1 X206.095 Y188.364 E5.69841
G1 X206.661 Y189.343 E5.75482
G1 X207.021 Y190.046 E5.79423
G1 X207.308 Y190.781 E5.83359
G1 X207.519 Y191.542 E5.87299
G1 X207.653 Y192.321 E5.91243
G1 X207.707 Y193.108 E5.95178
G1 X207.681 Y193.898 E5.99122
G1 X207.575 Y194.68 E6.03059
G1 X207.391 Y195.448 E6.06999
G1 X207.13 Y196.193 E6.10937
G1 X206.795 Y196.909 E6.14881
G1 X206.39 Y197.586 E6.18817
G1 X205.918 Y198.219 E6.22756
G1 X205.384 Y198.802 E6.26701
G1 X204.794 Y199.327 E6.30641
G1 X204.155 Y199.79 E6.34578
G1 X203.471 Y200.186 E6.38521
G1 X202.751 Y200.51 E6.4246
G1 X202.003 Y200.761 E6.46396
G1 X201.232 Y200.934 E6.50338
G1 X200.448 Y201.028 E6.54278
G1 X199.908 Y201.047 E6.56973
G1 X101.231 Y201.047 E11.49275
G1 X100.098 Y201.048 E11.54927
G1 X99.309 Y201.009 E11.58869
G1 X98.528 Y200.89 E11.6281
G1 X97.764 Y200.693 E11.66746
G1 X97.023 Y200.419 E11.70688
G1 X96.314 Y200.072 E11.74626
G1 X95.643 Y199.655 E11.78567
G1 X95.018 Y199.173 E11.82505
G1 X94.445 Y198.63 E11.86443
G1 X93.93 Y198.031 E11.90385
G1 X93.478 Y197.384 E11.94322
G1 X93.093 Y196.694 E11.98264
G1 X92.781 Y195.968 E12.02206
G1 X92.543 Y195.215 E12.06146
G1 X92.383 Y194.442 E12.10085
G1 X92.302 Y193.657 E12.14022
G1 X92.3 Y192.867 E12.17963
G1 X92.379 Y192.081 E12.21904
G1 X92.536 Y191.307 E12.25844
G1 X92.771 Y190.553 E12.29785
G1 X93.081 Y189.827 E12.33723
G1 X93.339 Y189.343 E12.36459
G1 X93.86 Y188.442 E12.41652
G1 X138.776 Y110.645 E16.89826
G1 X143.244 Y102.906 E17.34409
G1 X143.673 Y102.243 E17.38349
G0 F3600 X144.009 Y102.461
G1 F1800 X144.492 Y101.863 E17.42184
G1 X145.035 Y101.318 E17.46022
G1 X145.632 Y100.832 E17.49863
G1 X146.276 Y100.411 E17.53701
G1 X146.959 Y100.059 E17.57535
G1 X147.676 Y99.78 E17.61373
G1 X148.418 Y99.577 E17.65211
G1 X149.177 Y99.452 E17.69049
G1 X149.945 Y99.406 E17.72887
G1 X150.713 Y99.441 E17.76723
G1 X151.474 Y99.554 E17.80561
G1 X152.219 Y99.747 E17.84401
G1 X152.939 Y100.015 E17.88233
G1 X153.628 Y100.357 E17.92071
G1 X154.278 Y100.769 E17.9591
G1 X154.882 Y101.245 E17.99747
G1 X155.432 Y101.782 E18.03582
G1 X155.925 Y102.373 E18.07422
G1 X156.407 Y103.105 E18.11794
G1 X160.869 Y110.83 E18.56302
G1 X205.751 Y188.568 E23.04136
G1 X206.314 Y189.543 E23.09753
G1 X206.664 Y190.228 E23.13591
G1 X206.941 Y190.946 E23.17431
G1 X207.142 Y191.688 E23.21266
G1 X207.265 Y192.448 E23.25107
G1 X207.308 Y193.215 E23.28939
G1 X207.271 Y193.984 E23.3278
G1 X207.155 Y194.744 E23.36616
G1 X206.96 Y195.488 E23.40453
G1 X206.69 Y196.208 E23.4429
G1 X206.346 Y196.896 E23.48127
G1 X205.932 Y197.545 E23.51968
G1 X205.454 Y198.147 E23.55803
G1 X204.915 Y198.696 E23.59641
G1 X204.322 Y199.186 E23.63479
G1 X203.682 Y199.612 E23.67315
G1 X203.001 Y199.97 E23.71153
G1 X202.286 Y200.254 E23.74991
G1 X201.546 Y200.463 E23.78828
G1 X200.788 Y200.594 E23.82665
G1 X199.908 Y200.647 E23.87064
G1 X101.231 Y200.647 E28.79365
G1 X100.098 Y200.648 E28.85018
G1 X99.329 Y200.609 E28.88859
G1 X98.569 Y200.49 E28.92697
G1 X97.826 Y200.293 E28.96532
G1 X97.107 Y200.02 E29.00369
G1 X96.42 Y199.673 E29.04209
G1 X95.773 Y199.258 E29.08044
G1 X95.173 Y198.777 E29.1188
G1 X94.625 Y198.237 E29.15718
G1 X94.137 Y197.642 E29.19558
G1 X93.713 Y197.001 E29.23392
G1 X93.358 Y196.318 E29.27232
G1 X93.076 Y195.603 E29.31067
G1 X92.869 Y194.862 E29.34905
G1 X92.741 Y194.103 E29.38745
G1 X92.692 Y193.336 E29.4258
G1 X92.722 Y192.567 E29.46419
G1 X92.833 Y191.806 E29.50256
G1 X93.022 Y191.061 E29.54091
G1 X93.287 Y190.339 E29.57928
G1 X93.685 Y189.544 E29.62363
G1 X94.204 Y188.647 E29.67533
G1 X139.122 Y110.845 E34.15735
G1 X143.59 Y103.106 E34.60317
G1 X144.009 Y102.461 E34.64155
G0 F3600 X144.345 Y102.679
G1 F1800 X144.818 Y102.099 E34.67888
G1 X145.349 Y101.573 E34.71617
G1 X145.934 Y101.107 E34.75349
G1 X146.566 Y100.706 E34.79083
G1 X147.236 Y100.374 E34.82813
G1 X147.939 Y100.116 E34.86549
G1 X148.664 Y99.934 E34.90279
G1 X149.405 Y99.831 E34.94011
G1 X150.153 Y99.808 E34.97745
G1 X150.899 Y99.864 E35.01477
G1 X151.634 Y100 E35.05206
G1 X152.351 Y100.213 E35.08938
G1 X153.042 Y100.502 E35.12675
G1 X153.697 Y100.862 E35.16403
G1 X154.31 Y101.291 E35.20136
G1 X154.874 Y101.783 E35.2387
G1 X155.382 Y102.331 E35.27598
G1 X155.829 Y102.931 E35.31331
G1 X156.061 Y103.305 E35.33527
G1 X160.523 Y111.03 E35.78034
G1 X205.402 Y188.764 E40.25844
G1 X205.968 Y189.743 E40.31486
G1 X206.307 Y190.41 E40.35219
G1 X206.574 Y191.109 E40.38952
G1 X206.764 Y191.833 E40.42686
G1 X206.875 Y192.572 E40.46414
G1 X206.908 Y193.32 E40.5015
G1 X206.86 Y194.066 E40.53879
G1 X206.733 Y194.803 E40.5761
G1 X206.528 Y195.523 E40.61345
G1 X206.247 Y196.216 E40.65076
G1 X205.894 Y196.876 E40.6881
G1 X205.473 Y197.494 E40.72541
G1 X204.988 Y198.063 E40.76271
G1 X204.445 Y198.578 E40.80005
G1 X203.85 Y199.032 E40.83738
G1 X203.21 Y199.419 E40.8747
G1 X202.532 Y199.736 E40.91204
G1 X201.825 Y199.979 E40.94934
G1 X201.096 Y200.146 E40.98665
G1 X200.353 Y200.233 E41.02397
G1 X199.908 Y200.247 E41.04618
G1 X101.23 Y200.247 E45.96925
G1 X100.097 Y200.248 E46.02577
G1 X99.35 Y200.209 E46.06309
G1 X98.612 Y200.09 E46.10039
G1 X97.89 Y199.893 E46.13772
G1 X97.193 Y199.62 E46.17507
G1 X96.53 Y199.275 E46.21236
G1 X95.907 Y198.86 E46.2497
G1 X95.332 Y198.382 E46.28701
G1 X94.812 Y197.844 E46.32434
G1 X94.351 Y197.255 E46.36165
G1 X93.956 Y196.619 E46.399
G1 X93.632 Y195.945 E46.43631
G1 X93.381 Y195.241 E46.4736
G1 X93.206 Y194.513 E46.51096
G1 X93.111 Y193.771 E46.54828
G1 X93.095 Y193.023 E46.5856
G1 X93.159 Y192.278 E46.62291
G1 X93.302 Y191.544 E46.66022
G1 X93.522 Y190.829 E46.69754
G1 X93.818 Y190.142 E46.73486
G1 X94.552 Y188.843 E46.8093
G1 X139.469 Y111.045 E51.29111
G1 X143.937 Y103.306 E51.73694
G1 X144.345 Y102.679 E51.77426
G0 F3600 X144.68 Y102.898
G1 F1800 X145.142 Y102.337 E51.81052
G1 X145.663 Y101.83 E51.84679
G1 X146.236 Y101.384 E51.88301
G1 X146.854 Y101.003 E51.91923
G1 X147.511 Y100.693 E51.95548
G1 X148.198 Y100.457 E51.99172
G1 X148.906 Y100.297 E52.02793
G1 X149.628 Y100.216 E52.06418
G1 X150.355 Y100.216 E52.10045
G1 X151.077 Y100.295 E52.13668
G1 X151.786 Y100.452 E52.17291
G1 X152.473 Y100.687 E52.20914
G1 X153.13 Y100.996 E52.24536
G1 X153.75 Y101.375 E52.28161
G1 X154.324 Y101.821 E52.31788
G1 X154.846 Y102.326 E52.35411
G1 X155.309 Y102.886 E52.39036
G1 X155.714 Y103.505 E52.42727
G1 X160.176 Y111.23 E52.87234
G1 X205.056 Y188.965 E57.35051
G1 X205.622 Y189.944 E57.40693
G1 X205.95 Y190.591 E57.44312
G1 X206.205 Y191.272 E57.4794
G1 X206.384 Y191.976 E57.51564
G1 X206.485 Y192.695 E57.55186
G1 X206.506 Y193.421 E57.58809
G1 X206.447 Y194.145 E57.62433
G1 X206.308 Y194.858 E57.66058
G1 X206.093 Y195.552 E57.69682
G1 X205.802 Y196.217 E57.73304
G1 X205.44 Y196.847 E57.76929
G1 X205.011 Y197.433 E57.80552
G1 X204.52 Y197.968 E57.84175
G1 X203.973 Y198.447 E57.87802
G1 X203.377 Y198.862 E57.91426
G1 X202.739 Y199.209 E57.95049
G1 X202.067 Y199.484 E57.98671
G1 X201.368 Y199.683 E58.02297
G1 X200.652 Y199.805 E58.05921
G1 X199.908 Y199.847 E58.09639
G1 X101.23 Y199.847 E63.01945
G1 X100.097 Y199.848 E63.07598
G1 X99.372 Y199.809 E63.1122
G1 X98.655 Y199.69 E63.14846
G1 X97.956 Y199.493 E63.18469
G1 X97.282 Y199.221 E63.22095
G1 X96.643 Y198.876 E63.25718
G1 X96.046 Y198.463 E63.2934
G1 X95.497 Y197.987 E63.32965
G1 X95.004 Y197.453 E63.36591
G1 X94.573 Y196.869 E63.40212
G1 X94.208 Y196.24 E63.4384
G1 X93.915 Y195.576 E63.47461
G1 X93.697 Y194.883 E63.51086
G1 X93.556 Y194.171 E63.54707
G1 X93.494 Y193.447 E63.58332
G1 X93.512 Y192.721 E63.61955
G1 X93.61 Y192.001 E63.6558
G1 X93.786 Y191.296 E63.69206
G1 X94.039 Y190.615 E63.7283
G1 X94.377 Y189.944 E63.76578
G1 X94.898 Y189.043 E63.81771
G1 X139.815 Y111.245 E68.29952
G1 X144.283 Y103.506 E68.74535
G1 X144.68 Y102.898 E68.78158
G0 F3600 X145.016 Y103.117
G1 F1800 X145.466 Y102.576 E68.81668
G1 X145.975 Y102.09 E68.8518
G1 X146.535 Y101.664 E68.8869
G1 X147.141 Y101.304 E68.92206
G1 X147.783 Y101.016 E68.95717
G1 X148.453 Y100.802 E68.99226
G1 X149.144 Y100.665 E69.0274
G1 X149.846 Y100.608 E69.06254
G1 X150.549 Y100.63 E69.09763
G1 X151.246 Y100.733 E69.13278
G1 X151.926 Y100.913 E69.16788
G1 X152.582 Y101.17 E69.20303
G1 X153.204 Y101.499 E69.23813
G1 X153.785 Y101.896 E69.27324
G1 X154.317 Y102.357 E69.30836
G1 X154.794 Y102.875 E69.34349
G1 X155.368 Y103.705 E69.39384
G1 X159.83 Y111.43 E69.83891
G1 X204.709 Y189.165 E74.31705
G1 X205.276 Y190.144 E74.3735
G1 X205.593 Y190.772 E74.40859
G1 X205.837 Y191.433 E74.44375
G1 X206.004 Y192.116 E74.47882
G1 X206.093 Y192.815 E74.51398
G1 X206.102 Y193.519 E74.54911
G1 X206.031 Y194.219 E74.58421
G1 X205.882 Y194.907 E74.61933
G1 X205.655 Y195.574 E74.65448
G1 X205.354 Y196.21 E74.68958
G1 X204.983 Y196.808 E74.72469
G1 X204.547 Y197.361 E74.75983
G1 X204.05 Y197.86 E74.79496
G1 X203.501 Y198.3 E74.83006
G1 X202.905 Y198.675 E74.86519
G1 X202.27 Y198.979 E74.90032
G1 X201.605 Y199.21 E74.93544
G1 X200.918 Y199.364 E74.97056
G1 X199.908 Y199.447 E75.02112
G1 X101.229 Y199.447 E79.94424
G1 X100.096 Y199.448 E80.00076
G1 X99.394 Y199.409 E80.03584
G1 X98.7 Y199.29 E80.07097
G1 X98.024 Y199.093 E80.1061
G1 X97.374 Y198.821 E80.14125
G1 X96.76 Y198.477 E80.17637
G1 X96.189 Y198.066 E80.21146
G1 X95.668 Y197.593 E80.24657
G1 X95.204 Y197.063 E80.28171
G1 X94.803 Y196.484 E80.31685
G1 X94.47 Y195.864 E80.35196
G1 X94.21 Y195.21 E80.38708
G1 X94.025 Y194.531 E80.42219
G1 X93.919 Y193.835 E80.45731
G1 X93.892 Y193.131 E80.49246
G1 X93.945 Y192.429 E80.52758
G1 X94.078 Y191.738 E80.56269
G1 X94.288 Y191.066 E80.59781
G1 X94.724 Y190.144 E80.6487
G1 X95.245 Y189.243 E80.70062
G1 X140.162 Y111.445 E85.18243
G1 X144.63 Y103.706 E85.62826
G1 X145.016 Y103.117 E85.6634
G0 F3600 X145.351 Y103.337
G1 F1800 X145.789 Y102.816 E85.69735
G1 X146.286 Y102.351 E85.73131
G1 X146.833 Y101.946 E85.76526
G1 X147.425 Y101.609 E85.79925
G1 X148.051 Y101.343 E85.83318
G1 X148.705 Y101.152 E85.86718
G1 X149.377 Y101.039 E85.90117
G1 X150.057 Y101.006 E85.93514
G1 X150.736 Y101.053 E85.96909
G1 X151.405 Y101.179 E86.00306
G1 X152.055 Y101.383 E86.03705
G1 X152.676 Y101.661 E86.07099
G1 X153.261 Y102.01 E86.10498
G1 X153.8 Y102.425 E86.13891
G1 X154.288 Y102.901 E86.17292
G1 X154.716 Y103.431 E86.20691
G1 X155.021 Y103.905 E86.23503
G1 X159.483 Y111.63 E86.6801
G1 X204.363 Y189.365 E91.15827
G1 X204.929 Y190.344 E91.21469
G1 X205.235 Y190.952 E91.24865
G1 X205.467 Y191.593 E91.28266
G1 X205.623 Y192.255 E91.31659
G1 X205.699 Y192.932 E91.35058
G1 X205.696 Y193.613 E91.38455
G1 X205.614 Y194.289 E91.41853
G1 X205.452 Y194.95 E91.45248
G1 X205.215 Y195.588 E91.48644
G1 X204.904 Y196.194 E91.52042
G1 X204.524 Y196.759 E91.55439
G1 X204.08 Y197.276 E91.58839
G1 X203.58 Y197.737 E91.62232
G1 X203.028 Y198.136 E91.6563
G1 X202.434 Y198.468 E91.69025
G1 X201.804 Y198.728 E91.72425
G1 X201.149 Y198.913 E91.75821
G1 X200.476 Y199.019 E91.7922
G1 X199.908 Y199.047 E91.82057
G1 X101.229 Y199.047 E96.74368
G1 X100.096 Y199.048 E96.80021
G1 X99.416 Y199.009 E96.83419
G1 X98.746 Y198.89 E96.86814
G1 X98.094 Y198.693 E96.90212
G1 X97.47 Y198.422 E96.93606
G1 X96.881 Y198.079 E96.97007
G1 X96.337 Y197.67 E97.00402
G1 X95.845 Y197.199 E97.038
G1 X95.411 Y196.674 E97.07199
G1 X95.042 Y196.102 E97.10595
G1 X94.742 Y195.491 E97.1399
G1 X94.516 Y194.849 E97.17386
G1 X94.367 Y194.184 E97.20786
G1 X94.297 Y193.507 E97.24182
G1 X94.306 Y192.826 E97.27579
G1 X94.396 Y192.151 E97.30977
G1 X94.563 Y191.491 E97.34373
G1 X94.807 Y190.856 E97.37767
G1 X95.07 Y190.345 E97.40634
G1 X95.591 Y189.444 E97.45827
G1 X140.508 Y111.645 E101.94013
G1 X144.976 Y103.906 E102.38595
G1 X145.351 Y103.337 E102.41995
G0 F3600 X145.685 Y103.558
G1 F1800 X146.111 Y103.058 E102.45272
G1 X146.595 Y102.614 E102.48549
G1 X147.129 Y102.232 E102.51825
G1 X147.706 Y101.917 E102.55104
G1 X148.317 Y101.675 E102.58383
G1 X148.952 Y101.508 E102.61659
G1 X149.603 Y101.421 E102.64936
G1 X150.26 Y101.412 E102.68214
G1 X150.913 Y101.484 E102.71491
G1 X151.553 Y101.634 E102.74771
G1 X152.169 Y101.861 E102.78046
G1 X152.754 Y102.162 E102.81328
G1 X153.297 Y102.53 E102.84601
G1 X153.792 Y102.963 E102.87882
G1 X154.231 Y103.452 E102.9116
G1 X154.675 Y104.105 E102.951
G1 X159.137 Y111.83 E103.39607
G1 X204.017 Y189.565 E107.87424
G1 X204.583 Y190.544 E107.93066
G1 X204.877 Y191.132 E107.96346
G1 X205.097 Y191.751 E107.99623
G1 X205.24 Y192.392 E108.029
G1 X205.304 Y193.046 E108.06178
G1 X205.289 Y193.703 E108.09457
G1 X205.194 Y194.353 E108.12734
G1 X205.02 Y194.986 E108.16009
G1 X204.771 Y195.594 E108.19287
G1 X204.45 Y196.167 E108.22564
G1 X204.062 Y196.697 E108.25841
G1 X203.612 Y197.176 E108.2912
G1 X203.108 Y197.597 E108.32396
G1 X202.556 Y197.953 E108.35673
G1 X201.965 Y198.24 E108.38951
G1 X201.343 Y198.453 E108.42231
G1 X200.7 Y198.589 E108.4551
G1 X199.908 Y198.647 E108.49472
G1 X101.229 Y198.647 E113.41783
G1 X100.096 Y198.648 E113.47436
G1 X99.44 Y198.609 E113.50714
G1 X98.794 Y198.49 E113.53992
G1 X98.167 Y198.294 E113.57269
G1 X97.568 Y198.023 E113.60549
G1 X97.007 Y197.681 E113.63827
G1 X96.492 Y197.274 E113.67102
G1 X96.03 Y196.807 E113.70379
G1 X95.627 Y196.287 E113.73661
G1 X95.291 Y195.723 E113.76937
G1 X95.026 Y195.122 E113.80213
G1 X94.836 Y194.493 E113.83492
G1 X94.724 Y193.845 E113.86772
G1 X94.691 Y193.189 E113.90049
G1 X94.738 Y192.534 E113.93326
G1 X94.865 Y191.889 E113.96605
G1 X95.068 Y191.265 E113.99879
G1 X95.416 Y190.545 E114.03869
G1 X95.937 Y189.644 E114.09061
G1 X140.854 Y111.845 E118.57247
G1 X145.322 Y104.106 E119.0183
G1 X145.685 Y103.558 E119.05109
G0 F3600 X146.019 Y103.78
G1 F1800 X146.433 Y103.302 E119.08264
G1 X146.903 Y102.88 E119.11415
G1 X147.423 Y102.52 E119.14571
G1 X147.985 Y102.23 E119.17726
G1 X148.578 Y102.012 E119.20878
G1 X149.194 Y101.871 E119.2403
G1 X149.824 Y101.809 E119.27189
G1 X150.455 Y101.827 E119.30338
G1 X151.08 Y101.924 E119.33494
G1 X151.687 Y102.1 E119.36647
G1 X152.268 Y102.35 E119.39802
G1 X152.812 Y102.672 E119.42956
G1 X153.311 Y103.06 E119.4611
G1 X153.757 Y103.508 E119.49263
G1 X154.143 Y104.008 E119.52415
G1 X158.791 Y112.03 E119.98669
G1 X203.671 Y189.765 E124.46486
G1 X204.237 Y190.744 E124.52128
G1 X204.518 Y191.311 E124.55285
G1 X204.725 Y191.908 E124.58437
G1 X204.856 Y192.526 E124.61589
G1 X204.907 Y193.156 E124.64743
G1 X204.879 Y193.788 E124.67899
G1 X204.771 Y194.411 E124.71053
G1 X204.585 Y195.015 E124.74206
G1 X204.325 Y195.591 E124.77359
G1 X203.994 Y196.129 E124.80511
G1 X203.597 Y196.622 E124.83668
G1 X203.142 Y197.06 E124.86819
G1 X202.635 Y197.438 E124.89974
G1 X202.084 Y197.749 E124.93131
G1 X201.499 Y197.987 E124.96282
G1 X200.888 Y198.15 E124.99437
G1 X200.262 Y198.234 E125.02588
G1 X199.908 Y198.247 E125.04355
G1 X101.228 Y198.247 E129.96672
G1 X100.095 Y198.248 E130.02324
G1 X99.465 Y198.209 E130.05473
G1 X98.844 Y198.09 E130.08628
G1 X98.243 Y197.894 E130.11782
G1 X97.671 Y197.623 E130.1494
G1 X97.138 Y197.283 E130.18094
G1 X96.653 Y196.878 E130.21246
G1 X96.222 Y196.416 E130.24398
G1 X95.854 Y195.902 E130.27552
G1 X95.553 Y195.346 E130.30706
G1 X95.324 Y194.757 E130.33859
