;FLAVOR:Marlin
;TIME:3706
;Filament used: 2.55803m
;Layer height: 0.15
;MINX:122.2
;MINY:137.2
;MINZ:0.3
;MAXX:177.8
;MAXY:162.8
;MAXZ:62.1
;POSTPROCESSED
;Generated with Cura_SteamEngine 4.6.1
M140 S60
M105
M190 S60
M104 S200
M105
M109 S200
M82 ;absolute extrusion mode
G28 ;Home
G1 Z15.0 F6000 ;Move the platform down 15mm
;Prime the extruder
G92 E0
G1 F200 E3
G92 E0
G92 E0
G92 E0
G1 F1500 E-6.5
;LAYER_COUNT:413
;BEFORE_LAYER_CHANGE
G92 E0.0
;[layer_z]
{if layer_z == 0.8}M104 S220{endif};
{if layer_z == 7.8}M104 S215{endif};
{if layer_z == 14.6}M104 S210{endif};
{if layer_z == 21.40}M104 S205{endif};
{if layer_z == 28.0}M104 S200{endif};
{if layer_z == 34.8}M104 S195{endif};
{if layer_z == 41.4}M104 S190{endif};
{if layer_z == 48.2}M104 S185{endif};
{if layer_z == 55.0}M104 S180{endif};
;LAYER:0
M107
G0 F3600 X124.623 Y139.349 Z0.3
;TYPE:SKIRT
G1 F1500 E0
G1 F1800 X125.222 Y138.834 E0.03941
G1 X125.87 Y138.383 E0.0788
G1 X126.561 Y137.999 E0.11824
G1 X127.286 Y137.687 E0.15762
G1 X128.039 Y137.45 E0.197
G1 X128.813 Y137.291 E0.23642
G1 X129.598 Y137.21 E0.27579
G1 X170 Y137.2 E2.29146
G1 X170.789 Y137.24 E2.33087
G1 X171.569 Y137.359 E2.37024
G1 X172.334 Y137.557 E2.40966
G1 X173.074 Y137.831 E2.44903
G1 X173.783 Y138.179 E2.48843
G1 X174.454 Y138.597 E2.52787
G1 X175.078 Y139.08 E2.56724
G1 X175.651 Y139.623 E2.60662
G1 X176.166 Y140.222 E2.64603
G1 X176.617 Y140.87 E2.68542
G1 X177.001 Y141.561 E2.72486
G1 X177.313 Y142.286 E2.76424
G1 X177.55 Y143.039 E2.80362
G1 X177.709 Y143.813 E2.84305
G1 X177.79 Y144.598 E2.88242
G1 X177.8 Y155 E3.40138
G1 X177.76 Y155.789 E3.44079
G1 X177.641 Y156.569 E3.48015
G1 X177.443 Y157.334 E3.51958
G1 X177.169 Y158.074 E3.55895
G1 X176.821 Y158.783 E3.59835
G1 X176.403 Y159.454 E3.63779
G1 X175.92 Y160.078 E3.67716
G1 X175.377 Y160.651 E3.71654
G1 X174.778 Y161.166 E3.75595
G1 X174.13 Y161.617 E3.79534
G1 X173.439 Y162.001 E3.83478
G1 X172.714 Y162.313 E3.87416
G1 X171.961 Y162.55 E3.91354
G1 X171.187 Y162.709 E3.95296
G1 X170.402 Y162.79 E3.99234
G1 X130 Y162.8 E6.008
G1 X129.211 Y162.76 E6.04741
G1 X128.431 Y162.641 E6.08678
G1 X127.666 Y162.443 E6.1262
G1 X126.926 Y162.169 E6.16557
G1 X126.217 Y161.821 E6.20497
G1 X125.546 Y161.403 E6.24441
G1 X124.922 Y160.92 E6.28378
G1 X124.349 Y160.377 E6.32317
G1 X123.834 Y159.778 E6.36258
G1 X123.383 Y159.13 E6.40197
G1 X122.999 Y158.439 E6.4414
G1 X122.687 Y157.714 E6.48078
G1 X122.45 Y156.961 E6.52017
G1 X122.291 Y156.187 E6.55959
G1 X122.21 Y155.402 E6.59896
G1 X122.2 Y145 E7.11792
G1 X122.24 Y144.211 E7.15733
G1 X122.359 Y143.431 E7.1967
G1 X122.557 Y142.666 E7.23612
G1 X122.831 Y141.926 E7.27549
G1 X123.179 Y141.217 E7.31489
G1 X123.597 Y140.546 E7.35433
G1 X124.08 Y139.922 E7.3937
G1 X124.623 Y139.349 E7.43308
G0 F3600 X125.016 Y139.53
G1 F1800 X125.611 Y139.042 E7.47148
G1 X126.253 Y138.619 E7.50983
G1 X126.936 Y138.264 E7.54824
G1 X127.651 Y137.983 E7.58656
G1 X128.393 Y137.777 E7.62498
G1 X129.151 Y137.649 E7.66333
G1 X130 Y137.6 E7.70576
G1 X170 Y137.6 E9.70137
G1 X170.768 Y137.64 E9.73974
G1 X171.528 Y137.759 E9.77812
G1 X172.271 Y137.957 E9.81648
G1 X172.99 Y138.231 E9.85487
G1 X173.676 Y138.578 E9.89322
G1 X174.323 Y138.994 E9.93159
G1 X174.923 Y139.475 E9.96996
G1 X175.47 Y140.016 E10.00834
G1 X175.958 Y140.611 E10.04673
G1 X176.381 Y141.253 E10.08509
G1 X176.736 Y141.936 E10.12349
G1 X177.017 Y142.651 E10.16182
G1 X177.223 Y143.393 E10.20024
G1 X177.351 Y144.151 E10.23859
G1 X177.4 Y145 E10.28102
G1 X177.4 Y155 E10.77992
G1 X177.36 Y155.768 E10.81829
G1 X177.241 Y156.528 E10.85667
G1 X177.043 Y157.271 E10.89503
G1 X176.769 Y157.99 E10.93342
G1 X176.422 Y158.676 E10.97177
G1 X176.006 Y159.323 E11.01015
G1 X175.525 Y159.923 E11.04851
G1 X174.984 Y160.47 E11.0869
G1 X174.389 Y160.958 E11.12529
G1 X173.747 Y161.381 E11.16364
G1 X173.064 Y161.736 E11.20205
G1 X172.349 Y162.017 E11.24037
G1 X171.607 Y162.223 E11.27879
G1 X170.849 Y162.351 E11.31715
G1 X170 Y162.4 E11.35957
G1 X130 Y162.4 E13.35518
G1 X129.232 Y162.36 E13.39355
G1 X128.472 Y162.241 E13.43193
G1 X127.729 Y162.043 E13.47029
G1 X127.01 Y161.769 E13.50868
G1 X126.324 Y161.422 E13.54703
G1 X125.677 Y161.006 E13.58541
G1 X125.077 Y160.525 E13.62377
G1 X124.53 Y159.984 E13.66215
G1 X124.042 Y159.389 E13.70055
G1 X123.619 Y158.747 E13.7389
G1 X123.264 Y158.064 E13.77731
G1 X122.983 Y157.349 E13.81563
G1 X122.777 Y156.607 E13.85405
G1 X122.649 Y155.849 E13.8924
G1 X122.6 Y155 E13.93483
G1 X122.6 Y145 E14.43373
G1 X122.64 Y144.232 E14.4721
G1 X122.759 Y143.472 E14.51048
G1 X122.957 Y142.729 E14.54884
G1 X123.231 Y142.01 E14.58723
G1 X123.578 Y141.324 E14.62558
G1 X123.994 Y140.677 E14.66396
G1 X124.475 Y140.077 E14.70232
G1 X125.016 Y139.53 E14.74071
G0 F3600 X125.408 Y139.716
G1 F1800 X125.998 Y139.257 E14.778
G1 X126.634 Y138.862 E14.81535
G1 X127.308 Y138.538 E14.85266
G1 X128.013 Y138.288 E14.88998
G1 X128.741 Y138.114 E14.92732
G1 X129.483 Y138.019 E14.96464
G1 X130 Y138 E14.99045
G1 X170 Y138 E16.98606
G1 X170.747 Y138.04 E17.02338
G1 X171.485 Y138.159 E17.06068
G1 X172.207 Y138.357 E17.09803
G1 X172.903 Y138.63 E17.13533
G1 X173.566 Y138.977 E17.17266
G1 X174.189 Y139.392 E17.21001
G1 X174.763 Y139.871 E17.24731
G1 X175.284 Y140.408 E17.28463
G1 X175.743 Y140.998 E17.32193
G1 X176.138 Y141.634 E17.35928
G1 X176.462 Y142.308 E17.39659
G1 X176.712 Y143.013 E17.43391
G1 X176.886 Y143.741 E17.47125
G1 X176.981 Y144.483 E17.50857
G1 X177 Y145 E17.53438
G1 X177 Y155 E18.03328
G1 X176.96 Y155.747 E18.07061
G1 X176.841 Y156.485 E18.1079
G1 X176.643 Y157.207 E18.14525
G1 X176.37 Y157.903 E18.18255
G1 X176.023 Y158.566 E18.21988
G1 X175.608 Y159.189 E18.25723
G1 X175.129 Y159.763 E18.29453
G1 X174.592 Y160.284 E18.33186
G1 X174.002 Y160.743 E18.36915
G1 X173.366 Y161.138 E18.4065
G1 X172.692 Y161.462 E18.44381
G1 X171.987 Y161.712 E18.48113
G1 X171.259 Y161.886 E18.51847
G1 X170.517 Y161.981 E18.55579
G1 X170 Y162 E18.5816
G1 X130 Y162 E20.57721
G1 X129.253 Y161.96 E20.61453
G1 X128.515 Y161.841 E20.65183
G1 X127.793 Y161.643 E20.68918
G1 X127.097 Y161.37 E20.72648
G1 X126.434 Y161.023 E20.76381
G1 X125.811 Y160.608 E20.80116
G1 X125.237 Y160.129 E20.83846
G1 X124.716 Y159.592 E20.87579
G1 X124.257 Y159.002 E20.91308
G1 X123.862 Y158.366 E20.95043
G1 X123.538 Y157.692 E20.98774
G1 X123.288 Y156.987 E21.02506
G1 X123.114 Y156.259 E21.0624
G1 X123.019 Y155.517 E21.09972
G1 X123 Y155 E21.12553
G1 X123 Y145 E21.62444
G1 X123.04 Y144.253 E21.66176
G1 X123.159 Y143.515 E21.69905
G1 X123.357 Y142.793 E21.7364
G1 X123.63 Y142.097 E21.7737
G1 X123.977 Y141.434 E21.81103
G1 X124.392 Y140.811 E21.84838
G1 X124.871 Y140.237 E21.88568
G1 X125.408 Y139.716 E21.92301
G0 F3600 X125.265 Y140.402
G1 F1800 X125.799 Y139.909 E21.95927
G1 X126.384 Y139.479 E21.99549
G1 X127.013 Y139.115 E22.03174
G1 X127.678 Y138.822 E22.068
G1 X128.371 Y138.604 E22.10424
G1 X129.083 Y138.464 E22.14045
G1 X130 Y138.4 E22.18631
G1 X170 Y138.4 E24.18191
G1 X170.725 Y138.44 E24.21814
G1 X171.442 Y138.559 E24.2544
G1 X172.141 Y138.757 E24.29065
G1 X172.814 Y139.03 E24.32688
G1 X173.453 Y139.375 E24.36311
G1 X174.05 Y139.789 E24.39935
G1 X174.598 Y140.265 E24.43557
G1 X175.091 Y140.799 E24.47183
G1 X175.521 Y141.384 E24.50805
G1 X175.885 Y142.013 E24.54431
G1 X176.178 Y142.678 E24.58056
G1 X176.396 Y143.371 E24.6168
G1 X176.536 Y144.083 E24.65301
G1 X176.6 Y145 E24.69887
G1 X176.6 Y155 E25.19777
G1 X176.56 Y155.725 E25.23399
G1 X176.441 Y156.442 E25.27025
G1 X176.243 Y157.141 E25.3065
G1 X175.97 Y157.814 E25.34273
G1 X175.625 Y158.453 E25.37896
G1 X175.211 Y159.05 E25.41521
G1 X174.735 Y159.598 E25.45142
G1 X174.201 Y160.091 E25.48768
G1 X173.616 Y160.521 E25.5239
G1 X172.987 Y160.885 E25.56016
G1 X172.322 Y161.178 E25.59641
G1 X171.629 Y161.396 E25.63266
G1 X170.917 Y161.536 E25.66886
G1 X170 Y161.6 E25.71472
G1 X130 Y161.6 E27.71033
G1 X129.275 Y161.56 E27.74655
G1 X128.558 Y161.441 E27.78282
G1 X127.859 Y161.243 E27.81906
G1 X127.186 Y160.97 E27.85529
G1 X126.547 Y160.625 E27.89152
G1 X125.95 Y160.211 E27.92777
G1 X125.402 Y159.735 E27.96398
G1 X124.909 Y159.201 E28.00024
G1 X124.479 Y158.616 E28.03646
G1 X124.115 Y157.987 E28.07272
G1 X123.822 Y157.322 E28.10897
G1 X123.604 Y156.629 E28.14522
G1 X123.464 Y155.917 E28.18142
G1 X123.4 Y155 E28.22728
G1 X123.4 Y145 E28.72618
G1 X123.44 Y144.275 E28.76241
G1 X123.559 Y143.558 E28.79867
G1 X123.757 Y142.859 E28.83491
G1 X124.03 Y142.186 E28.87115
G1 X124.375 Y141.547 E28.90738
G1 X124.789 Y140.95 E28.94362
G1 X125.265 Y140.402 E28.97984
G0 F3600 X125.659 Y140.573
G1 F1800 X126.189 Y140.109 E29.01498
G1 X126.768 Y139.709 E29.05009
G1 X127.389 Y139.377 E29.08522
G1 X128.043 Y139.117 E29.12033
G1 X128.723 Y138.933 E29.15548
G1 X129.419 Y138.827 E29.1906
G1 X130 Y138.8 E29.21962
G1 X170 Y138.8 E31.21523
G1 X170.703 Y138.84 E31.25036
G1 X171.397 Y138.959 E31.28549
G1 X172.072 Y139.157 E31.32058
G1 X172.721 Y139.429 E31.35569
G1 X173.335 Y139.774 E31.39083
G1 X173.906 Y140.185 E31.42593
G1 X174.427 Y140.659 E31.46107
G1 X174.891 Y141.189 E31.49621
G1 X175.291 Y141.768 E31.53132
G1 X175.623 Y142.389 E31.56645
G1 X175.883 Y143.043 E31.60156
G1 X176.067 Y143.723 E31.63671
G1 X176.173 Y144.419 E31.67183
G1 X176.2 Y145 E31.70085
G1 X176.2 Y155 E32.19975
G1 X176.16 Y155.703 E32.23488
G1 X176.041 Y156.397 E32.27001
G1 X175.843 Y157.072 E32.3051
G1 X175.571 Y157.721 E32.34021
G1 X175.226 Y158.335 E32.37535
G1 X174.815 Y158.906 E32.41045
G1 X174.341 Y159.427 E32.44559
G1 X173.811 Y159.891 E32.48073
G1 X173.232 Y160.291 E32.51584
G1 X172.611 Y160.623 E32.55097
G1 X171.957 Y160.883 E32.58609
G1 X171.277 Y161.067 E32.62123
G1 X170.581 Y161.173 E32.65635
G1 X170 Y161.2 E32.68537
G1 X130 Y161.2 E34.68098
G1 X129.297 Y161.16 E34.71611
G1 X128.603 Y161.041 E34.75124
G1 X127.928 Y160.843 E34.78633
G1 X127.279 Y160.571 E34.82144
G1 X126.665 Y160.226 E34.85658
G1 X126.094 Y159.815 E34.89168
G1 X125.573 Y159.341 E34.92682
G1 X125.109 Y158.811 E34.96196
G1 X124.709 Y158.232 E34.99707
G1 X124.377 Y157.611 E35.0322
G1 X124.117 Y156.957 E35.06731
G1 X123.933 Y156.277 E35.10246
G1 X123.827 Y155.581 E35.13758
G1 X123.8 Y155 E35.1666
G1 X123.8 Y145 E35.6655
G1 X123.84 Y144.297 E35.70063
G1 X123.959 Y143.603 E35.73576
G1 X124.157 Y142.928 E35.77086
G1 X124.429 Y142.279 E35.80596
G1 X124.774 Y141.665 E35.8411
G1 X125.185 Y141.094 E35.8762
G1 X125.659 Y140.573 E35.91134
G0 F3600 X126.053 Y140.751
G1 F1800 X126.578 Y140.317 E35.94532
G1 X127.15 Y139.948 E35.97928
G1 X127.762 Y139.649 E36.01327
G1 X128.404 Y139.424 E36.04721
G1 X129.069 Y139.275 E36.08121
G1 X130 Y139.2 E36.1278
G1 X170 Y139.2 E38.12341
G1 X170.68 Y139.24 E38.1574
G1 X171.35 Y139.359 E38.19135
G1 X172.002 Y139.556 E38.22533
G1 X172.626 Y139.828 E38.25929
G1 X173.214 Y140.172 E38.29327
G1 X173.758 Y140.582 E38.32726
G1 X174.249 Y141.053 E38.3612
G1 X174.683 Y141.578 E38.39519
G1 X175.052 Y142.15 E38.42915
G1 X175.351 Y142.762 E38.46313
G1 X175.576 Y143.404 E38.49707
G1 X175.725 Y144.069 E38.53107
G1 X175.8 Y145 E38.57767
G1 X175.8 Y155 E39.07657
G1 X175.76 Y155.68 E39.11055
G1 X175.641 Y156.35 E39.1445
G1 X175.444 Y157.002 E39.17848
G1 X175.172 Y157.626 E39.21244
G1 X174.828 Y158.214 E39.24643
G1 X174.418 Y158.758 E39.28042
G1 X173.947 Y159.249 E39.31436
G1 X173.422 Y159.683 E39.34834
G1 X172.85 Y160.052 E39.3823
G1 X172.238 Y160.351 E39.41628
G1 X171.596 Y160.576 E39.45022
G1 X170.931 Y160.725 E39.48422
G1 X170 Y160.8 E39.53082
G1 X130 Y160.8 E41.52643
G1 X129.32 Y160.76 E41.56041
G1 X128.65 Y160.641 E41.59436
G1 X127.998 Y160.444 E41.62834
G1 X127.374 Y160.172 E41.66231
G1 X126.786 Y159.828 E41.69629
G1 X126.242 Y159.418 E41.73028
G1 X125.751 Y158.947 E41.76422
G1 X125.317 Y158.422 E41.79821
G1 X124.948 Y157.85 E41.83217
G1 X124.649 Y157.238 E41.86615
G1 X124.424 Y156.596 E41.90009
G1 X124.275 Y155.931 E41.93409
G1 X124.2 Y155 E41.98068
G1 X124.2 Y145 E42.47959
G1 X124.24 Y144.32 E42.51357
G1 X124.359 Y143.65 E42.54752
G1 X124.556 Y142.998 E42.5815
G1 X124.828 Y142.374 E42.61546
G1 X125.172 Y141.786 E42.64945
G1 X125.582 Y141.242 E42.68343
G1 X126.053 Y140.751 E42.71738
G0 F3600 X126.445 Y140.935
G1 F1800 X126.965 Y140.534 E42.75014
G1 X127.529 Y140.198 E42.78289
G1 X128.131 Y139.934 E42.81569
G1 X128.76 Y139.744 E42.84847
G1 X129.407 Y139.633 E42.88122
G1 X130 Y139.6 E42.91085
G1 X170 Y139.6 E44.90646
G1 X170.656 Y139.64 E44.93925
G1 X171.302 Y139.759 E44.97202
G1 X171.929 Y139.956 E45.00481
G1 X172.527 Y140.228 E45.03758
G1 X173.088 Y140.57 E45.07036
G1 X173.603 Y140.978 E45.10314
G1 X174.065 Y141.445 E45.13591
G1 X174.466 Y141.965 E45.16868
G1 X174.802 Y142.529 E45.20143
G1 X175.066 Y143.131 E45.23422
G1 X175.256 Y143.76 E45.267
G1 X175.367 Y144.407 E45.29975
G1 X175.4 Y145 E45.32939
G1 X175.4 Y155 E45.82829
G1 X175.36 Y155.656 E45.86108
G1 X175.241 Y156.302 E45.89385
G1 X175.044 Y156.929 E45.92664
G1 X174.772 Y157.527 E45.95941
G1 X174.43 Y158.088 E45.99219
G1 X174.022 Y158.603 E46.02497
G1 X173.555 Y159.065 E46.05774
G1 X173.035 Y159.466 E46.09051
G1 X172.471 Y159.802 E46.12326
G1 X171.869 Y160.066 E46.15605
G1 X171.24 Y160.256 E46.18883
G1 X170.593 Y160.367 E46.22158
G1 X170 Y160.4 E46.25122
G1 X130 Y160.4 E48.24682
G1 X129.344 Y160.36 E48.27961
G1 X128.698 Y160.241 E48.31238
G1 X128.071 Y160.044 E48.34517
G1 X127.473 Y159.772 E48.37795
G1 X126.912 Y159.43 E48.41073
G1 X126.397 Y159.022 E48.44351
G1 X125.935 Y158.555 E48.47628
G1 X125.534 Y158.035 E48.50904
G1 X125.198 Y157.471 E48.54179
G1 X124.934 Y156.869 E48.57459
G1 X124.744 Y156.24 E48.60737
G1 X124.633 Y155.593 E48.64012
G1 X124.6 Y155 E48.66975
G1 X124.6 Y145 E49.16865
G1 X124.64 Y144.344 E49.20144
G1 X124.759 Y143.698 E49.23421
G1 X124.956 Y143.071 E49.267
G1 X125.228 Y142.473 E49.29978
G1 X125.57 Y141.912 E49.33256
G1 X125.978 Y141.397 E49.36534
G1 X126.445 Y140.935 E49.39811
G0 F3600 X126.373 Y141.559
G1 F1800 X126.836 Y141.129 E49.42963
G1 X127.35 Y140.76 E49.4612
G1 X127.906 Y140.46 E49.49272
G1 X128.495 Y140.232 E49.52423
G1 X129.109 Y140.08 E49.55579
G1 X130 Y140 E49.60042
G1 X170 Y140 E51.59603
G1 X170.631 Y140.04 E51.62757
G1 X171.252 Y140.159 E51.65912
G1 X171.852 Y140.356 E51.69062
G1 X172.424 Y140.627 E51.7222
G1 X172.956 Y140.967 E51.7537
G1 X173.441 Y141.373 E51.78526
G1 X173.871 Y141.836 E51.81678
G1 X174.24 Y142.35 E51.84835
G1 X174.54 Y142.906 E51.87987
G1 X174.768 Y143.495 E51.91138
G1 X174.92 Y144.109 E51.94293
G1 X175 Y145 E51.98757
G1 X175 Y155 E52.48647
G1 X174.96 Y155.631 E52.51801
G1 X174.841 Y156.252 E52.54956
G1 X174.644 Y156.852 E52.58106
G1 X174.373 Y157.424 E52.61264
G1 X174.033 Y157.956 E52.64414
G1 X173.627 Y158.441 E52.6757
G1 X173.164 Y158.871 E52.70722
G1 X172.65 Y159.24 E52.73879
G1 X172.094 Y159.54 E52.77031
G1 X171.505 Y159.768 E52.80182
G1 X170.891 Y159.92 E52.83337
G1 X170 Y160 E52.87801
G1 X130 Y160 E54.87361
G1 X129.369 Y159.96 E54.90516
G1 X128.748 Y159.841 E54.9367
G1 X128.148 Y159.644 E54.96821
G1 X127.576 Y159.373 E54.99979
G1 X127.044 Y159.033 E55.03129
G1 X126.559 Y158.627 E55.06284
G1 X126.129 Y158.164 E55.09437
G1 X125.76 Y157.65 E55.12593
G1 X125.46 Y157.094 E55.15745
G1 X125.232 Y156.505 E55.18896
G1 X125.08 Y155.891 E55.22052
G1 X125 Y155 E55.26515
G1 X125 Y145 E55.76405
G1 X125.04 Y144.369 E55.7956
G1 X125.159 Y143.748 E55.82714
G1 X125.356 Y143.148 E55.85865
G1 X125.627 Y142.576 E55.89023
G1 X125.967 Y142.044 E55.92173
G1 X126.373 Y141.559 E55.95328
G0 F3600 X126.767 Y141.728
G1 F1800 X127.225 Y141.331 E55.98352
G1 X127.732 Y140.998 E56.01378
G1 X128.278 Y140.734 E56.04404
G1 X128.854 Y140.545 E56.07429
G1 X129.45 Y140.433 E56.10454
G1 X130 Y140.4 E56.13203
G1 X170 Y140.4 E58.12764
G1 X170.605 Y140.44 E58.15789
G1 X171.199 Y140.559 E58.18811
G1 X171.773 Y140.755 E58.21837
G1 X172.316 Y141.026 E58.24865
G1 X172.819 Y141.365 E58.27891
G1 X173.272 Y141.767 E58.30913
G1 X173.669 Y142.225 E58.33936
G1 X174.002 Y142.732 E58.36963
G1 X174.266 Y143.278 E58.39988
G1 X174.455 Y143.854 E58.43013
G1 X174.567 Y144.45 E58.46038
G1 X174.6 Y145 E58.48787
G1 X174.6 Y155 E58.98677
G1 X174.56 Y155.605 E59.01702
G1 X174.441 Y156.199 E59.04725
G1 X174.245 Y156.773 E59.07751
G1 X173.974 Y157.316 E59.10778
