;FLAVOR:Marlin
;TIME:5030
;Filament used: 4.46852m
;Layer height: 0.15
;MINX:106.208
;MINY:106.208
;MINZ:0.3
;MAXX:193.792
;MAXY:193.792
;MAXZ:6.9
;Generated with Cura_SteamEngine 4.6.1
M140 S60
M105
M190 S60
M104 S215
M105
M109 S215
M82 ;absolute extrusion mode
G28 ;Home
G1 Z15.0 F6000 ;Move the platform down 15mm
;Prime the extruder
G92 E0
G1 F200 E3
G92 E0
G92 E0
G92 E0
G1 F1200 E-2.4
;LAYER_COUNT:45
;LAYER:0
M107
G0 F3600 X115.361 Y123.324 Z0.3
;TYPE:SKIRT
G1 F1200 E0
G1 F1800 X123.324 Y115.361 E0.56183
G1 X123.91 Y114.831 E0.60125
G1 X124.546 Y114.364 E0.64062
G1 X125.298 Y113.926 E0.68403
G1 X135.334 Y108.813 E1.24597
G1 X136.055 Y108.491 E1.28536
G1 X136.805 Y108.243 E1.32477
G1 X137.654 Y108.059 E1.36811
G1 X148.779 Y106.296 E1.93007
G1 X149.564 Y106.212 E1.96946
G1 X150.354 Y106.208 E2.00887
G1 X151.221 Y106.296 E2.05235
G1 X162.346 Y108.059 E2.6143
G1 X163.119 Y108.222 E2.65371
G1 X163.871 Y108.462 E2.6931
G1 X164.666 Y108.813 E2.73645
G1 X174.702 Y113.926 E3.29839
G1 X175.386 Y114.32 E3.33777
G1 X176.028 Y114.78 E3.37717
G1 X176.676 Y115.361 E3.42059
G1 X184.639 Y123.324 E3.98242
G1 X185.169 Y123.91 E4.02184
G1 X185.636 Y124.546 E4.06121
G1 X186.074 Y125.298 E4.10462
G1 X191.187 Y135.334 E4.66656
G1 X191.509 Y136.055 E4.70595
G1 X191.757 Y136.805 E4.74536
G1 X191.941 Y137.654 E4.7887
G1 X193.704 Y148.779 E5.35066
G1 X193.788 Y149.564 E5.39005
G1 X193.792 Y150.354 E5.42946
G1 X193.704 Y151.221 E5.47294
G1 X191.941 Y162.346 E6.03489
G1 X191.778 Y163.119 E6.0743
G1 X191.538 Y163.871 E6.11369
G1 X191.187 Y164.666 E6.15704
G1 X186.074 Y174.702 E6.71898
G1 X185.68 Y175.386 E6.75836
G1 X185.22 Y176.028 E6.79776
G1 X184.639 Y176.676 E6.84118
G1 X176.676 Y184.639 E7.40301
G1 X176.09 Y185.169 E7.44243
G1 X175.454 Y185.636 E7.4818
G1 X174.702 Y186.074 E7.52521
G1 X164.666 Y191.187 E8.08715
G1 X163.945 Y191.509 E8.12654
G1 X163.195 Y191.757 E8.16595
G1 X162.346 Y191.941 E8.20929
G1 X151.221 Y193.704 E8.77125
G1 X150.436 Y193.788 E8.81064
G1 X149.646 Y193.792 E8.85005
G1 X148.779 Y193.704 E8.89353
G1 X137.654 Y191.941 E9.45548
G1 X136.881 Y191.778 E9.49489
G1 X136.129 Y191.538 E9.53428
G1 X135.334 Y191.187 E9.57763
G1 X125.298 Y186.074 E10.13957
G1 X124.614 Y185.68 E10.17895
G1 X123.972 Y185.22 E10.21835
G1 X123.324 Y184.639 E10.26177
G1 X115.361 Y176.676 E10.8236
G1 X114.831 Y176.09 E10.86302
G1 X114.364 Y175.454 E10.90239
G1 X113.926 Y174.702 E10.9458
G1 X108.813 Y164.666 E11.50774
G1 X108.491 Y163.945 E11.54713
G1 X108.243 Y163.195 E11.58654
G1 X108.059 Y162.346 E11.62988
G1 X106.296 Y151.221 E12.19184
G1 X106.212 Y150.436 E12.23123
G1 X106.208 Y149.646 E12.27064
G1 X106.296 Y148.779 E12.31412
G1 X108.059 Y137.654 E12.87607
G1 X108.222 Y136.881 E12.91548
G1 X108.462 Y136.129 E12.95487
G1 X108.813 Y135.334 E12.99822
G1 X113.926 Y125.298 E13.56016
G1 X114.32 Y124.614 E13.59954
G1 X114.78 Y123.972 E13.63894
G1 X115.361 Y123.324 E13.68236
G0 F3600 X115.643 Y123.606
G1 F1800 X123.606 Y115.643 E14.24419
G1 X124.178 Y115.129 E14.28256
G1 X124.8 Y114.676 E14.32095
G1 X125.48 Y114.282 E14.36016
G1 X135.516 Y109.169 E14.92209
G1 X136.218 Y108.856 E14.96044
G1 X136.95 Y108.618 E14.99884
G1 X137.717 Y108.454 E15.03797
G1 X148.842 Y106.691 E15.59992
G1 X149.607 Y106.61 E15.6383
G1 X150.376 Y106.61 E15.67667
G1 X151.158 Y106.691 E15.71589
G1 X162.283 Y108.454 E16.27785
G1 X163.036 Y108.614 E16.31625
G1 X163.767 Y108.851 E16.35459
G1 X164.484 Y109.169 E16.39372
G1 X174.52 Y114.282 E16.95565
G1 X175.186 Y114.667 E16.99403
G1 X175.809 Y115.118 E17.0324
G1 X176.394 Y115.643 E17.07162
G1 X184.357 Y123.606 E17.63345
G1 X184.871 Y124.178 E17.67182
G1 X185.324 Y124.8 E17.71021
G1 X185.718 Y125.48 E17.74942
G1 X190.831 Y135.516 E18.31135
G1 X191.144 Y136.218 E18.3497
G1 X191.382 Y136.95 E18.3881
G1 X191.546 Y137.717 E18.42723
G1 X193.309 Y148.842 E18.98918
G1 X193.39 Y149.607 E19.02756
G1 X193.39 Y150.376 E19.06593
G1 X193.309 Y151.158 E19.10515
G1 X191.546 Y162.283 E19.66711
G1 X191.386 Y163.036 E19.70551
G1 X191.149 Y163.767 E19.74385
G1 X190.831 Y164.484 E19.78298
G1 X185.718 Y174.52 E20.34492
G1 X185.333 Y175.186 E20.38329
G1 X184.882 Y175.809 E20.42167
G1 X184.357 Y176.394 E20.46088
G1 X176.394 Y184.357 E21.02271
G1 X175.822 Y184.871 E21.06108
G1 X175.2 Y185.324 E21.09947
G1 X174.52 Y185.718 E21.13868
G1 X164.484 Y190.831 E21.70061
G1 X163.782 Y191.144 E21.73896
G1 X163.05 Y191.382 E21.77736
G1 X162.283 Y191.546 E21.81649
G1 X151.158 Y193.309 E22.37844
G1 X150.393 Y193.39 E22.41682
G1 X149.624 Y193.39 E22.45519
G1 X148.842 Y193.309 E22.49441
G1 X137.717 Y191.546 E23.05637
G1 X136.964 Y191.386 E23.09477
G1 X136.233 Y191.149 E23.13311
G1 X135.516 Y190.831 E23.17224
G1 X125.48 Y185.718 E23.73418
G1 X124.814 Y185.333 E23.77255
G1 X124.191 Y184.882 E23.81093
G1 X123.606 Y184.357 E23.85014
G1 X115.643 Y176.394 E24.41197
G1 X115.129 Y175.822 E24.45034
G1 X114.676 Y175.2 E24.48873
G1 X114.282 Y174.52 E24.52794
G1 X109.169 Y164.484 E25.08987
G1 X108.856 Y163.782 E25.12822
G1 X108.618 Y163.05 E25.16662
G1 X108.454 Y162.283 E25.20575
G1 X106.691 Y151.158 E25.7677
G1 X106.61 Y150.393 E25.80608
G1 X106.61 Y149.624 E25.84445
G1 X106.691 Y148.842 E25.88367
G1 X108.454 Y137.717 E26.44563
G1 X108.614 Y136.964 E26.48403
G1 X108.851 Y136.233 E26.52237
G1 X109.169 Y135.516 E26.5615
G1 X114.282 Y125.48 E27.12344
G1 X114.667 Y124.814 E27.16182
G1 X115.118 Y124.191 E27.20019
G1 X115.643 Y123.606 E27.2394
G0 F3600 X115.926 Y123.889
G1 F1800 X123.889 Y115.926 E27.80123
G1 X124.446 Y115.426 E27.83858
G1 X125.052 Y114.989 E27.87585
G1 X125.661 Y114.639 E27.9109
G1 X135.697 Y109.526 E28.47283
G1 X136.381 Y109.222 E28.51017
G1 X137.093 Y108.994 E28.54747
G1 X137.779 Y108.849 E28.58245
G1 X148.904 Y107.086 E29.14441
G1 X149.648 Y107.009 E29.18172
G1 X150.396 Y107.011 E29.21904
G1 X151.096 Y107.086 E29.25416
G1 X162.221 Y108.849 E29.81612
G1 X162.952 Y109.006 E29.85342
G1 X163.663 Y109.239 E29.89075
G1 X164.303 Y109.526 E29.92574
G1 X174.339 Y114.639 E30.48767
G1 X174.986 Y115.014 E30.52498
G1 X175.59 Y115.455 E30.56229
G1 X176.111 Y115.926 E30.59733
G1 X184.074 Y123.889 E31.15917
G1 X184.574 Y124.446 E31.19651
G1 X185.011 Y125.052 E31.23378
G1 X185.361 Y125.661 E31.26883
G1 X190.474 Y135.697 E31.83076
G1 X190.778 Y136.381 E31.8681
G1 X191.006 Y137.093 E31.9054
G1 X191.151 Y137.779 E31.94038
G1 X192.914 Y148.904 E32.50234
G1 X192.991 Y149.648 E32.53965
G1 X192.989 Y150.396 E32.57697
G1 X192.914 Y151.096 E32.61209
G1 X191.151 Y162.221 E33.17405
G1 X190.994 Y162.952 E33.21135
G1 X190.761 Y163.663 E33.24868
G1 X190.474 Y164.303 E33.28367
G1 X185.361 Y174.339 E33.84561
G1 X184.986 Y174.986 E33.88291
G1 X184.545 Y175.59 E33.92023
G1 X184.074 Y176.111 E33.95527
G1 X176.111 Y184.074 E34.5171
G1 X175.554 Y184.574 E34.55444
G1 X174.948 Y185.011 E34.59171
G1 X174.339 Y185.361 E34.62676
G1 X164.303 Y190.474 E35.18869
G1 X163.619 Y190.778 E35.22603
G1 X162.907 Y191.006 E35.26333
G1 X162.221 Y191.151 E35.29831
G1 X151.096 Y192.914 E35.86027
G1 X150.352 Y192.991 E35.89759
G1 X149.604 Y192.989 E35.9349
G1 X148.904 Y192.914 E35.97003
G1 X137.779 Y191.151 E36.53198
G1 X137.048 Y190.994 E36.56928
G1 X136.337 Y190.761 E36.60661
G1 X135.697 Y190.474 E36.6416
G1 X125.661 Y185.361 E37.20354
G1 X125.014 Y184.986 E37.24085
G1 X124.41 Y184.545 E37.27816
G1 X123.889 Y184.074 E37.3132
G1 X115.926 Y176.111 E37.87503
G1 X115.426 Y175.554 E37.91237
G1 X114.989 Y174.948 E37.94965
G1 X114.639 Y174.339 E37.98469
G1 X109.526 Y164.303 E38.54662
G1 X109.222 Y163.619 E38.58397
G1 X108.994 Y162.907 E38.62127
G1 X108.849 Y162.221 E38.65625
G1 X107.086 Y151.096 E39.2182
G1 X107.009 Y150.352 E39.25552
G1 X107.011 Y149.604 E39.29284
G1 X107.086 Y148.904 E39.32796
G1 X108.849 Y137.779 E39.88991
G1 X109.006 Y137.048 E39.92721
G1 X109.239 Y136.337 E39.96454
G1 X109.526 Y135.697 E39.99954
G1 X114.639 Y125.661 E40.56147
G1 X115.014 Y125.014 E40.59878
G1 X115.455 Y124.41 E40.63609
G1 X115.926 Y123.889 E40.67113
G0 F3600 X116.209 Y124.172
G1 F1800 X124.172 Y116.209 E41.23296
G1 X124.713 Y115.725 E41.26918
G1 X125.304 Y115.302 E41.30544
G1 X125.843 Y114.995 E41.33638
G1 X135.879 Y109.882 E41.89832
G1 X136.543 Y109.589 E41.93452
G1 X137.236 Y109.37 E41.97078
G1 X137.842 Y109.244 E42.00166
G1 X148.967 Y107.481 E42.56362
G1 X149.69 Y107.407 E42.59988
G1 X150.416 Y107.413 E42.6361
G1 X151.033 Y107.481 E42.66707
G1 X162.158 Y109.244 E43.22902
G1 X162.868 Y109.397 E43.26526
G1 X163.557 Y109.627 E43.3015
G1 X164.121 Y109.882 E43.33238
G1 X174.157 Y114.995 E43.89431
G1 X174.785 Y115.36 E43.93055
G1 X175.369 Y115.792 E43.96679
G1 X175.828 Y116.209 E43.99773
G1 X183.791 Y124.172 E44.55956
G1 X184.275 Y124.713 E44.59578
G1 X184.698 Y125.304 E44.63204
G1 X185.005 Y125.843 E44.66298
G1 X190.118 Y135.879 E45.22492
G1 X190.411 Y136.543 E45.26112
G1 X190.63 Y137.236 E45.29738
G1 X190.756 Y137.842 E45.32826
G1 X192.519 Y148.967 E45.89022
G1 X192.593 Y149.69 E45.92648
G1 X192.587 Y150.416 E45.9627
G1 X192.519 Y151.033 E45.99367
G1 X190.756 Y162.158 E46.55562
G1 X190.603 Y162.868 E46.59186
G1 X190.373 Y163.557 E46.6281
G1 X190.118 Y164.121 E46.65898
G1 X185.005 Y174.157 E47.22091
G1 X184.64 Y174.785 E47.25715
G1 X184.208 Y175.369 E47.29339
G1 X183.791 Y175.828 E47.32433
G1 X175.828 Y183.791 E47.88616
G1 X175.287 Y184.275 E47.92238
G1 X174.696 Y184.698 E47.95864
G1 X174.157 Y185.005 E47.98958
G1 X164.121 Y190.118 E48.55152
G1 X163.457 Y190.411 E48.58772
G1 X162.764 Y190.63 E48.62398
G1 X162.158 Y190.756 E48.65486
G1 X151.033 Y192.519 E49.21682
G1 X150.31 Y192.593 E49.25308
G1 X149.584 Y192.587 E49.2893
G1 X148.967 Y192.519 E49.32027
G1 X137.842 Y190.756 E49.88222
G1 X137.132 Y190.603 E49.91846
G1 X136.443 Y190.373 E49.9547
G1 X135.879 Y190.118 E49.98558
G1 X125.843 Y185.005 E50.54751
G1 X125.215 Y184.64 E50.58375
G1 X124.631 Y184.208 E50.61999
G1 X124.172 Y183.791 E50.65093
G1 X116.209 Y175.828 E51.21276
G1 X115.725 Y175.287 E51.24898
G1 X115.302 Y174.696 E51.28524
G1 X114.995 Y174.157 E51.31618
G1 X109.882 Y164.121 E51.87812
G1 X109.589 Y163.457 E51.91432
G1 X109.37 Y162.764 E51.95058
G1 X109.244 Y162.158 E51.98146
G1 X107.481 Y151.033 E52.54342
G1 X107.407 Y150.31 E52.57968
G1 X107.413 Y149.584 E52.6159
G1 X107.481 Y148.967 E52.64687
G1 X109.244 Y137.842 E53.20882
G1 X109.397 Y137.132 E53.24506
G1 X109.627 Y136.443 E53.2813
G1 X109.882 Y135.879 E53.31218
G1 X114.995 Y125.843 E53.87411
G1 X115.36 Y125.215 E53.91035
G1 X115.792 Y124.631 E53.94659
G1 X116.209 Y124.172 E53.97753
G0 F3600 X116.492 Y124.455
G1 F1800 X124.455 Y116.492 E54.53936
G1 X124.98 Y116.023 E54.57448
G1 X125.555 Y115.617 E54.6096
G1 X126.025 Y115.352 E54.63652
G1 X136.061 Y110.239 E55.19845
G1 X136.705 Y109.955 E55.23357
G1 X137.377 Y109.747 E55.26866
G1 X137.905 Y109.639 E55.29555
G1 X149.03 Y107.876 E55.8575
G1 X149.73 Y107.806 E55.8926
G1 X150.434 Y107.815 E55.92773
G1 X150.97 Y107.876 E55.95464
G1 X162.095 Y109.639 E56.51659
G1 X162.783 Y109.789 E56.55173
G1 X163.45 Y110.015 E56.58686
G1 X163.939 Y110.239 E56.61369
G1 X173.975 Y115.352 E57.17563
G1 X174.584 Y115.706 E57.21077
G1 X175.148 Y116.128 E57.24591
G1 X175.545 Y116.492 E57.27279
G1 X183.508 Y124.455 E57.83462
G1 X183.977 Y124.98 E57.86974
G1 X184.383 Y125.555 E57.90486
G1 X184.648 Y126.025 E57.93178
G1 X189.761 Y136.061 E58.49371
G1 X190.045 Y136.705 E58.52882
G1 X190.253 Y137.377 E58.56392
G1 X190.361 Y137.905 E58.59081
G1 X192.124 Y149.03 E59.15276
G1 X192.194 Y149.73 E59.18786
G1 X192.185 Y150.434 E59.22298
G1 X192.124 Y150.97 E59.2499
G1 X190.361 Y162.095 E59.81185
G1 X190.211 Y162.783 E59.84698
G1 X189.985 Y163.45 E59.88212
G1 X189.761 Y163.939 E59.90895
G1 X184.648 Y173.975 E60.47089
G1 X184.294 Y174.584 E60.50603
G1 X183.872 Y175.148 E60.54117
G1 X183.508 Y175.545 E60.56804
G1 X175.545 Y183.508 E61.12988
G1 X175.02 Y183.977 E61.165
G1 X174.445 Y184.383 E61.20011
G1 X173.975 Y184.648 E61.22703
G1 X163.939 Y189.761 E61.78897
G1 X163.295 Y190.045 E61.82408
G1 X162.623 Y190.253 E61.85918
G1 X162.095 Y190.361 E61.88606
G1 X150.97 Y192.124 E62.44802
G1 X150.27 Y192.194 E62.48312
G1 X149.566 Y192.185 E62.51824
G1 X149.03 Y192.124 E62.54516
G1 X137.905 Y190.361 E63.10711
G1 X137.217 Y190.211 E63.14224
G1 X136.55 Y189.985 E63.17738
G1 X136.061 Y189.761 E63.20421
G1 X126.025 Y184.648 E63.76614
G1 X125.416 Y184.294 E63.80129
G1 X124.852 Y183.872 E63.83643
G1 X124.455 Y183.508 E63.8633
G1 X116.492 Y175.545 E64.42513
G1 X116.023 Y175.02 E64.46025
G1 X115.617 Y174.445 E64.49537
G1 X115.352 Y173.975 E64.52229
G1 X110.239 Y163.939 E65.08422
G1 X109.955 Y163.295 E65.11934
G1 X109.747 Y162.623 E65.15443
G1 X109.639 Y162.095 E65.18132
G1 X107.876 Y150.97 E65.74328
G1 X107.806 Y150.27 E65.77837
G1 X107.815 Y149.566 E65.8135
G1 X107.876 Y149.03 E65.84041
G1 X109.639 Y137.905 E66.40237
G1 X109.789 Y137.217 E66.4375
G1 X110.015 Y136.55 E66.47263
G1 X110.239 Y136.061 E66.49947
G1 X115.352 Y126.025 E67.0614
G1 X115.706 Y125.416 E67.09654
G1 X116.128 Y124.852 E67.13169
G1 X116.492 Y124.455 E67.15856
G0 F3600 X116.775 Y124.738
G1 F1800 X124.738 Y116.775 E67.72039
G1 X125.247 Y116.322 E67.75438
G1 X125.805 Y115.933 E67.78832
G1 X126.206 Y115.708 E67.81126
G1 X136.242 Y110.595 E68.37319
G1 X136.866 Y110.322 E68.40717
G1 X137.517 Y110.124 E68.44112
G1 X137.967 Y110.034 E68.46402
G1 X149.092 Y108.271 E69.02597
G1 X149.77 Y108.205 E69.05996
G1 X150.451 Y108.218 E69.09394
G1 X150.908 Y108.271 E69.11689
G1 X162.033 Y110.034 E69.67885
G1 X162.698 Y110.18 E69.71281
G1 X163.341 Y110.403 E69.74677
G1 X163.758 Y110.595 E69.76967
G1 X173.794 Y115.708 E70.3316
G1 X174.381 Y116.052 E70.36555
G1 X174.925 Y116.463 E70.39956
G1 X175.262 Y116.775 E70.42247
G1 X183.225 Y124.738 E70.98431
G1 X183.678 Y125.247 E71.0183
G1 X184.067 Y125.805 E71.05224
G1 X184.292 Y126.206 E71.07518
G1 X189.405 Y136.242 E71.63711
G1 X189.678 Y136.866 E71.67109
G1 X189.876 Y137.517 E71.70504
G1 X189.966 Y137.967 E71.72793
G1 X191.729 Y149.092 E72.28989
G1 X191.795 Y149.77 E72.32387
G1 X191.782 Y150.451 E72.35786
G1 X191.729 Y150.908 E72.38081
G1 X189.966 Y162.033 E72.94276
G1 X189.82 Y162.698 E72.97673
G1 X189.597 Y163.341 E73.01068
G1 X189.405 Y163.758 E73.03359
G1 X184.292 Y173.794 E73.59552
G1 X183.948 Y174.381 E73.62946
G1 X183.537 Y174.925 E73.66348
G1 X183.225 Y175.262 E73.68639
G1 X175.262 Y183.225 E74.24822
G1 X174.753 Y183.678 E74.28222
G1 X174.195 Y184.067 E74.31615
G1 X173.794 Y184.292 E74.33909
G1 X163.758 Y189.405 E74.90103
G1 X163.134 Y189.678 E74.93501
G1 X162.483 Y189.876 E74.96896
G1 X162.033 Y189.966 E74.99185
G1 X150.908 Y191.729 E75.55381
G1 X150.23 Y191.795 E75.58779
G1 X149.549 Y191.782 E75.62177
G1 X149.092 Y191.729 E75.64473
G1 X137.967 Y189.966 E76.20668
G1 X137.302 Y189.82 E76.24065
G1 X136.659 Y189.597 E76.2746
G1 X136.242 Y189.405 E76.2975
G1 X126.206 Y184.292 E76.85944
G1 X125.619 Y183.948 E76.89338
G1 X125.075 Y183.537 E76.9274
G1 X124.738 Y183.225 E76.95031
G1 X116.775 Y175.262 E77.51214
G1 X116.322 Y174.753 E77.54614
G1 X115.933 Y174.195 E77.58007
G1 X115.708 Y173.794 E77.60301
G1 X110.595 Y163.758 E78.16495
G1 X110.322 Y163.134 E78.19893
G1 X110.124 Y162.483 E78.23287
G1 X110.034 Y162.033 E78.25577
G1 X108.271 Y150.908 E78.81772
G1 X108.205 Y150.23 E78.85171
G1 X108.218 Y149.549 E78.88569
G1 X108.271 Y149.092 E78.90864
G1 X110.034 Y137.967 E79.4706
G1 X110.18 Y137.302 E79.50456
G1 X110.403 Y136.659 E79.53852
G1 X110.595 Y136.242 E79.56142
G1 X115.708 Y126.206 E80.12335
G1 X116.052 Y125.619 E80.1573
G1 X116.463 Y125.075 E80.19131
G1 X116.775 Y124.738 E80.21423
G0 F3600 X116.797 Y125.3
G1 F1800 X125.021 Y117.058 E80.79511
G1 X125.513 Y116.622 E80.82791
G1 X126.054 Y116.25 E80.86066
G1 X126.388 Y116.064 E80.87973
G1 X136.424 Y110.951 E81.44167
G1 X137.026 Y110.689 E81.47442
G1 X137.656 Y110.502 E81.50721
G1 X149.155 Y108.667 E82.08816
G1 X149.809 Y108.603 E82.12094
G1 X150.845 Y108.667 E82.17272
G1 X161.97 Y110.43 E82.73468
G1 X162.612 Y110.572 E82.76748
G1 X163.231 Y110.791 E82.80024
G1 X163.576 Y110.951 E82.81921
G1 X173.612 Y116.064 E83.38115
G1 X174.178 Y116.398 E83.41393
G1 X174.7 Y116.797 E83.44671
G1 X182.942 Y125.021 E84.0276
G1 X183.378 Y125.513 E84.06039
G1 X183.75 Y126.054 E84.09315
