;FLAVOR:Marlin
;TIME:7234
;Filament used: 6.18639m
;Layer height: 0.15
;MINX:97.208
;MINY:97.208
;MINZ:0.3
;MAXX:202.792
;MAXY:202.792
;MAXZ:4.95
;Generated with Cura_SteamEngine 4.6.1
M140 S60
M105
M190 S60
M104 S200
M105
M109 S200
M82 ;absolute extrusion mode
G28 ;Home
G1 Z15.0 F6000 ;Move the platform down 15mm
;Prime the extruder
G92 E0
G1 F200 E3
G92 E0
G92 E0
G92 E0
G1 F1500 E-6.5
;LAYER_COUNT:32
;LAYER:0
M107
G0 F3600 X108.08 Y118.034 Z0.3
;TYPE:SKIRT
G1 F1500 E0
G1 F1800 X118.034 Y108.08 E0.70231
G1 X118.62 Y107.55 E0.74173
G1 X119.256 Y107.083 E0.78109
G1 X119.999 Y106.65 E0.824
G1 X120.627 Y106.329 E0.85918
G1 X132.553 Y100.253 E1.52694
G1 X133.274 Y99.931 E1.56634
G1 X134.024 Y99.683 E1.60575
G1 X134.874 Y99.499 E1.64914
G1 X148.78 Y97.296 E2.35156
G1 X149.565 Y97.212 E2.39095
G1 X150.354 Y97.208 E2.43031
G1 X151.22 Y97.296 E2.47374
G1 X165.126 Y99.499 E3.17617
G1 X165.899 Y99.662 E3.21558
G1 X166.651 Y99.902 E3.25496
G1 X167.447 Y100.253 E3.29836
G1 X179.992 Y106.645 E4.0008
G1 X180.677 Y107.039 E4.04022
G1 X181.318 Y107.5 E4.07961
G1 X181.966 Y108.08 E4.123
G1 X191.92 Y118.034 E4.82531
G1 X192.45 Y118.62 E4.86473
G1 X192.917 Y119.256 E4.90409
G1 X193.35 Y119.999 E4.947
G1 X193.671 Y120.627 E4.98218
G1 X199.747 Y132.553 E5.64994
G1 X200.069 Y133.274 E5.68934
G1 X200.317 Y134.024 E5.72875
G1 X200.501 Y134.874 E5.77214
G1 X202.704 Y148.78 E6.47456
G1 X202.788 Y149.565 E6.51395
G1 X202.792 Y150.354 E6.55331
G1 X202.704 Y151.22 E6.59674
G1 X200.501 Y165.126 E7.29917
G1 X200.338 Y165.899 E7.33858
G1 X200.098 Y166.651 E7.37796
G1 X199.747 Y167.447 E7.42136
G1 X193.355 Y179.992 E8.1238
G1 X192.961 Y180.677 E8.16322
G1 X192.5 Y181.318 E8.20261
G1 X191.92 Y181.966 E8.246
G1 X181.966 Y191.92 E8.94831
G1 X181.38 Y192.45 E8.98773
G1 X180.744 Y192.917 E9.02709
G1 X180.001 Y193.35 E9.07
G1 X179.373 Y193.671 E9.10518
G1 X167.447 Y199.747 E9.77294
G1 X166.726 Y200.069 E9.81234
G1 X165.976 Y200.317 E9.85175
G1 X165.126 Y200.501 E9.89514
G1 X151.22 Y202.704 E10.59756
G1 X150.435 Y202.788 E10.63695
G1 X149.646 Y202.792 E10.67632
G1 X148.78 Y202.704 E10.71974
G1 X134.874 Y200.501 E11.42217
G1 X134.101 Y200.338 E11.46158
G1 X133.349 Y200.098 E11.50096
G1 X132.553 Y199.747 E11.54436
G1 X120.008 Y193.355 E12.2468
G1 X119.323 Y192.961 E12.28622
G1 X118.682 Y192.5 E12.32561
G1 X118.034 Y191.92 E12.369
G1 X108.08 Y181.966 E13.07131
G1 X107.55 Y181.38 E13.11073
G1 X107.083 Y180.744 E13.15009
G1 X106.645 Y179.992 E13.19351
G1 X100.253 Y167.447 E13.89595
G1 X99.931 Y166.726 E13.93534
G1 X99.683 Y165.977 E13.9747
G1 X99.499 Y165.126 E14.01814
G1 X97.296 Y151.22 E14.72057
G1 X97.212 Y150.435 E14.75995
G1 X97.208 Y149.646 E14.79932
G1 X97.296 Y148.78 E14.84274
G1 X99.499 Y134.874 E15.54517
G1 X99.662 Y134.101 E15.58458
G1 X99.902 Y133.349 E15.62396
G1 X100.253 Y132.553 E15.66737
G1 X106.645 Y120.008 E16.3698
G1 X107.039 Y119.323 E16.40922
G1 X107.5 Y118.682 E16.44862
G1 X108.08 Y118.034 E16.492
G0 F3600 X108.362 Y118.316
G1 F1800 X118.316 Y108.362 E17.19431
G1 X118.888 Y107.848 E17.23268
G1 X119.51 Y107.395 E17.27107
G1 X120.181 Y107.006 E17.30976
G1 X120.809 Y106.685 E17.34495
G1 X132.735 Y100.609 E18.01271
G1 X133.437 Y100.296 E18.05106
G1 X134.169 Y100.058 E18.08946
G1 X134.936 Y99.894 E18.12859
G1 X148.842 Y97.691 E18.83101
G1 X149.607 Y97.61 E18.86939
G1 X150.376 Y97.61 E18.90776
G1 X151.158 Y97.691 E18.94698
G1 X165.064 Y99.894 E19.64941
G1 X165.816 Y100.054 E19.68776
G1 X166.548 Y100.291 E19.72615
G1 X167.266 Y100.61 E19.76535
G1 X179.811 Y107.002 E20.46778
G1 X180.477 Y107.386 E20.50613
G1 X181.1 Y107.837 E20.5445
G1 X181.684 Y108.362 E20.58368
G1 X191.638 Y118.316 E21.28599
G1 X192.152 Y118.888 E21.32436
G1 X192.605 Y119.51 E21.36275
G1 X192.994 Y120.181 E21.40144
G1 X193.315 Y120.809 E21.43663
G1 X199.391 Y132.735 E22.10439
G1 X199.704 Y133.437 E22.14274
G1 X199.942 Y134.169 E22.18114
G1 X200.106 Y134.936 E22.22027
G1 X202.309 Y148.842 E22.92269
G1 X202.39 Y149.607 E22.96107
G1 X202.39 Y150.376 E22.99944
G1 X202.309 Y151.158 E23.03866
G1 X200.106 Y165.064 E23.74109
G1 X199.946 Y165.816 E23.77944
G1 X199.709 Y166.548 E23.81783
G1 X199.39 Y167.266 E23.85703
G1 X192.998 Y179.811 E24.55946
G1 X192.614 Y180.477 E24.59781
G1 X192.163 Y181.1 E24.63618
G1 X191.638 Y181.684 E24.67536
G1 X181.684 Y191.638 E25.37767
G1 X181.112 Y192.152 E25.41604
G1 X180.49 Y192.605 E25.45443
G1 X179.819 Y192.994 E25.49312
G1 X179.191 Y193.315 E25.52831
G1 X167.265 Y199.391 E26.19607
G1 X166.563 Y199.704 E26.23442
G1 X165.831 Y199.942 E26.27282
G1 X165.064 Y200.106 E26.31195
G1 X151.158 Y202.309 E27.01437
G1 X150.393 Y202.39 E27.05275
G1 X149.624 Y202.39 E27.09112
G1 X148.842 Y202.309 E27.13034
G1 X134.936 Y200.106 E27.83277
G1 X134.184 Y199.946 E27.87112
G1 X133.452 Y199.709 E27.90951
G1 X132.734 Y199.39 E27.94871
G1 X120.189 Y192.998 E28.65114
G1 X119.523 Y192.614 E28.68949
G1 X118.9 Y192.163 E28.72786
G1 X118.316 Y191.638 E28.76704
G1 X108.362 Y181.684 E29.46935
G1 X107.848 Y181.112 E29.50772
G1 X107.395 Y180.49 E29.54611
G1 X107.002 Y179.811 E29.58525
G1 X100.61 Y167.266 E30.28768
G1 X100.296 Y166.563 E30.32609
G1 X100.058 Y165.832 E30.36445
G1 X99.894 Y165.064 E30.40363
G1 X97.691 Y151.158 E31.10605
G1 X97.61 Y150.393 E31.14443
G1 X97.61 Y149.624 E31.1828
G1 X97.691 Y148.842 E31.22202
G1 X99.894 Y134.936 E31.92444
G1 X100.054 Y134.184 E31.9628
G1 X100.291 Y133.452 E32.00119
G1 X100.61 Y132.734 E32.04039
G1 X107.002 Y120.189 E32.74282
G1 X107.386 Y119.523 E32.78117
G1 X107.837 Y118.9 E32.81954
G1 X108.362 Y118.316 E32.85872
G0 F3600 X108.645 Y118.599
G1 F1800 X118.599 Y108.645 E33.56103
G1 X119.156 Y108.145 E33.59837
G1 X119.762 Y107.708 E33.63565
G1 X120.363 Y107.362 E33.67025
G1 X120.991 Y107.041 E33.70543
G1 X132.916 Y100.966 E34.37313
G1 X133.6 Y100.662 E34.41047
G1 X134.312 Y100.434 E34.44777
G1 X134.999 Y100.289 E34.4828
G1 X148.905 Y98.086 E35.18522
G1 X149.649 Y98.009 E35.22254
G1 X150.397 Y98.011 E35.25986
G1 X151.095 Y98.086 E35.29488
G1 X165.001 Y100.289 E35.99731
G1 X165.733 Y100.446 E36.03466
G1 X166.444 Y100.679 E36.07198
G1 X167.084 Y100.966 E36.10698
G1 X179.629 Y107.358 E36.80941
G1 X180.276 Y107.733 E36.84672
G1 X180.88 Y108.174 E36.88403
G1 X181.401 Y108.645 E36.91907
G1 X191.355 Y118.599 E37.62138
G1 X191.855 Y119.156 E37.65872
G1 X192.292 Y119.762 E37.696
G1 X192.638 Y120.363 E37.73059
G1 X192.959 Y120.991 E37.76578
G1 X199.034 Y132.916 E38.43347
G1 X199.338 Y133.6 E38.47082
G1 X199.566 Y134.312 E38.50812
G1 X199.711 Y134.999 E38.54315
G1 X201.914 Y148.905 E39.24557
G1 X201.991 Y149.649 E39.28289
G1 X201.989 Y150.397 E39.32021
G1 X201.914 Y151.095 E39.35523
G1 X199.711 Y165.001 E40.05765
G1 X199.554 Y165.733 E40.095
G1 X199.321 Y166.444 E40.13233
G1 X199.034 Y167.084 E40.16733
G1 X192.642 Y179.629 E40.86976
G1 X192.267 Y180.276 E40.90707
G1 X191.826 Y180.88 E40.94438
G1 X191.355 Y181.401 E40.97942
G1 X181.401 Y191.355 E41.68173
G1 X180.844 Y191.855 E41.71907
G1 X180.238 Y192.292 E41.75634
G1 X179.637 Y192.638 E41.79094
G1 X179.009 Y192.959 E41.82613
G1 X167.084 Y199.034 E42.49382
G1 X166.4 Y199.338 E42.53117
G1 X165.688 Y199.566 E42.56846
G1 X165.001 Y199.711 E42.60349
G1 X151.095 Y201.914 E43.30592
G1 X150.351 Y201.991 E43.34324
G1 X149.603 Y201.989 E43.38055
G1 X148.905 Y201.914 E43.41558
G1 X134.999 Y199.711 E44.118
G1 X134.267 Y199.554 E44.15535
G1 X133.556 Y199.321 E44.19268
G1 X132.916 Y199.034 E44.22767
G1 X120.371 Y192.642 E44.93011
G1 X119.724 Y192.267 E44.96742
G1 X119.12 Y191.826 E45.00473
G1 X118.599 Y191.355 E45.03977
G1 X108.645 Y181.401 E45.74207
G1 X108.145 Y180.844 E45.77942
G1 X107.708 Y180.238 E45.81669
G1 X107.358 Y179.629 E45.85174
G1 X100.966 Y167.084 E46.55417
G1 X100.662 Y166.4 E46.59151
G1 X100.434 Y165.688 E46.62881
G1 X100.289 Y165.001 E46.66384
G1 X98.086 Y151.095 E47.36627
G1 X98.009 Y150.351 E47.40358
G1 X98.011 Y149.603 E47.4409
G1 X98.086 Y148.905 E47.47592
G1 X100.289 Y134.999 E48.17835
G1 X100.446 Y134.267 E48.2157
G1 X100.679 Y133.556 E48.25303
G1 X100.966 Y132.916 E48.28802
G1 X107.358 Y120.371 E48.99045
G1 X107.733 Y119.724 E49.02776
G1 X108.174 Y119.12 E49.06507
G1 X108.645 Y118.599 E49.10011
G0 F3600 X108.928 Y118.882
G1 F1800 X118.882 Y108.928 E49.80242
G1 X119.423 Y108.444 E49.83864
G1 X120.014 Y108.021 E49.8749
G1 X120.545 Y107.718 E49.9054
G1 X121.173 Y107.397 E49.94058
G1 X133.098 Y101.322 E50.60828
G1 X133.762 Y101.029 E50.64449
G1 X134.455 Y100.81 E50.68075
G1 X135.061 Y100.684 E50.71163
G1 X148.967 Y98.481 E51.41405
G1 X149.69 Y98.407 E51.45031
G1 X150.416 Y98.413 E51.48653
G1 X151.033 Y98.481 E51.5175
G1 X164.939 Y100.684 E52.21993
G1 X165.649 Y100.837 E52.25616
G1 X166.338 Y101.067 E52.2924
G1 X166.902 Y101.322 E52.32328
G1 X179.447 Y107.714 E53.02571
G1 X180.075 Y108.079 E53.06195
G1 X180.66 Y108.511 E53.09823
G1 X181.118 Y108.928 E53.12913
G1 X191.072 Y118.882 E53.83144
G1 X191.556 Y119.423 E53.86766
G1 X191.979 Y120.014 E53.90392
G1 X192.282 Y120.545 E53.93442
G1 X192.603 Y121.173 E53.96961
G1 X198.678 Y133.098 E54.6373
G1 X198.971 Y133.762 E54.67351
G1 X199.19 Y134.455 E54.70977
G1 X199.316 Y135.061 E54.74065
G1 X201.519 Y148.967 E55.44307
G1 X201.593 Y149.69 E55.47933
G1 X201.587 Y150.416 E55.51555
G1 X201.519 Y151.033 E55.54652
G1 X199.316 Y164.939 E56.24895
G1 X199.163 Y165.649 E56.28518
G1 X198.933 Y166.338 E56.32142
G1 X198.678 Y166.902 E56.3523
G1 X192.286 Y179.447 E57.05473
G1 X191.921 Y180.075 E57.09097
G1 X191.489 Y180.66 E57.12725
G1 X191.072 Y181.118 E57.15816
G1 X181.118 Y191.072 E57.86046
G1 X180.577 Y191.556 E57.89668
G1 X179.986 Y191.979 E57.93294
G1 X179.455 Y192.282 E57.96344
G1 X178.827 Y192.603 E57.99863
G1 X166.902 Y198.678 E58.66632
G1 X166.238 Y198.971 E58.70253
G1 X165.545 Y199.19 E58.73879
G1 X164.939 Y199.316 E58.76967
G1 X151.033 Y201.519 E59.47209
G1 X150.31 Y201.593 E59.50835
G1 X149.584 Y201.587 E59.54457
G1 X148.967 Y201.519 E59.57554
G1 X135.061 Y199.316 E60.27797
G1 X134.351 Y199.163 E60.3142
G1 X133.662 Y198.933 E60.35044
G1 X133.098 Y198.678 E60.38132
G1 X120.553 Y192.286 E61.08376
G1 X119.925 Y191.921 E61.11999
G1 X119.34 Y191.489 E61.15628
G1 X118.882 Y191.072 E61.18718
G1 X108.928 Y181.118 E61.88949
G1 X108.444 Y180.577 E61.9257
G1 X108.021 Y179.986 E61.96196
G1 X107.714 Y179.447 E61.99291
G1 X101.322 Y166.902 E62.69534
G1 X101.029 Y166.238 E62.73155
G1 X100.81 Y165.545 E62.76781
G1 X100.684 Y164.939 E62.79869
G1 X98.481 Y151.033 E63.50111
G1 X98.407 Y150.31 E63.53737
G1 X98.413 Y149.584 E63.57359
G1 X98.481 Y148.967 E63.60456
G1 X100.684 Y135.061 E64.30699
G1 X100.837 Y134.351 E64.34322
G1 X101.067 Y133.662 E64.37946
G1 X101.322 Y133.098 E64.41034
G1 X107.714 Y120.553 E65.11278
G1 X108.079 Y119.925 E65.14901
G1 X108.511 Y119.34 E65.1853
G1 X108.928 Y118.882 E65.2162
G0 F3600 X109.211 Y119.165
G1 F1800 X119.165 Y109.211 E65.91851
G1 X119.69 Y108.742 E65.95363
G1 X120.265 Y108.336 E65.98874
G1 X120.727 Y108.074 E66.01524
G1 X121.355 Y107.753 E66.05043
G1 X133.28 Y101.679 E66.7181
G1 X133.924 Y101.395 E66.75321
G1 X134.596 Y101.187 E66.78831
G1 X135.124 Y101.079 E66.8152
G1 X149.03 Y98.876 E67.51762
G1 X149.73 Y98.806 E67.55272
G1 X150.434 Y98.815 E67.58784
G1 X150.97 Y98.876 E67.61476
G1 X164.876 Y101.079 E68.31718
G1 X165.564 Y101.229 E68.35231
G1 X166.231 Y101.455 E68.38745
G1 X166.721 Y101.679 E68.41433
G1 X179.266 Y108.071 E69.11676
G1 X179.874 Y108.425 E69.15186
G1 X180.438 Y108.847 E69.18701
G1 X180.835 Y109.211 E69.21388
G1 X190.789 Y119.165 E69.91619
G1 X191.258 Y119.69 E69.95131
G1 X191.664 Y120.265 E69.98642
G1 X191.926 Y120.727 E70.01292
G1 X192.247 Y121.355 E70.04811
G1 X198.321 Y133.28 E70.71578
G1 X198.605 Y133.924 E70.75089
G1 X198.813 Y134.596 E70.78599
G1 X198.921 Y135.124 E70.81288
G1 X201.124 Y149.03 E71.5153
G1 X201.194 Y149.73 E71.5504
G1 X201.185 Y150.434 E71.58552
G1 X201.124 Y150.97 E71.61244
G1 X198.921 Y164.876 E72.31486
G1 X198.771 Y165.564 E72.34999
G1 X198.545 Y166.231 E72.38513
G1 X198.321 Y166.721 E72.41201
G1 X191.929 Y179.266 E73.11444
G1 X191.575 Y179.874 E73.14954
G1 X191.153 Y180.438 E73.18468
G1 X190.789 Y180.835 E73.21156
G1 X180.835 Y190.789 E73.91386
G1 X180.31 Y191.258 E73.94899
G1 X179.735 Y191.664 E73.9841
G1 X179.273 Y191.926 E74.0106
G1 X178.645 Y192.247 E74.04579
G1 X166.72 Y198.321 E74.71346
G1 X166.076 Y198.605 E74.74857
G1 X165.404 Y198.813 E74.78367
G1 X164.876 Y198.921 E74.81056
G1 X150.97 Y201.124 E75.51298
G1 X150.27 Y201.194 E75.54808
G1 X149.566 Y201.185 E75.5832
G1 X149.03 Y201.124 E75.61012
G1 X135.124 Y198.921 E76.31254
G1 X134.436 Y198.771 E76.34767
G1 X133.769 Y198.545 E76.38281
G1 X133.279 Y198.321 E76.40969
G1 X120.734 Y191.929 E77.11212
G1 X120.126 Y191.575 E77.14722
G1 X119.562 Y191.153 E77.18236
G1 X119.165 Y190.789 E77.20924
G1 X109.211 Y180.835 E77.91154
G1 X108.742 Y180.31 E77.94667
G1 X108.336 Y179.735 E77.98178
G1 X108.071 Y179.266 E78.00866
G1 X101.679 Y166.721 E78.71109
G1 X101.395 Y166.076 E78.74625
G1 X101.187 Y165.404 E78.78135
G1 X101.079 Y164.876 E78.80823
G1 X98.876 Y150.97 E79.51066
G1 X98.806 Y150.27 E79.54576
G1 X98.815 Y149.566 E79.58088
G1 X98.876 Y149.03 E79.6078
G1 X101.079 Y135.124 E80.31022
G1 X101.229 Y134.436 E80.34535
G1 X101.455 Y133.769 E80.38049
G1 X101.679 Y133.279 E80.40737
G1 X108.071 Y120.734 E81.1098
G1 X108.425 Y120.126 E81.1449
G1 X108.847 Y119.562 E81.18004
G1 X109.211 Y119.165 E81.20691
G0 F3600 X109.494 Y119.448
G1 F1800 X119.448 Y109.494 E81.90922
G1 X119.957 Y109.041 E81.94322
G1 X120.515 Y108.652 E81.97715
G1 X121.537 Y108.11 E82.03487
G1 X133.461 Y102.035 E82.70252
G1 X134.085 Y101.762 E82.7365
G1 X134.736 Y101.564 E82.77044
G1 X135.186 Y101.474 E82.79334
G1 X149.092 Y99.271 E83.49576
G1 X149.77 Y99.205 E83.52975
G1 X150.451 Y99.218 E83.56373
G1 X150.908 Y99.271 E83.58668
G1 X164.814 Y101.474 E84.28911
G1 X165.479 Y101.62 E84.32308
G1 X166.122 Y101.843 E84.35703
G1 X166.539 Y102.035 E84.37993
G1 X179.084 Y108.427 E85.08237
G1 X179.672 Y108.771 E85.11635
G1 X180.215 Y109.182 E85.15033
G1 X180.552 Y109.494 E85.17324
G1 X190.506 Y119.448 E85.87555
G1 X190.959 Y119.957 E85.90954
G1 X191.348 Y120.515 E85.94348
G1 X191.89 Y121.537 E86.00119
G1 X197.965 Y133.461 E86.66884
G1 X198.238 Y134.085 E86.70282
G1 X198.436 Y134.736 E86.73677
G1 X198.526 Y135.186 E86.75967
G1 X200.729 Y149.092 E87.46209
G1 X200.795 Y149.77 E87.49608
G1 X200.782 Y150.451 E87.53006
G1 X200.729 Y150.908 E87.55301
G1 X198.526 Y164.814 E88.25544
G1 X198.38 Y165.479 E88.2894
G1 X198.157 Y166.122 E88.32336
G1 X197.965 Y166.539 E88.34626
G1 X191.573 Y179.084 E89.04869
G1 X191.229 Y179.672 E89.08268
G1 X190.818 Y180.215 E89.11666
G1 X190.506 Y180.552 E89.13957
G1 X180.552 Y190.506 E89.84188
G1 X180.043 Y190.959 E89.87587
G1 X179.485 Y191.348 E89.90981
G1 X178.463 Y191.89 E89.96752
G1 X166.539 Y197.965 E90.63517
G1 X165.915 Y198.238 E90.66915
G1 X165.264 Y198.436 E90.7031
G1 X164.814 Y198.526 E90.72599
G1 X150.908 Y200.729 E91.42842
G1 X150.23 Y200.795 E91.4624
G1 X149.549 Y200.782 E91.49639
G1 X149.092 Y200.729 E91.51934
G1 X135.186 Y198.526 E92.22176
G1 X134.521 Y198.38 E92.25573
G1 X133.878 Y198.157 E92.28968
G1 X133.461 Y197.965 E92.31259
G1 X120.916 Y191.573 E93.01502
G1 X120.328 Y191.229 E93.04901
G1 X119.785 Y190.818 E93.08298
G1 X119.448 Y190.506 E93.1059
G1 X109.494 Y180.552 E93.8082
G1 X109.041 Y180.043 E93.8422
G1 X108.652 Y179.485 E93.87613
G1 X108.427 Y179.084 E93.89907
G1 X102.035 Y166.539 E94.60151
G1 X101.762 Y165.915 E94.63549
G1 X101.564 Y165.264 E94.66944
G1 X101.474 Y164.814 E94.69233
G1 X99.271 Y150.908 E95.39476
G1 X99.205 Y150.23 E95.42874
G1 X99.218 Y149.549 E95.46272
G1 X99.271 Y149.092 E95.48568
G1 X101.474 Y135.186 E96.1881
G1 X101.62 Y134.521 E96.22207
G1 X101.843 Y133.878 E96.25602
G1 X102.035 Y133.461 E96.27893
G1 X108.427 Y120.916 E96.98136
G1 X108.771 Y120.328 E97.01535
G1 X109.182 Y119.785 E97.04932
G1 X109.494 Y119.448 E97.07223
G0 F3600 X109.516 Y120.01
G1 F1800 X119.731 Y109.777 E97.79359
G1 X120.223 Y109.341 E97.82639
G1 X120.764 Y108.969 E97.85914
G1 X121.719 Y108.466 E97.91299
G1 X133.643 Y102.391 E98.58064
G1 X134.245 Y102.129 E98.6134
G1 X134.875 Y101.942 E98.64618
G1 X149.155 Y99.667 E99.3676
