;FLAVOR:Marlin
;TIME:17357
;Filament used: 9.9881m
;Layer height: 0.1
;MINX:96.406
;MINY:107.563
;MINZ:0.3
;MAXX:203.274
;MAXY:270.434
;MAXZ:10.8
;Generated with Cura_SteamEngine 4.6.1
M140 S60
M105
M190 S60
M104 S205
M105
M109 S205
M82 ;absolute extrusion mode
G28 ;Home
G1 Z15.0 F6000 ;Move the platform down 15mm
;Prime the extruder
G92 E0
G1 F200 E3
G92 E0
G92 E0
G92 E0
G1 F1500 E-6.5
;LAYER_COUNT:106
;LAYER:0
M107
G0 F3600 X117.097 Y149.907 Z0.3
;TYPE:SKIRT
G1 F1500 E0
G1 F1800 X117.776 Y150.223 E0.03736
G1 X119.037 Y150.884 E0.1084
G1 X119.717 Y151.285 E0.14778
G1 X120.317 Y151.724 E0.18487
G1 X121.275 Y152.498 E0.24632
G1 X122.838 Y152.498 E0.32429
G1 X122.838 Y147.197 E0.58876
G1 X121.414 Y147.197 E0.65981
G1 X120.521 Y147.935 E0.7176
G1 X119.887 Y148.407 E0.75704
G1 X119.319 Y148.753 E0.79022
G1 X118 Y149.481 E0.86538
G1 X117.29 Y149.827 E0.90478
G1 X117.097 Y149.907 E0.91521
G0 F3600 X116.965 Y150.285
G1 F1800 X117.591 Y150.577 E0.94967
G1 X118.852 Y151.238 E1.0207
G1 X119.513 Y151.63 E1.05904
G1 X120.066 Y152.035 E1.09324
G1 X121.134 Y152.898 E1.16174
G1 X123.238 Y152.898 E1.26671
G1 X123.238 Y146.797 E1.57109
G1 X121.27 Y146.797 E1.66928
G1 X120.266 Y147.627 E1.73426
G1 X119.648 Y148.086 E1.77267
G1 X119.126 Y148.403 E1.80314
G1 X117.807 Y149.131 E1.8783
G1 X117.115 Y149.467 E1.91668
G1 X116.394 Y149.729 E1.95495
G1 X115.816 Y149.906 E1.98511
G1 X116.239 Y150.03 E2.0071
G1 X116.965 Y150.285 E2.04549
G0 F3600 X116.832 Y150.663
G1 F1800 X117.405 Y150.931 E2.07705
G1 X118.666 Y151.592 E2.14808
G1 X119.309 Y151.974 E2.1854
G1 X119.815 Y152.347 E2.21676
G1 X120.923 Y153.242 E2.28782
G1 X120.985 Y153.298 E2.29199
G1 X123.638 Y153.298 E2.42434
G1 X123.638 Y146.397 E2.76864
G1 X121.119 Y146.397 E2.89431
G1 X120.011 Y147.319 E2.96622
G1 X119.41 Y147.764 E3.00353
G1 X118.933 Y148.053 E3.03136
G1 X117.614 Y148.781 E3.10652
G1 X116.94 Y149.106 E3.14385
G1 X116.277 Y149.346 E3.17903
G1 X114.919 Y149.761 E3.24987
G1 X114.327 Y149.908 E3.28031
G1 X114.763 Y150.014 E3.30269
G1 X116.126 Y150.414 E3.37356
G1 X116.832 Y150.663 E3.41091
G0 F3600 X116.698 Y151.041
G1 F1800 X117.219 Y151.285 E3.43961
G1 X118.48 Y151.946 E3.51064
G1 X119.104 Y152.319 E3.54691
G1 X119.563 Y152.658 E3.57538
G1 X120.671 Y153.553 E3.64644
G1 X120.831 Y153.698 E3.65721
G1 X124.038 Y153.698 E3.81721
G1 X124.038 Y145.997 E4.20141
G1 X120.965 Y145.997 E4.35473
G1 X119.756 Y147.01 E4.43342
G1 X119.171 Y147.442 E4.4697
G1 X118.739 Y147.702 E4.49485
G1 X117.42 Y148.43 E4.57002
G1 X116.766 Y148.746 E4.60625
G1 X116.16 Y148.964 E4.63838
G1 X114.802 Y149.379 E4.70923
G1 X114.097 Y149.553 E4.74546
G1 X113.522 Y149.635 E4.77443
G1 X112.186 Y149.767 E4.84141
G1 X111.46 Y149.799 E4.87767
G1 X110.964 Y149.774 E4.90244
G1 X109.552 Y149.651 E4.97315
G1 X108.833 Y149.548 E5.00939
G1 X108.262 Y149.408 E5.03872
G1 X106.821 Y148.984 E5.11366
G1 X106.137 Y148.741 E5.14988
G1 X105.557 Y148.464 E5.18194
G1 X104.373 Y147.827 E5.24902
G1 X103.753 Y147.448 E5.28527
G1 X103.352 Y147.149 E5.31023
G1 X102.243 Y146.253 E5.38136
G1 X101.704 Y145.766 E5.4176
G1 X101.316 Y145.339 E5.44638
G1 X100.354 Y144.182 E5.52145
G1 X99.921 Y143.598 E5.55772
G1 X99.6 Y143.058 E5.58907
G1 X98.928 Y141.793 E5.66053
G1 X98.623 Y141.134 E5.69676
G1 X98.435 Y140.591 E5.72543
G1 X98.048 Y139.299 E5.79271
G1 X97.878 Y138.593 E5.82894
G1 X97.809 Y138.122 E5.85269
G1 X97.645 Y136.621 E5.92802
G1 X97.606 Y135.896 E5.96424
G1 X97.637 Y135.27 E5.99551
G1 X97.767 Y133.923 E6.06303
G1 X97.876 Y133.205 E6.09926
G1 X97.998 Y132.717 E6.12436
G1 X98.419 Y131.267 E6.19968
G1 X98.659 Y130.581 E6.23594
G1 X98.927 Y130.013 E6.26728
G1 X99.599 Y128.747 E6.33878
G1 X99.975 Y128.125 E6.37504
G1 X100.314 Y127.67 E6.40335
G1 X101.163 Y126.629 E6.47037
G1 X101.653 Y126.092 E6.50664
G1 X102.015 Y125.761 E6.53111
G1 X103.164 Y124.789 E6.60619
G1 X103.744 Y124.351 E6.64246
G1 X104.302 Y124.015 E6.67495
G1 X105.487 Y123.378 E6.74207
G1 X106.145 Y123.069 E6.77834
G1 X106.612 Y122.901 E6.8031
G1 X108.043 Y122.446 E6.87801
G1 X108.746 Y122.265 E6.91423
G1 X109.398 Y122.168 E6.94712
G1 X110.733 Y122.037 E7.01404
G1 X111.459 Y122.005 E7.0503
G1 X111.954 Y122.03 E7.07502
G1 X113.449 Y122.161 E7.14989
G1 X114.168 Y122.264 E7.18613
G1 X114.802 Y122.424 E7.21875
G1 X116.16 Y122.839 E7.2896
G1 X116.842 Y123.089 E7.32584
G1 X117.358 Y123.339 E7.35444
G1 X118.542 Y123.976 E7.42152
G1 X119.162 Y124.355 E7.45777
G1 X119.569 Y124.66 E7.48315
G1 X120.738 Y125.607 E7.5582
G1 X120.835 Y125.695 E7.56474
G1 X124.038 Y125.695 E7.72454
G1 X124.038 Y115.365 E8.2399
G1 X124.078 Y114.64 E8.27613
G1 X124.197 Y113.923 E8.31239
G1 X124.395 Y113.224 E8.34863
G1 X124.668 Y112.551 E8.38487
G1 X125.013 Y111.912 E8.4211
G1 X125.427 Y111.315 E8.45734
G1 X125.903 Y110.767 E8.49356
G1 X126.437 Y110.274 E8.52981
G1 X127.022 Y109.844 E8.56604
G1 X127.651 Y109.48 E8.60229
G1 X128.316 Y109.187 E8.63855
G1 X129.009 Y108.969 E8.67479
G1 X129.721 Y108.829 E8.71099
G1 X130.638 Y108.765 E8.75685
G1 X184.817 Y108.763 E11.45986
G1 X185.339 Y108.784 E11.48592
G1 X186.952 Y108.912 E11.56665
G1 X187.947 Y109.068 E11.61689
G1 X189.573 Y109.452 E11.70025
G1 X190.575 Y109.775 E11.75277
G1 X192.142 Y110.422 E11.83735
G1 X193.063 Y110.889 E11.88887
G1 X194.481 Y111.755 E11.97176
G1 X195.325 Y112.367 E12.02377
G1 X196.6 Y113.455 E12.10739
G1 X197.338 Y114.194 E12.1595
G1 X198.437 Y115.483 E12.24401
G1 X199.038 Y116.31 E12.29501
G1 X199.908 Y117.726 E12.37793
G1 X200.377 Y118.641 E12.42922
G1 X201.017 Y120.176 E12.51219
G1 X201.335 Y121.144 E12.56303
G1 X201.739 Y122.791 E12.64763
G1 X201.906 Y123.81 E12.69915
G1 X202.047 Y125.488 E12.78316
G1 X202.07 Y126.054 E12.81142
G1 X202.069 Y126.565 E12.83691
G1 X202.018 Y127.369 E12.87711
G1 X202.003 Y127.493 E12.88334
G1 X201.992 Y136.788 E13.34707
G1 X201.993 Y172.349 E15.12121
G1 X202.045 Y172.906 E15.14912
G1 X202.074 Y173.588 E15.18318
G1 X202.051 Y174.408 E15.22411
G1 X201.931 Y175.968 E15.30216
G1 X201.78 Y176.95 E15.35173
G1 X201.399 Y178.596 E15.43602
G1 X201.088 Y179.583 E15.48765
G1 X200.451 Y181.158 E15.57241
G1 X199.99 Y182.082 E15.62393
G1 X199.134 Y183.507 E15.70686
G1 X198.539 Y184.342 E15.75802
G1 X197.46 Y185.632 E15.84192
G1 X196.734 Y186.373 E15.89367
G1 X195.472 Y187.473 E15.9772
G1 X194.639 Y188.091 E16.02894
G1 X193.207 Y188.988 E16.11324
G1 X192.272 Y189.475 E16.16584
G1 X190.743 Y190.121 E16.24865
G1 X189.761 Y190.447 E16.30027
G1 X188.106 Y190.857 E16.38534
G1 X187.945 Y190.884 E16.39348
G1 X188.711 Y191.542 E16.44386
G1 X189.446 Y192.282 E16.4959
G1 X190.533 Y193.565 E16.57979
G1 X191.136 Y194.402 E16.63126
G1 X192.008 Y195.836 E16.71499
G1 X192.473 Y196.754 E16.76633
G1 X193.113 Y198.31 E16.85027
G1 X193.429 Y199.291 E16.90168
G1 X193.819 Y200.928 E16.98564
G1 X193.979 Y201.945 E17.037
G1 X194.11 Y203.625 E17.12107
G1 X194.128 Y204.28 E17.15376
G1 X194.116 Y204.838 E17.18161
G1 X194.074 Y205.455 E17.21246
G1 X194.055 Y205.619 E17.2207
G1 X194.052 Y250.367 E19.45319
G1 X194.111 Y251.046 E19.48719
G1 X194.133 Y251.642 E19.51694
G1 X194.11 Y252.409 E19.55523
G1 X193.979 Y254.091 E19.6394
G1 X193.82 Y255.107 E19.6907
G1 X193.431 Y256.742 E19.77455
G1 X193.114 Y257.725 E19.82608
G1 X192.474 Y259.281 E19.91002
G1 X192.01 Y260.199 E19.96133
G1 X191.137 Y261.635 E20.04518
G1 X190.533 Y262.472 E20.09667
G1 X189.448 Y263.753 E20.18043
G1 X188.697 Y264.507 E20.23352
G1 X188.178 Y264.95 E20.26756
G1 X187.453 Y265.576 E20.31535
G1 X186.61 Y266.194 E20.3675
G1 X185.183 Y267.076 E20.45119
G1 X184.255 Y267.553 E20.50325
G1 X182.712 Y268.197 E20.58666
G1 X181.697 Y268.527 E20.63991
G1 X181.079 Y268.674 E20.6716
G1 X180.115 Y268.91 E20.72112
G1 X179.056 Y269.079 E20.77462
G1 X177.507 Y269.199 E20.85213
G1 X176.47 Y269.229 E20.90389
G1 X112.152 Y269.234 E24.11273
G1 X111.427 Y269.194 E24.14895
G1 X110.711 Y269.075 E24.18517
G1 X110.012 Y268.877 E24.22141
G1 X109.339 Y268.604 E24.25764
G1 X108.7 Y268.259 E24.29387
G1 X108.102 Y267.846 E24.33013
G1 X107.554 Y267.369 E24.36638
G1 X107.062 Y266.835 E24.4026
G1 X106.631 Y266.25 E24.43885
G1 X106.267 Y265.622 E24.47507
G1 X105.974 Y264.957 E24.51132
G1 X105.756 Y264.264 E24.54757
G1 X105.616 Y263.551 E24.58382
G1 X105.552 Y262.634 E24.62968
G1 X105.552 Y245.902 E25.46444
G1 X105.592 Y245.177 E25.50067
G1 X105.711 Y244.46 E25.53693
G1 X105.909 Y243.761 E25.57317
G1 X106.182 Y243.088 E25.60941
G1 X106.527 Y242.449 E25.64564
G1 X106.732 Y242.153 E25.6636
G1 X106.631 Y242.016 E25.67209
G1 X106.267 Y241.387 E25.70835
G1 X105.974 Y240.722 E25.7446
G1 X105.756 Y240.029 E25.78085
G1 X105.616 Y239.317 E25.81705
G1 X105.552 Y238.4 E25.86291
G1 X105.552 Y217.9 E26.88566
G1 X105.592 Y217.175 E26.92188
G1 X105.711 Y216.458 E26.95814
G1 X105.909 Y215.759 E26.99439
G1 X106.182 Y215.086 E27.03062
G1 X106.527 Y214.447 E27.06685
G1 X106.732 Y214.151 E27.08482
G1 X106.631 Y214.014 E27.09331
G1 X106.267 Y213.385 E27.12956
G1 X105.974 Y212.72 E27.16582
G1 X105.756 Y212.027 E27.20206
G1 X105.616 Y211.315 E27.23826
G1 X105.552 Y210.398 E27.28413
G1 X105.552 Y193.404 E28.13196
G1 X105.592 Y192.679 E28.16818
G1 X105.711 Y191.962 E28.20445
G1 X105.909 Y191.263 E28.24069
G1 X106.182 Y190.59 E28.27692
G1 X106.527 Y189.951 E28.31315
G1 X106.941 Y189.354 E28.3494
G1 X107.417 Y188.806 E28.38561
G1 X107.951 Y188.313 E28.42187
G1 X108.536 Y187.883 E28.45809
G1 X109.165 Y187.519 E28.49435
G1 X109.83 Y187.226 E28.5306
G1 X110.523 Y187.008 E28.56685
G1 X111.235 Y186.868 E28.60305
G1 X112.152 Y186.804 E28.64891
G1 X124.425 Y186.805 E29.26121
G1 X124.242 Y186.224 E29.2916
G1 X124.102 Y185.512 E29.32781
G1 X124.038 Y184.595 E29.37367
G1 X124.038 Y174 E29.90225
G1 X120.95 Y174 E30.05631
G1 X119.726 Y175.032 E30.13619
G1 X119.144 Y175.467 E30.17244
G1 X118.613 Y175.785 E30.20332
G1 X117.355 Y176.461 E30.27457
G1 X116.697 Y176.769 E30.31081
G1 X116.16 Y176.959 E30.33923
G1 X114.802 Y177.374 E30.41008
G1 X114.097 Y177.548 E30.4463
G1 X113.522 Y177.63 E30.47528
G1 X112.106 Y177.77 E30.54627
G1 X111.381 Y177.802 E30.58248
G1 X110.807 Y177.77 E30.61116
G1 X109.393 Y177.63 E30.68205
G1 X108.675 Y177.519 E30.71829
G1 X108.115 Y177.374 E30.74715
G1 X106.756 Y176.959 E30.81804
G1 X106.074 Y176.709 E30.85428
G1 X105.558 Y176.46 E30.88287
G1 X104.301 Y175.784 E30.95407
G1 X103.681 Y175.405 E30.99033
G1 X103.22 Y175.056 E31.01917
G1 X102.125 Y174.15 E31.09008
G1 X101.591 Y173.657 E31.12634
G1 X101.217 Y173.236 E31.15443
G1 X100.312 Y172.126 E31.22588
G1 X99.884 Y171.538 E31.26217
G1 X99.599 Y171.052 E31.29028
G1 X98.929 Y169.791 E31.36152
G1 X98.624 Y169.132 E31.39774
G1 X98.437 Y168.595 E31.42611
G1 X98.04 Y167.275 E31.49488
G1 X97.869 Y166.569 E31.53112
G1 X97.795 Y166.057 E31.55693
G1 X97.647 Y164.635 E31.62826
G1 X97.612 Y163.91 E31.66447
G1 X97.639 Y163.36 E31.69194
G1 X97.772 Y161.882 E31.76598
G1 X97.876 Y161.164 E31.80218
G1 X98.026 Y160.568 E31.83284
G1 X98.438 Y159.202 E31.90402
G1 X98.686 Y158.519 E31.94027
G1 X98.927 Y158.014 E31.96819
G1 X99.599 Y156.748 E32.0397
G1 X99.975 Y156.126 E32.07596
G1 X100.315 Y155.669 E32.10437
G1 X101.215 Y154.566 E32.1754
G1 X101.705 Y154.03 E32.21163
G1 X102.123 Y153.653 E32.23971
G1 X103.221 Y152.745 E32.3108
G1 X103.805 Y152.313 E32.34704
G1 X104.297 Y152.02 E32.37561
G1 X105.554 Y151.343 E32.44683
G1 X106.212 Y151.034 E32.4831
G1 X106.761 Y150.84 E32.51215
G1 X108.12 Y150.426 E32.58303
G1 X108.825 Y150.253 E32.61924
G1 X109.394 Y150.172 E32.64792
G1 X110.729 Y150.04 E32.71485
G1 X111.454 Y150.008 E32.75105
G1 X111.95 Y150.033 E32.77583
G1 X113.364 Y150.156 E32.84664
G1 X114.083 Y150.258 E32.88287
G1 X114.651 Y150.398 E32.91206
G1 X116.014 Y150.798 E32.98292
G1 X116.698 Y151.041 E33.01914
G0 F3600 X116.564 Y151.418
G1 F1800 X117.033 Y151.64 E33.04503
G1 X118.294 Y152.301 E33.11606
G1 X118.898 Y152.662 E33.15116
G1 X119.312 Y152.969 E33.17688
G1 X120.42 Y153.864 E33.24794
G1 X120.678 Y154.098 E33.26531
G1 X124.438 Y154.098 E33.4529
G1 X124.438 Y145.597 E33.87702
G1 X120.813 Y145.597 E34.05787
G1 X119.501 Y146.702 E34.14345
G1 X118.934 Y147.119 E34.17856
G1 X118.546 Y147.352 E34.20114
G1 X117.227 Y148.08 E34.2763
G1 X116.592 Y148.385 E34.31145
G1 X116.043 Y148.581 E34.34053
G1 X114.685 Y148.996 E34.41138
G1 X114.001 Y149.164 E34.44652
G1 X113.483 Y149.237 E34.47261
G1 X112.147 Y149.369 E34.53959
G1 X111.443 Y149.398 E34.57474
G1 X110.999 Y149.376 E34.59692
G1 X109.587 Y149.253 E34.66763
G1 X108.89 Y149.152 E34.70277
G1 X108.375 Y149.024 E34.72925
G1 X106.934 Y148.6 E34.80419
G1 X106.271 Y148.363 E34.83931
G1 X105.747 Y148.112 E34.8683
G1 X104.563 Y147.475 E34.93538
G1 X103.962 Y147.107 E34.97053
G1 X102.495 Y145.942 E35.06399
G1 X101.973 Y145.469 E35.09914
G1 X101.624 Y145.083 E35.1251
G1 X100.662 Y143.926 E35.20017
G1 X100.243 Y143.36 E35.2353
G1 X99.954 Y142.871 E35.26364
G1 X99.282 Y141.606 E35.3351
G1 X98.987 Y140.966 E35.37026
G1 X98.818 Y140.476 E35.39612
G1 X98.431 Y139.184 E35.46341
G1 X98.267 Y138.499 E35.49855
G1 X98.043 Y136.577 E35.59509
G1 X98.006 Y135.874 E35.63021
G1 X98.035 Y135.308 E35.65848
G1 X98.165 Y133.961 E35.726
G1 X98.272 Y133.266 E35.76108
G1 X98.382 Y132.828 E35.78361
G1 X98.803 Y131.378 E35.85894
G1 X99.037 Y130.714 E35.89406
G1 X99.281 Y130.2 E35.92245
G1 X99.953 Y128.934 E35.99396
G1 X100.318 Y128.332 E36.02908
G1 X100.624 Y127.922 E36.0546
G1 X101.473 Y126.881 E36.12162
G1 X101.948 Y126.362 E36.15672
G1 X103.423 Y125.095 E36.25373
G1 X103.985 Y124.671 E36.28886
G1 X104.491 Y124.367 E36.31831
G1 X105.676 Y123.73 E36.38543
G1 X106.314 Y123.432 E36.42056
G1 X108.164 Y122.827 E36.51766
G1 X108.846 Y122.653 E36.55278
G1 X109.438 Y122.566 E36.58263
G1 X110.773 Y122.435 E36.64955
G1 X111.476 Y122.406 E36.68466
G1 X113.414 Y122.56 E36.78165
G1 X114.111 Y122.661 E36.81679
G1 X114.685 Y122.807 E36.84633
G1 X116.043 Y123.222 E36.91718
G1 X116.703 Y123.465 E36.95227
G1 X117.168 Y123.691 E36.97806
G1 X118.352 Y124.328 E37.04514
G1 X118.953 Y124.696 E37.0803
G1 X119.318 Y124.97 E37.10307
G1 X120.487 Y125.917 E37.17812
G1 X120.683 Y126.095 E37.19133
G1 X124.438 Y126.095 E37.37867
G1 X124.438 Y115.365 E37.91399
G1 X124.478 Y114.662 E37.94912
G1 X124.597 Y113.968 E37.98425
G1 X124.795 Y113.293 E38.01934
G1 X125.067 Y112.644 E38.05445
G1 X125.412 Y112.03 E38.08959
G1 X125.823 Y111.459 E38.12469
G1 X126.297 Y110.938 E38.15983
G1 X126.827 Y110.474 E38.19497
G1 X127.406 Y110.074 E38.23008
G1 X128.027 Y109.742 E38.26521
G1 X128.681 Y109.482 E38.30033
G1 X129.361 Y109.298 E38.33547
G1 X130.057 Y109.192 E38.37059
G1 X130.638 Y109.165 E38.39961
G1 X184.817 Y109.163 E41.10261
G1 X185.307 Y109.182 E41.12708
G1 X186.92 Y109.31 E41.2078
G1 X187.855 Y109.457 E41.25502
G1 X189.481 Y109.841 E41.33838
G1 X190.422 Y110.144 E41.3877
G1 X191.989 Y110.791 E41.47228
G1 X192.854 Y111.231 E41.52069
G1 X194.272 Y112.097 E41.60359
G1 X195.066 Y112.672 E41.6525
G1 X196.341 Y113.76 E41.73612
G1 X197.034 Y114.453 E41.78501
G1 X198.133 Y115.742 E41.86952
G1 X198.698 Y116.519 E41.91745
G1 X199.568 Y117.935 E42.00037
G1 X200.008 Y118.795 E42.04856
G1 X200.648 Y120.33 E42.13153
G1 X200.946 Y121.239 E42.17926
G1 X201.35 Y122.886 E42.26386
G1 X201.507 Y123.844 E42.3123
G1 X201.648 Y125.522 E42.39631
G1 X201.67 Y126.053 E42.42282
G1 X201.669 Y126.564 E42.44831
G1 X201.621 Y127.32 E42.48611
G1 X201.603 Y127.468 E42.49355
G1 X201.592 Y136.788 E42.95852
G1 X201.593 Y172.364 E44.73342
G1 X201.647 Y172.943 E44.76243
G1 X201.674 Y173.584 E44.79444
G1 X201.652 Y174.378 E44.83406
G1 X201.532 Y175.938 E44.91212
G1 X201.39 Y176.86 E44.95866
G1 X201.009 Y178.506 E45.04295
G1 X200.717 Y179.433 E45.09144
G1 X200.08 Y181.008 E45.1762
G1 X199.647 Y181.876 E45.2246
G1 X198.791 Y183.301 E45.30753
G1 X198.232 Y184.086 E45.35561
G1 X197.153 Y185.376 E45.43951
G1 X196.471 Y186.072 E45.48813
G1 X195.209 Y187.172 E45.57165
G1 X194.426 Y187.752 E45.62027
G1 X192.994 Y188.649 E45.70457
G1 X192.116 Y189.106 E45.75395
G1 X190.587 Y189.752 E45.83676
G1 X189.665 Y190.059 E45.88524
G1 X188.01 Y190.469 E45.97031
G1 X187.041 Y190.629 E46.0193
G1 X187.013 Y190.631 E46.0207
G1 X187.18 Y190.754 E46.03105
G1 X188.45 Y191.845 E46.11458
G1 X189.14 Y192.54 E46.16344
G1 X190.227 Y193.823 E46.24734
G1 X190.794 Y194.61 E46.29573
