;FLAVOR:Marlin
;TIME:6992
;Filament used: 4.96498m
;Layer height: 0.1
;MINX:79.356
;MINY:59.853
;MINZ:0.3
;MAXX:220.644
;MAXY:276.147
;MAXZ:0.6
;Generated with Cura_SteamEngine 4.6.1
M140 S60
M105
M190 S60
M104 S200
M105
M109 S200
M82 ;absolute extrusion mode
G28 ;Home
G1 Z15.0 F6000 ;Move the platform down 15mm
;Prime the extruder
G92 E0
G1 F200 E3
G92 E0
G92 E0
G92 E0
G1 F1500 E-6.5
;LAYER_COUNT:4
;LAYER:0
M107
G0 F3600 X195.843 Y59.884 Z0.3
;TYPE:SKIRT
G1 F1500 E0
G1 F1800 X196.458 Y59.931 E0.03077
G1 X196.964 Y59.985 E0.05616
G1 X197.896 Y60.135 E0.10326
G1 X198.655 Y60.3 E0.14201
G1 X199.193 Y60.447 E0.16983
G1 X199.712 Y60.622 E0.19716
G1 X200.374 Y60.874 E0.2325
G1 X200.959 Y61.138 E0.26452
G1 X201.472 Y61.406 E0.29339
G1 X202.089 Y61.779 E0.32936
G1 X202.566 Y62.111 E0.35836
G1 X202.974 Y62.422 E0.38395
G1 X203.677 Y63.044 E0.43078
G1 X204.127 Y63.502 E0.46281
G1 X204.594 Y64.045 E0.49855
G1 X204.921 Y64.466 E0.52514
G1 X205.363 Y65.108 E0.56403
G1 X205.905 Y66.044 E0.61799
G1 X206.296 Y66.839 E0.66219
G1 X206.511 Y67.341 E0.68943
G1 X206.899 Y68.393 E0.74537
G1 X207.246 Y69.581 E0.80712
G1 X207.499 Y70.644 E0.86164
G1 X207.622 Y71.256 E0.89278
G1 X207.723 Y71.846 E0.92264
G1 X207.856 Y72.778 E0.96961
G1 X208.01 Y74.292 E1.04553
G1 X208.072 Y75.27 E1.09443
G1 X208.28 Y78.043 E1.23316
G1 X208.565 Y80.781 E1.3705
G1 X208.922 Y83.48 E1.50632
G1 X209.353 Y86.158 E1.64165
G1 X209.875 Y88.899 E1.78086
G1 X210.455 Y91.534 E1.91546
G1 X211.116 Y94.18 E2.05153
G1 X211.867 Y96.864 E2.19058
G1 X212.673 Y99.463 E2.32633
G1 X213.69 Y102.414 E2.48206
G1 X214.424 Y104.438 E2.58947
G1 X214.757 Y105.594 E2.64949
G1 X215.003 Y106.634 E2.70281
G1 X215.124 Y107.242 E2.73373
G1 X215.221 Y107.812 E2.76258
G1 X215.369 Y108.855 E2.81514
G1 X215.517 Y110.416 E2.89337
G1 X215.591 Y111.564 E2.95076
G1 X215.629 Y112.636 E3.00427
G1 X215.646 Y113.95 E3.06984
G1 X215.684 Y116.369 E3.19053
G1 X215.799 Y119.085 E3.32616
G1 X215.994 Y121.831 E3.4635
G1 X216.262 Y124.535 E3.59907
G1 X216.61 Y127.259 E3.73607
G1 X217.035 Y129.959 E3.87243
G1 X217.538 Y132.668 E4.0099
G1 X218.103 Y135.292 E4.14381
G1 X218.764 Y137.989 E4.28234
G1 X219.197 Y139.553 E4.36331
G1 X219.759 Y141.626 E4.47046
G1 X219.998 Y142.637 E4.52229
G1 X220.123 Y143.261 E4.55404
G1 X220.223 Y143.846 E4.58365
G1 X220.356 Y144.778 E4.63062
G1 X220.51 Y146.29 E4.70644
G1 X220.589 Y147.537 E4.76878
G1 X220.63 Y148.668 E4.82524
G1 X220.642 Y149.418 E4.86267
G1 X220.644 Y150.334 E4.90837
G1 X220.636 Y151.026 E4.94289
G1 X220.616 Y151.821 E4.98257
G1 X220.555 Y153.05 E5.04396
G1 X220.496 Y153.846 E5.08378
G1 X220.382 Y154.996 E5.14144
G1 X220.292 Y155.747 E5.17917
G1 X219.997 Y158.313 E5.30803
G1 X219.763 Y161.023 E5.44374
G1 X219.605 Y163.768 E5.58091
G1 X219.524 Y166.522 E5.71837
G1 X219.52 Y169.24 E5.85397
G1 X219.595 Y171.992 E5.99132
G1 X219.746 Y174.709 E6.12708
G1 X219.975 Y177.44 E6.26381
G1 X220.289 Y180.103 E6.39759
G1 X220.394 Y181.092 E6.44721
G1 X220.51 Y182.29 E6.50725
G1 X220.589 Y183.537 E6.56959
G1 X220.63 Y184.668 E6.62606
G1 X220.642 Y185.418 E6.66348
G1 X220.644 Y186.334 E6.70918
G1 X220.636 Y187.026 E6.7437
G1 X220.616 Y187.821 E6.78338
G1 X220.555 Y189.05 E6.84477
G1 X220.496 Y189.846 E6.88459
G1 X220.382 Y190.996 E6.94225
G1 X220.248 Y191.987 E6.99214
G1 X220.146 Y192.6 E7.02314
G1 X219.973 Y193.474 E7.06759
G1 X219.732 Y194.494 E7.11988
G1 X219.489 Y195.394 E7.16639
G1 X218.881 Y197.563 E7.27877
G1 X218.223 Y200.188 E7.41378
G1 X217.634 Y202.862 E7.55039
G1 X217.108 Y205.602 E7.68958
G1 X216.681 Y208.254 E7.8236
G1 X216.321 Y210.962 E7.95989
G1 X216.034 Y213.708 E8.09763
G1 X215.826 Y216.449 E8.23478
G1 X215.699 Y219.134 E8.36888
G1 X215.638 Y222.931 E8.55834
G1 X215.614 Y223.895 E8.60645
G1 X215.553 Y225.1 E8.66664
G1 X215.498 Y225.846 E8.70396
G1 X215.395 Y226.907 E8.75714
G1 X215.328 Y227.451 E8.78449
G1 X215.252 Y227.985 E8.8114
G1 X215.165 Y228.516 E8.83824
G1 X214.969 Y229.512 E8.88889
G1 X214.738 Y230.498 E8.93941
G1 X214.266 Y232.015 E9.01867
G1 X213.733 Y233.49 E9.09692
G1 X212.814 Y236.135 E9.23662
G1 X212 Y238.711 E9.3714
G1 X211.25 Y241.338 E9.5077
G1 X210.554 Y244.066 E9.64816
G1 X209.97 Y246.667 E9.78115
G1 X209.442 Y249.37 E9.91855
G1 X208.989 Y252.092 E10.05622
G1 X208.618 Y254.793 E10.19224
G1 X208.326 Y257.486 E10.32738
G1 X207.996 Y261.849 E10.54567
G1 X207.882 Y262.996 E10.60318
G1 X207.748 Y263.987 E10.65307
G1 X207.646 Y264.6 E10.68407
G1 X207.473 Y265.474 E10.72852
G1 X207.232 Y266.494 E10.78081
G1 X206.76 Y268.005 E10.85979
G1 X206.515 Y268.653 E10.89435
G1 X206.041 Y269.695 E10.95146
G1 X205.65 Y270.42 E10.99256
G1 X205.237 Y271.083 E11.03153
G1 X204.784 Y271.72 E11.07053
G1 X204.162 Y272.456 E11.1186
G1 X203.777 Y272.861 E11.14648
G1 X203.369 Y273.243 E11.17436
G1 X203.019 Y273.535 E11.19711
G1 X202.366 Y274.027 E11.2379
G1 X201.896 Y274.343 E11.26615
G1 X201.409 Y274.629 E11.29433
G1 X201.038 Y274.819 E11.31512
G1 X200.367 Y275.122 E11.35185
G1 X199.484 Y275.459 E11.39901
G1 X198.976 Y275.615 E11.42552
G1 X197.663 Y275.911 E11.49267
G1 X196.907 Y276.024 E11.5308
G1 X195.526 Y276.125 E11.59989
G1 X195.015 Y276.142 E11.62539
G1 X193.461 Y276.145 E11.70292
G1 X106.614 Y276.146 E16.03574
G1 X105.644 Y276.147 E16.08413
G1 X105.121 Y276.142 E16.11023
G1 X103.725 Y276.084 E16.17993
G1 X102.301 Y275.904 E16.25154
G1 X101.79 Y275.806 E16.2775
G1 X101.095 Y275.636 E16.3132
G1 X100.337 Y275.398 E16.35283
G1 X99.455 Y275.052 E16.4001
G1 X98.933 Y274.81 E16.42881
G1 X98.382 Y274.509 E16.46013
G1 X97.899 Y274.211 E16.48844
G1 X97.256 Y273.756 E16.52774
G1 X96.631 Y273.239 E16.56821
G1 X96.076 Y272.708 E16.60653
G1 X95.644 Y272.238 E16.63838
G1 X95.183 Y271.666 E16.67503
G1 X94.728 Y271.03 E16.71405
G1 X94.309 Y270.35 E16.75389
G1 X94.03 Y269.839 E16.78294
G1 X93.773 Y269.32 E16.81183
G1 X93.49 Y268.674 E16.84702
G1 X93.21 Y267.935 E16.88645
G1 X92.827 Y266.695 E16.95119
G1 X92.692 Y266.183 E16.97761
G1 X92.454 Y265.124 E17.03176
G1 X92.361 Y264.633 E17.05669
G1 X92.177 Y263.451 E17.11637
G1 X92.11 Y262.918 E17.14318
G1 X92.004 Y261.857 E17.19637
G1 X91.912 Y260.467 E17.26587
G1 X91.7 Y257.739 E17.40238
G1 X91.411 Y255.014 E17.5391
G1 X91.045 Y252.302 E17.67562
G1 X90.601 Y249.59 E17.81273
G1 X90.086 Y246.922 E17.94829
G1 X89.487 Y244.231 E18.08583
G1 X88.818 Y241.579 E18.22229
G1 X88.079 Y238.964 E18.35786
G1 X87.254 Y236.33 E18.49556
G1 X86.347 Y233.704 E18.63417
G1 X85.678 Y231.876 E18.73129
G1 X85.299 Y230.619 E18.79679
G1 X85.161 Y230.086 E18.82425
G1 X84.96 Y229.184 E18.87036
G1 X84.854 Y228.627 E18.89865
G1 X84.68 Y227.506 E18.95524
G1 X84.614 Y226.988 E18.9813
G1 X84.499 Y225.819 E19.0399
G1 X84.41 Y224.447 E19.10849
G1 X84.386 Y223.886 E19.13651
G1 X84.364 Y223.124 E19.17454
G1 X84.354 Y222.028 E19.22922
G1 X84.316 Y219.578 E19.35147
G1 X84.201 Y216.862 E19.48709
G1 X84.006 Y214.116 E19.62443
G1 X83.738 Y211.41 E19.7601
G1 X83.39 Y208.688 E19.897
G1 X82.965 Y205.987 E20.03341
G1 X82.462 Y203.279 E20.17083
G1 X81.897 Y200.655 E20.30474
G1 X81.239 Y197.969 E20.44271
G1 X80.349 Y194.789 E20.60745
G1 X80.191 Y194.185 E20.6386
G1 X79.953 Y193.125 E20.6928
G1 X79.861 Y192.633 E20.71777
G1 X79.677 Y191.45 E20.7775
G1 X79.61 Y190.918 E20.80425
G1 X79.502 Y189.838 E20.8584
G1 X79.411 Y188.448 E20.9279
G1 X79.386 Y187.875 E20.95651
G1 X79.365 Y187.154 E20.9925
G1 X79.356 Y186.369 E21.03167
G1 X79.357 Y185.635 E21.06829
G1 X79.368 Y184.731 E21.11339
G1 X79.389 Y184.019 E21.14893
G1 X79.476 Y182.481 E21.22578
G1 X79.597 Y181.172 E21.29137
G1 X79.722 Y180.104 E21.34501
G1 X79.892 Y178.721 E21.41453
G1 X80.157 Y175.992 E21.55132
G1 X80.348 Y173.204 E21.69074
G1 X80.455 Y170.534 E21.82405
G1 X80.488 Y167.782 E21.96136
G1 X80.444 Y165.032 E22.09858
G1 X80.321 Y162.311 E22.23447
G1 X80.121 Y159.559 E22.37213
G1 X79.731 Y155.889 E22.55626
G1 X79.619 Y154.997 E22.60111
G1 X79.502 Y153.838 E22.65922
G1 X79.411 Y152.447 E22.72877
G1 X79.386 Y151.875 E22.75733
G1 X79.365 Y151.153 E22.79337
G1 X79.356 Y150.369 E22.83249
G1 X79.357 Y149.635 E22.86911
G1 X79.368 Y148.731 E22.91421
G1 X79.389 Y148.018 E22.9498
G1 X79.476 Y146.481 E23.0266
G1 X79.597 Y145.172 E23.09219
G1 X79.775 Y143.861 E23.15819
G1 X79.862 Y143.344 E23.18435
G1 X80.019 Y142.539 E23.22527
G1 X80.273 Y141.478 E23.27969
G1 X81.128 Y138.424 E23.43792
G1 X81.799 Y135.738 E23.57604
G1 X82.378 Y133.105 E23.71054
G1 X82.898 Y130.375 E23.84919
G1 X83.33 Y127.692 E23.98477
G1 X83.687 Y124.993 E24.1206
G1 X83.972 Y122.255 E24.25793
G1 X84.175 Y119.542 E24.39366
G1 X84.304 Y116.794 E24.53091
G1 X84.369 Y112.684 E24.73599
G1 X84.388 Y112.023 E24.76898
G1 X84.475 Y110.512 E24.84449
G1 X84.611 Y109.037 E24.91839
G1 X84.772 Y107.86 E24.97765
G1 X84.856 Y107.355 E25.0032
G1 X84.99 Y106.667 E25.03817
G1 X85.205 Y105.733 E25.08598
G1 X85.341 Y105.221 E25.11241
G1 X85.619 Y104.306 E25.16012
G1 X86.698 Y101.301 E25.31941
G1 X87.567 Y98.693 E25.45656
G1 X88.354 Y96.09 E25.59223
G1 X89.075 Y93.43 E25.72973
G1 X89.717 Y90.771 E25.8662
G1 X90.299 Y88.022 E26.00638
G1 X90.774 Y85.404 E26.13913
G1 X91.184 Y82.72 E26.27459
G1 X91.531 Y79.929 E26.4149
G1 X91.785 Y77.266 E26.54836
G1 X91.926 Y75.285 E26.64745
G1 X91.973 Y74.515 E26.68593
G1 X92.097 Y73.173 E26.75317
G1 X92.275 Y71.861 E26.81923
G1 X92.372 Y71.295 E26.84788
G1 X92.497 Y70.662 E26.88007
G1 X92.703 Y69.77 E26.92574
G1 X92.855 Y69.197 E26.95532
G1 X93.135 Y68.286 E27.00286
G1 X93.318 Y67.758 E27.03074
G1 X93.534 Y67.222 E27.05957
G1 X93.875 Y66.465 E27.101
G1 X94.221 Y65.8 E27.13839
G1 X94.494 Y65.336 E27.16525
G1 X95.002 Y64.572 E27.21103
G1 X95.417 Y64.024 E27.24532
G1 X95.851 Y63.524 E27.27835
G1 X96.657 Y62.738 E27.33452
G1 X97.089 Y62.372 E27.36277
G1 X97.608 Y61.984 E27.3951
G1 X98.02 Y61.715 E27.41964
G1 X98.772 Y61.278 E27.46304
G1 X99.274 Y61.03 E27.49097
G1 X100.148 Y60.669 E27.53815
G1 X100.905 Y60.422 E27.57787
G1 X102.04 Y60.15 E27.6361
G1 X102.891 Y60.008 E27.67915
G1 X103.575 Y59.928 E27.7135
G1 X104.103 Y59.89 E27.73991
G1 X105.769 Y59.854 E27.82305
G1 X106.548 Y59.855 E27.86192
G1 X193.386 Y59.854 E32.19428
G1 X194.356 Y59.853 E32.24267
G1 X195.188 Y59.862 E32.28419
G1 X195.843 Y59.884 E32.31688
G1 F1500 E25.81688
;MESH:mask110mm.stl(1)
G0 F3600 X195.668 Y62.408
G0 X195.595 Y63.49
G0 X198.298 Y70.568
G0 X198.324 Y85.256
G0 X197.846 Y86.341
G0 X197.189 Y86.825
G0 X196.078 Y86.957
G0 X194.46 Y86.396
;TYPE:WALL-INNER
G1 F1500 E32.31688
G1 F1800 X194.715 Y86.295 E32.33057
G1 X194.848 Y86.475 E32.34173
G1 X195.144 Y86.743 E32.36165
G1 X195.544 Y86.978 E32.3848
G1 X195.966 Y87.114 E32.40692
G1 X196.39 Y87.158 E32.42818
G1 X196.802 Y87.119 E32.44883
G1 X197.256 Y86.973 E32.47262
G1 X197.607 Y86.773 E32.49278
G1 X197.968 Y86.448 E32.51701
G1 X198.219 Y86.099 E32.53846
G1 X198.392 Y85.707 E32.55984
G1 X198.485 Y85.273 E32.58198
G1 X198.485 Y84.836 E32.60378
G1 X198.382 Y84.373 E32.62745
G1 X198.218 Y84.012 E32.64723
G1 X197.996 Y83.694 E32.66658
G1 X197.694 Y83.403 E32.6875
G1 X197.335 Y83.175 E32.70872
G1 X196.952 Y83.032 E32.72911
G1 X196.606 Y82.963 E32.74672
G1 X196.279 Y82.962 E32.76303
G1 X195.813 Y83.034 E32.78655
G1 X195.444 Y83.189 E32.80652
G1 X195.119 Y83.332 E32.82424
G1 X194.647 Y83.52 E32.84958
G1 X192.907 Y82.831 E32.94295
G1 X191.169 Y83.52 E33.03622
G1 X189.622 Y82.907 E33.11924
G1 X189.005 Y82.73 E33.15127
G1 X188.517 Y82.564 E33.17698
G1 X187.951 Y82.332 E33.2075
G1 X187.487 Y82.105 E33.23327
G1 X187.077 Y81.867 E33.25692
G1 X186.695 Y81.604 E33.28006
G1 X186.315 Y81.288 E33.30472
G1 X186.024 Y80.994 E33.32536
G1 X185.711 Y80.604 E33.35031
G1 X185.474 Y80.228 E33.37248
G1 X185.305 Y79.877 E33.39191
G1 X185.152 Y79.455 E33.41431
G1 X185.03 Y78.939 E33.44076
G1 X184.968 Y78.463 E33.46471
G1 X184.952 Y77.889 E33.49336
G1 X184.992 Y77.312 E33.52221
G1 X185.073 Y76.843 E33.54596
G1 X185.211 Y76.364 E33.57083
G1 X185.391 Y75.931 E33.59422
G1 X185.568 Y75.609 E33.61256
G1 X185.831 Y75.234 E33.63541
G1 X186.166 Y74.853 E33.66072
G1 X186.527 Y74.526 E33.68502
G1 X186.879 Y74.26 E33.70703
G1 X187.277 Y74.01 E33.73048
G1 X187.711 Y73.779 E33.75501
G1 X188.191 Y73.562 E33.78129
G1 X188.647 Y73.389 E33.80562
G1 X189.223 Y73.203 E33.83582
G1 X189.62 Y73.092 E33.85638
G1 X191.169 Y72.478 E33.93951
G1 X192.907 Y73.167 E34.03279
G1 X194.646 Y72.478 E34.12611
G1 X195.698 Y72.895 E34.18257
G1 X196.334 Y73.048 E34.2152
G1 X196.801 Y73.009 E34.23858
G1 X197.256 Y72.861 E34.26245
G1 X197.601 Y72.666 E34.28222
G1 X197.906 Y72.402 E34.30235
G1 X198.167 Y72.073 E34.3233
G1 X198.355 Y71.695 E34.34436
G1 X198.461 Y71.318 E34.3639
G1 X198.495 Y70.943 E34.38269
G1 X198.456 Y70.533 E34.40323
G1 X198.31 Y70.081 E34.42693
G1 X198.114 Y69.737 E34.44668
G1 X197.852 Y69.43 E34.46682
G1 X197.522 Y69.17 E34.48778
G1 X197.148 Y68.983 E34.50864
G1 X196.811 Y68.883 E34.52618
G1 X196.389 Y68.841 E34.54733
G1 X195.936 Y68.892 E34.57008
G1 X195.537 Y69.024 E34.59105
G1 X195.136 Y69.262 E34.61431
G1 X194.838 Y69.537 E34.63454
G1 X194.714 Y69.706 E34.645
G1 X194.45 Y69.604 E34.65912
G1 X192.833 Y70.597 E34.75379
G1 X191.266 Y69.978 E34.83784
G1 X188.841 Y70.938 E34.96796
G1 X188.266 Y70.967 E34.99669
G1 X187.697 Y71.028 E35.02524
G1 X187.15 Y71.118 E35.05289
G1 X186.386 Y71.309 E35.09218
G1 X185.828 Y71.507 E35.12172
G1 X185.371 Y71.715 E35.14677
G1 X184.879 Y71.993 E35.17497
G1 X184.363 Y72.365 E35.2067
G1 X183.899 Y72.795 E35.23826
G1 X183.49 Y73.278 E35.26984
G1 X183.138 Y73.815 E35.30187
G1 X182.88 Y74.323 E35.3303
G1 X182.688 Y74.791 E35.35553
G1 X182.505 Y75.365 E35.38559
G1 X182.35 Y76.061 E35.42117
G1 X182.247 Y76.804 E35.45859
G1 X182.196 Y77.59 E35.49788
G1 X182.196 Y78.408 E35.53869
G1 X182.238 Y79.096 E35.57308
G1 X182.306 Y79.663 E35.60157
G1 X182.404 Y80.206 E35.6291
G1 X182.603 Y80.964 E35.6682
G1 X182.811 Y81.524 E35.698
G1 X183.136 Y82.182 E35.73462
G1 X183.491 Y82.72 E35.76677
G1 X183.899 Y83.203 E35.79832
G1 X184.363 Y83.633 E35.82988
G1 X184.88 Y84.006 E35.86168
G1 X185.445 Y84.322 E35.89398
G1 X186.058 Y84.58 E35.92716
G1 X186.637 Y84.76 E35.95741
G1 X187.418 Y84.93 E35.99729
G1 X188.07 Y85.013 E36.03008
G1 X188.65 Y85.055 E36.05909
G1 X188.845 Y85.062 E36.06883
G1 X191.273 Y86.02 E36.19905
G1 X192.835 Y85.403 E36.28284
G1 X194.46 Y86.396 E36.37785
G0 F3600 X161.217 Y86.399
G1 F1800 X162.845 Y85.406 E36.47298
G1 X164.406 Y86.023 E36.55673
G1 X166.841 Y85.063 E36.68731
G1 X167.417 Y85.034 E36.71608
G1 X168.166 Y84.947 E36.7537
G1 X168.876 Y84.806 E36.78982
G1 X169.539 Y84.611 E36.82429
G1 X170.155 Y84.361 E36.85746
G1 X170.593 Y84.131 E36.88214
G1 X171.067 Y83.828 E36.91021
G1 X171.556 Y83.427 E36.94176
G1 X171.993 Y82.971 E36.97327
G1 X172.374 Y82.462 E37.00499
G1 X172.661 Y81.967 E37.03354
G1 X172.933 Y81.368 E37.06636
G1 X173.151 Y80.72 E37.10047
G1 X173.313 Y80.031 E37.13578
G1 X173.402 Y79.478 E37.16372
G1 X173.459 Y78.902 E37.1926
G1 X173.49 Y78.105 E37.23239
G1 X173.481 Y77.49 E37.26308
G1 X173.443 Y76.899 E37.29262
G1 X173.348 Y76.152 E37.33019
G1 X173.199 Y75.449 E37.36604
G1 X172.994 Y74.789 E37.40052
G1 X172.735 Y74.175 E37.43377
G1 X172.421 Y73.612 E37.46593
G1 X172.14 Y73.212 E37.49032
G1 X171.78 Y72.791 E37.51795
G1 X171.318 Y72.363 E37.54937
G1 X170.802 Y71.99 E37.58114
G1 X170.304 Y71.711 E37.60962
G1 X169.624 Y71.416 E37.6466
G1 X169.044 Y71.237 E37.67688
G1 X168.349 Y71.084 E37.71239
G1 X167.609 Y70.983 E37.74965
G1 X166.844 Y70.937 E37.78788
G1 X164.413 Y69.975 E37.91832
G1 X162.846 Y70.593 E38.00235
G1 X161.227 Y69.601 E38.09708
G1 X160.966 Y69.703 E38.11106
G1 X160.753 Y69.441 E38.12791
G1 X160.384 Y69.148 E38.15142
G1 X159.948 Y68.945 E38.17541
G1 X159.583 Y68.859 E38.19412
G1 X159.074 Y68.846 E38.21952
G1 X158.624 Y68.944 E38.2425
G1 X158.251 Y69.112 E38.26291
G1 X157.935 Y69.327 E38.28198
G1 X157.651 Y69.616 E38.30219
G1 X157.417 Y69.974 E38.32353
G1 X157.271 Y70.339 E38.34314
G1 X157.191 Y70.732 E38.36315
G1 X157.199 Y71.202 E38.3866
G1 X157.287 Y71.601 E38.40699
G1 X157.455 Y71.976 E38.42749
G1 X157.671 Y72.29 E38.4465
G1 X157.958 Y72.574 E38.46664
G1 X158.316 Y72.808 E38.48798
G1 X158.686 Y72.957 E38.50788
G1 X159.122 Y73.037 E38.53
G1 X159.452 Y73.029 E38.54647
G1 X160.145 Y72.838 E38.58233
