;FLAVOR:Marlin
;TIME:2388
;Filament used: 1.98109m
;Layer height: 0.15
;MINX:113.581
;MINY:120.856
;MINZ:0.3
;MAXX:186.419
;MAXY:179.144
;MAXZ:8.55
;Generated with Cura_SteamEngine 4.6.1
M140 S65
M105
M190 S65
M104 S200
M105
M109 S200
M82 ;absolute extrusion mode
G28 ;Home
G1 Z15.0 F6000 ;Move the platform down 15mm
;Prime the extruder
G92 E0
G1 F200 E3
G92 E0
G92 E0
G92 E0
G1 F1500 E-6.5
;LAYER_COUNT:56
;LAYER:0
M107
G0 F3600 X117.541 Y124.412 Z0.3
;TYPE:SKIRT
G1 F1500 E0
G1 F1800 X118.321 Y123.767 E0.0505
G1 X118.88 Y123.363 E0.08491
G1 X119.627 Y122.885 E0.12915
G1 X120.07 Y122.636 E0.1545
G1 X120.586 Y122.371 E0.18344
G1 X121.101 Y122.13 E0.21181
G1 X121.801 Y121.843 E0.24956
G1 X122.306 Y121.664 E0.27629
G1 X122.794 Y121.509 E0.30183
G1 X123.361 Y121.349 E0.33122
G1 X124.053 Y121.188 E0.36667
G1 X124.596 Y121.087 E0.39422
G1 X125.68 Y120.939 E0.44881
G1 X126.277 Y120.89 E0.47869
G1 X126.796 Y120.867 E0.50461
G1 X129.037 Y120.856 E0.61642
G1 X131.778 Y120.861 E0.75316
G1 X172.795 Y120.859 E2.79951
G1 X173.685 Y120.888 E2.84394
G1 X174.292 Y120.936 E2.87432
G1 X174.842 Y121.001 E2.90195
G1 X175.929 Y121.184 E2.95694
G1 X176.606 Y121.34 E2.9916
G1 X177.125 Y121.484 E3.01847
G1 X177.634 Y121.644 E3.04509
G1 X178.187 Y121.839 E3.07434
G1 X178.869 Y122.116 E3.11107
G1 X179.34 Y122.334 E3.13696
G1 X179.867 Y122.603 E3.16648
G1 X180.354 Y122.875 E3.19431
G1 X181.12 Y123.363 E3.23962
G1 X181.679 Y123.767 E3.27403
G1 X182.459 Y124.412 E3.32453
G1 X182.943 Y124.868 E3.3577
G1 X183.705 Y125.698 E3.41392
G1 X184.1 Y126.196 E3.44563
G1 X184.559 Y126.839 E3.48504
G1 X185.074 Y127.724 E3.53613
G1 X185.429 Y128.43 E3.57555
G1 X185.819 Y129.448 E3.62994
G1 X186.053 Y130.203 E3.66938
G1 X186.17 Y130.738 E3.6967
G1 X186.275 Y131.315 E3.72596
G1 X186.377 Y132.098 E3.76535
G1 X186.4 Y132.622 E3.79152
G1 X186.419 Y134.286 E3.87454
G1 X186.413 Y136.427 E3.98136
G1 X186.413 Y163.6 E5.33702
G1 X186.419 Y165.601 E5.43685
G1 X186.416 Y167.016 E5.50745
G1 X186.391 Y167.617 E5.53746
G1 X186.358 Y168.032 E5.55823
G1 X186.244 Y168.881 E5.60097
G1 X186.158 Y169.33 E5.62377
G1 X185.97 Y170.097 E5.66317
G1 X185.615 Y171.109 E5.71668
G1 X185.306 Y171.836 E5.75609
G1 X184.772 Y172.808 E5.81142
G1 X184.348 Y173.474 E5.85081
G1 X183.705 Y174.302 E5.90311
G1 X182.943 Y175.132 E5.95932
G1 X182.459 Y175.588 E5.9925
G1 X181.679 Y176.233 E6.04299
G1 X181.12 Y176.637 E6.0774
G1 X180.373 Y177.115 E6.12165
G1 X179.93 Y177.364 E6.147
G1 X179.414 Y177.629 E6.17594
G1 X178.899 Y177.87 E6.20431
G1 X178.199 Y178.157 E6.24205
G1 X177.694 Y178.336 E6.26878
G1 X177.206 Y178.491 E6.29433
G1 X176.639 Y178.651 E6.32372
G1 X175.947 Y178.812 E6.35917
G1 X175.404 Y178.913 E6.38672
G1 X174.32 Y179.061 E6.4413
G1 X173.723 Y179.11 E6.47119
G1 X173.204 Y179.133 E6.49711
G1 X170.963 Y179.144 E6.60891
G1 X168.222 Y179.139 E6.74566
G1 X127.206 Y179.141 E8.79196
G1 X126.315 Y179.112 E8.83643
G1 X125.705 Y179.064 E8.86696
G1 X125.156 Y178.999 E8.89454
G1 X124.071 Y178.816 E8.94944
G1 X123.394 Y178.66 E8.9841
G1 X122.875 Y178.516 E9.01097
G1 X122.366 Y178.356 E9.03759
G1 X121.813 Y178.161 E9.06684
G1 X121.13 Y177.883 E9.10363
G1 X120.657 Y177.664 E9.12964
G1 X120.129 Y177.395 E9.1592
G1 X119.644 Y177.124 E9.18692
G1 X118.88 Y176.637 E9.23212
G1 X118.321 Y176.233 E9.26653
G1 X117.541 Y175.588 E9.31703
G1 X117.057 Y175.132 E9.3502
G1 X116.295 Y174.302 E9.40642
G1 X115.9 Y173.804 E9.43813
G1 X115.441 Y173.161 E9.47754
G1 X114.926 Y172.276 E9.52863
G1 X114.571 Y171.57 E9.56805
G1 X114.179 Y170.547 E9.62271
G1 X113.946 Y169.793 E9.66208
G1 X113.828 Y169.254 E9.68961
G1 X113.724 Y168.68 E9.71871
G1 X113.623 Y167.896 E9.75815
G1 X113.6 Y167.378 E9.78402
G1 X113.581 Y165.714 E9.86704
G1 X113.587 Y163.573 E9.97385
G1 X113.587 Y136.4 E11.32952
G1 X113.581 Y134.399 E11.42935
G1 X113.584 Y132.984 E11.49995
G1 X113.609 Y132.383 E11.52996
G1 X113.642 Y131.968 E11.55073
G1 X113.756 Y131.119 E11.59346
G1 X113.842 Y130.67 E11.61627
G1 X114.03 Y129.903 E11.65567
G1 X114.385 Y128.891 E11.70917
G1 X114.694 Y128.164 E11.74858
G1 X115.228 Y127.192 E11.80391
G1 X115.652 Y126.526 E11.8433
G1 X116.295 Y125.698 E11.89561
G1 X117.057 Y124.868 E11.95182
G1 X117.541 Y124.412 E11.98499
G0 F3600 X117.816 Y124.703
G1 F1800 X118.555 Y124.091 E12.03286
G1 X119.114 Y123.687 E12.06727
G1 X119.823 Y123.234 E12.10925
G1 X120.266 Y122.985 E12.1346
G1 X120.756 Y122.734 E12.16207
G1 X121.271 Y122.493 E12.19044
G1 X121.935 Y122.22 E12.22626
G1 X122.44 Y122.041 E12.25299
G1 X123.469 Y121.734 E12.30656
G1 X124.126 Y121.581 E12.34021
G1 X124.669 Y121.48 E12.36777
G1 X125.728 Y121.336 E12.42109
G1 X126.294 Y121.289 E12.44942
G1 X126.813 Y121.266 E12.47534
G1 X129.037 Y121.256 E12.5863
G1 X131.778 Y121.261 E12.72305
G1 X172.795 Y121.259 E14.7694
G1 X173.669 Y121.288 E14.81302
G1 X174.246 Y121.333 E14.8419
G1 X174.796 Y121.398 E14.86953
G1 X175.857 Y121.578 E14.92322
G1 X176.499 Y121.725 E14.95608
G1 X177.018 Y121.869 E14.98295
G1 X177.501 Y122.021 E15.00821
G1 X178.054 Y122.216 E15.03746
G1 X178.701 Y122.479 E15.07231
G1 X179.172 Y122.697 E15.0982
G1 X179.672 Y122.952 E15.1262
G1 X180.159 Y123.224 E15.15403
G1 X180.886 Y123.687 E15.19703
G1 X181.445 Y124.091 E15.23144
G1 X182.184 Y124.703 E15.27931
G1 X182.668 Y125.159 E15.31249
G1 X183.392 Y125.946 E15.36584
G1 X183.787 Y126.444 E15.39755
G1 X184.424 Y127.39 E15.45445
G1 X184.726 Y127.922 E15.48497
G1 X185.071 Y128.61 E15.52337
G1 X185.444 Y129.586 E15.5755
G1 X185.67 Y130.321 E15.61386
G1 X185.881 Y131.386 E15.66803
G1 X185.98 Y132.149 E15.70641
G1 X186.02 Y134.291 E15.81329
G1 X186.013 Y136.426 E15.91981
G1 X186.013 Y163.6 E17.27553
G1 X186.019 Y165.602 E17.37541
G1 X186.016 Y167.015 E17.4459
G1 X185.993 Y167.586 E17.47441
G1 X185.96 Y168.001 E17.49518
G1 X185.851 Y168.806 E17.53571
G1 X185.765 Y169.255 E17.55852
G1 X185.581 Y170.002 E17.5969
G1 X185.239 Y170.972 E17.64821
G1 X184.937 Y171.679 E17.68657
G1 X184.424 Y172.61 E17.7396
G1 X183.787 Y173.556 E17.7965
G1 X183.392 Y174.054 E17.82821
G1 X182.668 Y174.841 E17.88156
G1 X182.184 Y175.297 E17.91474
G1 X181.445 Y175.909 E17.96261
G1 X180.886 Y176.313 E17.99702
G1 X180.177 Y176.766 E18.03899
G1 X179.734 Y177.015 E18.06435
G1 X179.244 Y177.266 E18.09181
G1 X178.729 Y177.507 E18.12018
G1 X178.065 Y177.78 E18.156
G1 X177.56 Y177.959 E18.18273
G1 X176.531 Y178.266 E18.2363
G1 X175.874 Y178.419 E18.26996
G1 X175.331 Y178.52 E18.29751
G1 X174.272 Y178.664 E18.35083
G1 X173.706 Y178.711 E18.37917
G1 X173.187 Y178.734 E18.40509
G1 X170.963 Y178.744 E18.51604
G1 X168.222 Y178.739 E18.65279
G1 X127.206 Y178.741 E20.69909
G1 X126.331 Y178.712 E20.74277
G1 X125.752 Y178.667 E20.77174
G1 X125.203 Y178.602 E20.79932
G1 X124.143 Y178.422 E20.85296
G1 X123.501 Y178.275 E20.88582
G1 X122.982 Y178.131 E20.91269
G1 X122.499 Y177.979 E20.93795
G1 X121.946 Y177.784 E20.96721
G1 X121.298 Y177.52 E21.00212
G1 X120.825 Y177.301 E21.02812
G1 X120.324 Y177.046 E21.05617
G1 X119.839 Y176.775 E21.08389
G1 X119.114 Y176.313 E21.12678
G1 X118.555 Y175.909 E21.16119
G1 X117.816 Y175.297 E21.20906
G1 X117.332 Y174.841 E21.24223
G1 X116.608 Y174.054 E21.29558
G1 X116.213 Y173.556 E21.3273
G1 X115.576 Y172.61 E21.38419
G1 X115.274 Y172.078 E21.41471
G1 X114.929 Y171.39 E21.45311
G1 X114.555 Y170.41 E21.50544
G1 X114.328 Y169.675 E21.54382
G1 X114.222 Y169.182 E21.56898
G1 X114.118 Y168.608 E21.59808
G1 X114.02 Y167.845 E21.63646
G1 X113.98 Y165.709 E21.74305
G1 X113.987 Y163.574 E21.84956
G1 X113.987 Y136.4 E23.20528
G1 X113.981 Y134.398 E23.30516
G1 X113.984 Y132.985 E23.37565
G1 X114.007 Y132.414 E23.40416
G1 X114.04 Y131.999 E23.42493
G1 X114.149 Y131.194 E23.46546
G1 X114.235 Y130.745 E23.48827
G1 X114.419 Y129.998 E23.52665
G1 X114.761 Y129.028 E23.57797
G1 X115.063 Y128.321 E23.61632
G1 X115.576 Y127.39 E23.66935
G1 X116.213 Y126.444 E23.72625
G1 X116.608 Y125.946 E23.75796
G1 X117.332 Y125.159 E23.81132
G1 X117.816 Y124.703 E23.84449
G0 F3600 X118.09 Y124.994
G1 F1800 X118.79 Y124.416 E23.88978
G1 X119.349 Y124.012 E23.92419
G1 X120.019 Y123.583 E23.96388
G1 X120.462 Y123.334 E23.98924
G1 X120.925 Y123.096 E24.01521
G1 X121.44 Y122.855 E24.04358
G1 X122.068 Y122.597 E24.07745
G1 X122.573 Y122.418 E24.10418
G1 X123.578 Y122.119 E24.15649
G1 X124.199 Y121.974 E24.1883
G1 X124.742 Y121.873 E24.21586
G1 X125.777 Y121.733 E24.26797
G1 X126.312 Y121.689 E24.29475
G1 X126.831 Y121.666 E24.32067
G1 X129.038 Y121.656 E24.43077
G1 X131.777 Y121.661 E24.56742
G1 X172.795 Y121.659 E26.61382
G1 X173.653 Y121.687 E26.65665
G1 X174.199 Y121.73 E26.68397
G1 X174.749 Y121.795 E26.7116
G1 X175.784 Y121.971 E26.76398
G1 X176.392 Y122.111 E26.79511
G1 X176.911 Y122.255 E26.82198
G1 X177.921 Y122.593 E26.87512
G1 X178.533 Y122.842 E26.90808
G1 X179.004 Y123.06 E26.93397
G1 X179.477 Y123.302 E26.96048
G1 X179.964 Y123.574 E26.98831
G1 X180.651 Y124.012 E27.02896
G1 X181.21 Y124.416 E27.06337
G1 X181.91 Y124.994 E27.10866
G1 X182.394 Y125.45 E27.14183
G1 X183.078 Y126.195 E27.19229
G1 X183.473 Y126.693 E27.224
G1 X184.077 Y127.587 E27.27783
G1 X184.379 Y128.119 E27.30835
G1 X184.713 Y128.789 E27.3457
G1 X185.068 Y129.724 E27.39559
G1 X185.288 Y130.439 E27.43292
G1 X185.488 Y131.458 E27.48472
G1 X185.582 Y132.2 E27.52204
G1 X185.62 Y134.295 E27.62658
G1 X185.613 Y136.424 E27.73279
G1 X185.613 Y163.6 E29.08861
G1 X185.619 Y165.603 E29.18854
G1 X185.616 Y167.014 E29.25893
G1 X185.594 Y167.554 E29.2859
G1 X185.561 Y167.969 E29.30667
G1 X185.458 Y168.731 E29.34503
G1 X185.372 Y169.18 E29.36784
G1 X185.192 Y169.906 E29.40515
G1 X184.863 Y170.834 E29.45428
G1 X184.569 Y171.522 E29.4916
G1 X184.077 Y172.413 E29.54238
G1 X183.473 Y173.307 E29.59621
G1 X183.078 Y173.805 E29.62792
G1 X182.394 Y174.55 E29.67838
G1 X181.91 Y175.006 E29.71155
G1 X181.21 Y175.584 E29.75684
G1 X180.651 Y175.988 E29.79125
G1 X179.981 Y176.417 E29.83095
G1 X179.538 Y176.666 E29.8563
G1 X179.075 Y176.904 E29.88227
G1 X178.56 Y177.145 E29.91064
G1 X177.932 Y177.403 E29.94451
G1 X177.427 Y177.582 E29.97124
G1 X176.422 Y177.881 E30.02355
G1 X175.801 Y178.026 E30.05537
G1 X175.258 Y178.127 E30.08292
G1 X174.223 Y178.267 E30.13503
G1 X173.688 Y178.311 E30.16181
G1 X173.169 Y178.334 E30.18773
G1 X170.962 Y178.344 E30.29784
G1 X168.223 Y178.339 E30.43449
G1 X127.206 Y178.341 E32.48083
G1 X126.347 Y178.313 E32.52371
G1 X125.799 Y178.269 E32.55114
G1 X125.25 Y178.204 E32.57872
G1 X124.216 Y178.029 E32.63104
G1 X123.608 Y177.889 E32.66217
G1 X123.089 Y177.745 E32.68904
G1 X122.079 Y177.407 E32.74218
G1 X121.466 Y177.157 E32.7752
G1 X120.993 Y176.938 E32.80121
G1 X120.52 Y176.697 E32.82769
G1 X120.035 Y176.426 E32.85541
G1 X119.349 Y175.988 E32.89602
G1 X118.79 Y175.584 E32.93043
G1 X118.09 Y175.006 E32.97572
G1 X117.606 Y174.55 E33.00889
G1 X116.922 Y173.805 E33.05935
G1 X116.527 Y173.307 E33.09106
G1 X115.923 Y172.413 E33.14489
G1 X115.621 Y171.881 E33.17541
G1 X115.287 Y171.211 E33.21276
G1 X114.931 Y170.272 E33.26286
G1 X114.711 Y169.557 E33.30018
G1 X114.511 Y168.537 E33.35204
G1 X114.417 Y167.795 E33.38935
G1 X114.38 Y165.705 E33.49364
G1 X114.387 Y163.576 E33.59986
G1 X114.387 Y136.4 E34.95567
G1 X114.381 Y134.397 E35.0556
G1 X114.384 Y132.986 E35.126
G1 X114.406 Y132.446 E35.15296
G1 X114.439 Y132.031 E35.17373
G1 X114.542 Y131.269 E35.21209
G1 X114.628 Y130.82 E35.2349
G1 X114.808 Y130.094 E35.27222
G1 X115.137 Y129.166 E35.32134
G1 X115.431 Y128.478 E35.35867
G1 X115.923 Y127.587 E35.40945
G1 X116.527 Y126.693 E35.46327
G1 X116.922 Y126.195 E35.49498
G1 X117.606 Y125.45 E35.54544
G1 X118.09 Y124.994 E35.57862
G0 F3600 X118.364 Y125.285
G1 F1800 X119.024 Y124.74 E35.62132
G1 X119.583 Y124.336 E35.65573
G1 X120.215 Y123.932 E35.69315
G1 X120.658 Y123.683 E35.71851
G1 X121.61 Y123.217 E35.77139
G1 X122.202 Y122.974 E35.80331
G1 X122.707 Y122.795 E35.83004
G1 X123.687 Y122.504 E35.88105
G1 X124.272 Y122.367 E35.91102
G1 X124.815 Y122.266 E35.93858
G1 X125.825 Y122.13 E35.98942
G1 X126.33 Y122.088 E36.0147
G1 X126.849 Y122.065 E36.04062
G1 X129.039 Y122.056 E36.14988
G1 X131.776 Y122.061 E36.28643
G1 X172.795 Y122.059 E38.33288
G1 X173.638 Y122.087 E38.37496
G1 X174.152 Y122.128 E38.40068
G1 X174.702 Y122.193 E38.42831
G1 X175.712 Y122.364 E38.47942
G1 X176.286 Y122.496 E38.5088
G1 X176.805 Y122.64 E38.53567
G1 X177.788 Y122.971 E38.58742
G1 X178.365 Y123.205 E38.61849
G1 X178.836 Y123.423 E38.64438
G1 X179.282 Y123.651 E38.66937
G1 X179.769 Y123.923 E38.6972
G1 X180.417 Y124.336 E38.73554
G1 X180.976 Y124.74 E38.76994
G1 X181.636 Y125.285 E38.81265
G1 X182.12 Y125.741 E38.84582
G1 X182.765 Y126.444 E38.89342
G1 X183.16 Y126.942 E38.92513
G1 X183.729 Y127.785 E38.97587
G1 X184.031 Y128.317 E39.00639
G1 X184.487 Y129.303 E39.06059
G1 X184.692 Y129.862 E39.0903
G1 X184.905 Y130.556 E39.12651
G1 X185.094 Y131.529 E39.17597
G1 X185.185 Y132.25 E39.21222
G1 X185.22 Y134.3 E39.31451
G1 X185.213 Y136.423 E39.42043
G1 X185.213 Y163.6 E40.77629
G1 X185.219 Y165.604 E40.87628
G1 X185.216 Y167.013 E40.94657
G1 X185.195 Y167.522 E40.97199
G1 X185.162 Y167.937 E40.99276
G1 X185.065 Y168.656 E41.02895
G1 X184.979 Y169.105 E41.05176
G1 X184.694 Y170.134 E41.10503
G1 X184.488 Y170.696 E41.13489
G1 X184.031 Y171.683 E41.18916
G1 X183.729 Y172.215 E41.21968
G1 X183.16 Y173.058 E41.27042
G1 X182.765 Y173.556 E41.30213
G1 X182.12 Y174.259 E41.34973
G1 X181.636 Y174.715 E41.3829
G1 X180.976 Y175.26 E41.42561
G1 X180.417 Y175.664 E41.46002
G1 X179.785 Y176.068 E41.49744
G1 X179.342 Y176.317 E41.52279
G1 X178.39 Y176.783 E41.57567
G1 X177.798 Y177.026 E41.6076
G1 X177.293 Y177.205 E41.63433
G1 X176.313 Y177.496 E41.68533
G1 X175.728 Y177.633 E41.71531
G1 X175.185 Y177.734 E41.74286
G1 X174.175 Y177.87 E41.79371
G1 X173.67 Y177.912 E41.81899
G1 X173.151 Y177.935 E41.84491
G1 X170.961 Y177.944 E41.95417
G1 X168.224 Y177.939 E42.09072
G1 X127.206 Y177.941 E44.13711
G1 X126.362 Y177.913 E44.17924
G1 X125.846 Y177.872 E44.20507
G1 X125.297 Y177.807 E44.23265
G1 X124.288 Y177.636 E44.2837
G1 X123.714 Y177.504 E44.31309
G1 X123.195 Y177.36 E44.33996
G1 X122.212 Y177.029 E44.39171
G1 X121.634 Y176.794 E44.42284
G1 X121.161 Y176.575 E44.44884
G1 X120.715 Y176.348 E44.47381
G1 X120.23 Y176.077 E44.50153
G1 X119.583 Y175.664 E44.53982
G1 X119.024 Y175.26 E44.57423
G1 X118.364 Y174.715 E44.61693
G1 X117.88 Y174.259 E44.65011
G1 X117.235 Y173.556 E44.69771
G1 X116.84 Y173.058 E44.72942
G1 X116.271 Y172.215 E44.78016
G1 X115.969 Y171.683 E44.81068
G1 X115.512 Y170.696 E44.86495
G1 X115.306 Y170.134 E44.89481
G1 X115.094 Y169.44 E44.93101
G1 X114.905 Y168.466 E44.98051
G1 X114.815 Y167.745 E45.01676
G1 X114.78 Y165.7 E45.1188
G1 X114.787 Y163.577 E45.22472
G1 X114.787 Y136.4 E46.58058
G1 X114.781 Y134.396 E46.68056
G1 X114.784 Y132.987 E46.75086
G1 X114.805 Y132.478 E46.77628
G1 X114.838 Y132.063 E46.79705
G1 X114.935 Y131.344 E46.83324
G1 X115.021 Y130.895 E46.85605
G1 X115.306 Y129.866 E46.90932
G1 X115.512 Y129.304 E46.93918
G1 X115.969 Y128.317 E46.99345
G1 X116.271 Y127.785 E47.02397
G1 X116.84 Y126.942 E47.07471
G1 X117.235 Y126.444 E47.10642
G1 X117.88 Y125.741 E47.15402
G1 X118.364 Y125.285 E47.18719
G0 F3600 X118.638 Y125.576
G1 F1800 X119.258 Y125.064 E47.22731
G1 X119.817 Y124.66 E47.26172
G1 X120.411 Y124.28 E47.2969
G1 X120.854 Y124.031 E47.32225
G1 X121.779 Y123.579 E47.37361
G1 X122.336 Y123.351 E47.40364
G1 X122.841 Y123.172 E47.43037
G1 X123.795 Y122.889 E47.48002
G1 X124.345 Y122.761 E47.50819
G1 X124.888 Y122.66 E47.53575
G1 X125.873 Y122.527 E47.58533
G1 X126.867 Y122.465 E47.63502
G1 X129.039 Y122.456 E47.74338
G1 X131.775 Y122.461 E47.87988
G1 X172.795 Y122.459 E49.92638
G1 X173.622 Y122.487 E49.96766
G1 X174.655 Y122.59 E50.01945
G1 X175.64 Y122.758 E50.06931
G1 X176.179 Y122.882 E50.0969
G1 X176.698 Y123.026 E50.12377
G1 X177.655 Y123.348 E50.17414
G1 X178.197 Y123.568 E50.20333
G1 X178.668 Y123.786 E50.22922
G1 X179.574 Y124.272 E50.28051
G1 X180.183 Y124.66 E50.31654
G1 X180.742 Y125.064 E50.35095
G1 X181.362 Y125.576 E50.39107
G1 X181.846 Y126.032 E50.42424
G1 X182.452 Y126.692 E50.46894
G1 X182.847 Y127.19 E50.50066
G1 X183.381 Y127.982 E50.54831
G1 X183.683 Y128.514 E50.57883
